;FLAVOR:Marlin
;TIME:475.276
;Filament used:1.47771m
;Layer Height:0.28
;MINX:88.192
;MINY:91.435
;MINZ:0.28
;MAXX:136.712
;MAXY:140.017
;MAXZ:10.28
;OuterWall Time:197.724
;InnerWall Time:174.189
;Skin Time:0
;Support Time:0
;SkirtBrim Time:0
;Infill Time:0
;Support Infills Time:0
;Combing Time:20.2503
;Retraction Time:83.1123
;PrimeTower Time:0

;
;
;
;

;;;;;;;;;;;;;;;;;;;;;;;;;;;;;;;;;;;;;;;;;;;;;;;;;;;;;;;;;;;;;;;;;;;;;;;;;;;;
;Creality Print GCode Generated by CXEngine
;CRSLICE_GIT_HASH:6b8d75d
;Creality Print Version : V4.3.7.6627
;CXEngine Release Time:2023-09-22 09:18:32
;Gcode Generated Time:2024-05-24 13:23:07
;----------Machine Config--------------
;Machine Name:Ender-3 V3 SE
;Machine Height:250
;Machine Width:220
;Machine Depth:220
;Material Type:PLA
;Material Name:CR-PLA_1.75
;Number of Extruders:1
;ExtruderParams[0] Nozzle Diameter:1000
;----------Profile Config---------------
;Wall Thickness:0.8
;Top/Bottom Thickness:0.8
;Out Wall Line Width:0.42
;Inner Wall Line Width:0.45
;Inital Height:280
;Wall Line Count:3
;Infill Line Distance:8
;Infill Pattern:grid
;Infill Sparse Density:10
;Infill Wipe Distance:0.11
;Print Temperature:205
;Bed Temperature:50
;Support Enable:true
;Support Density:0
;Support Angle:60
;Adhesion Type:autobrim
;machine is belt:false
;machine belt offset:10
;machine belt offset Y:0
;Raft Base Line Spacing:1.6
;Wait Heatup Sync:true
;Enable Ironing:false
;Material Type:PLA
;Max volumetric speed:20
;Material Diameter:1.75
;Material Density:1.24
;Filament Cost:0.3
;Filament Weight:0
;Preview Img Type:png
;Screen Size:Sermoon D3
;----------Shell Config----------------
;Outer Wall Wipe Distance:200
;Outer Inset First:false
;Infill Before Walls:false
;Infill Overlap:0.05
;Fill Gaps Between Walls:everywhere
;Minimum Infill Area:3
;Top Surface Skin Layer:0
;Top Layers:3
;Z Seam Alignment:user_specified
;Seam Corner Preference:z_seam_corner_inner
;Z Seam X:10
;Z Seam Y:0
;Horizontal Expansion:0
;Top/Bottom Pattern:zigzag
;Ironing Pattern:zigzag
;Vase Model:false
;----------Support Config----------------
;Support Type:everywhere
;Support Pattern:zigzag
;Support Infill Layer Thickness:0.28
;Minimum Support Area:1
;Enable Support Roof:true
;Support Roof Thickness:0.8
;Support Roof Pattern:lines
;Connect Support Lines:0
;Connect Support ZigZags:1
;Minimum Support X/Y Distance:0.2
;Support Line Distance:0
; ---------PrintSpeed & Travel----------
;Enable Print Cool:true
;Avoid Printed Parts Traveling:true
;Enable Retraction:true
;Retraction Distance:0.8
;Retraction Speed:40
;Retraction Prime Speed:40
;Maximum Retraction Count:100
;Minimum Extrusion Distance Window:0.8
;Z Hop When Retracted:true
;Z Hop Height:0.2
;Retract Before Outer Wall:true

;Outer Wall Speed:60
;Inner Wall Speed:180
;Infill Speed:180
;Top/Bottom Speed:50
;Travel Speed:150
;Initial Layer Speed:30
;Skirt/Brim Speed:25
;Prime Tower Speed:60
;Outer Wall Acceleration:1000
;Inner Wall Acceleration:2000
;Infill Acceleration:2500
;Top/Bottom Acceleration:2500
;Travel Acceleration:2500
;Initial Layer Print Acceleration:500
;Initial Layer Travel Acceleration:500
;Skirt/Brim Acceleration:500
;Combing Mode:off
; --------SpecialModel&Mesh Fixes--------
;Union Overlapping Volum:true
;Remove All Holes:false
;Maximum Travel Resolution:0.25
;Maximum Deviation:0.05
;Maximum Model Angle:0.872767
;IS Mold Print:false
;Make Overhang Printable:false
;Enable Coasting:false
;Coasting Volumes:0.064
;Coasting Speed:0.9
;Raft AirGap:0.25
;Layer0 ZOverLap:0.13
;Adaptive Layers:0
;---------------------End of Head--------------------------
M140 S50
M105
M190 S50
M104 S205
M82 ;absolute extrusion mode
M220 S100 ;Reset Feedrate
M221 S100 ;Reset Flowrate

G28 ;Home

G92 E0 ;Reset Extruder
G1 Z2.0 F3000 ;Move Z Axis up
G1 X10.1 Y20 Z0.28 F5000.0 ;Move to start position
M109 S205.000000
G1 X10.1 Y145.0 Z0.28 F1500.0 E15 ;Draw the first line
G1 X10.4 Y145.0 Z0.28 F5000.0 ;Move to side a little
G1 X10.4 Y20 Z0.28 F1500.0 E30 ;Draw the second line
G92 E0  ;Reset Extruder
G1 E-1.0000 F1800 ;Retract a bit
G1 Z2.0 F3000 ;Move Z Axis up
G1 E0.0000 F1800 

G92 E0
G92 E0
G1 F2400 E-0.8
;LAYER_COUNT:36

;LAYER:0
M106 S0
M204 S500
;;retract;;
G1 F2400 E-0.56
G1 F2400 E-0.8
G1 F600 Z0.48
;MESH:0_0
G0 F4800 X135.18 Y108.829 Z0.48
;TYPE:WALL-INNER
G1 F600 Z0.28
G1 F2400 E0
G1 F1800 X135.498 Y109.969 E0.06819
G1 X135.749 Y111.092 E0.13449
G1 X135.956 Y112.282 E0.20408
G1 X136.098 Y113.427 E0.27056
G1 X136.182 Y114.579 E0.33711
G1 X136.212 Y115.741 E0.40408
G1 X136.184 Y116.88 E0.46973
G1 X136.099 Y118.071 E0.53852
G1 X135.954 Y119.242 E0.60651
G1 X135.756 Y120.393 E0.6738
G1 X135.502 Y121.529 E0.74087
G1 X135.195 Y122.632 E0.80683
G1 X134.83 Y123.745 E0.87432
G1 X134.408 Y124.837 E0.94177
G1 X133.936 Y125.905 E1.00905
G1 X133.407 Y126.956 E1.07684
G1 X132.84 Y127.96 E1.14327
G1 X132.214 Y128.947 E1.21062
G1 X131.545 Y129.9 E1.2777
G1 X130.828 Y130.818 E1.34482
G1 X130.067 Y131.701 E1.41198
G1 X129.262 Y132.548 E1.4793
G1 X128.397 Y133.373 E1.54818
G1 X127.521 Y134.126 E1.61473
G1 X126.619 Y134.832 E1.68073
G1 X125.648 Y135.514 E1.74909
G1 X124.644 Y136.151 E1.8176
G1 X123.663 Y136.705 E1.88251
G1 X122.597 Y137.242 E1.95129
G1 X121.543 Y137.708 E2.01768
G1 X120.467 Y138.124 E2.08415
G1 X119.368 Y138.489 E2.15087
G1 X118.238 Y138.803 E2.21845
G1 X117.068 Y139.063 E2.2875
G1 X115.968 Y139.254 E2.35183
G1 X114.778 Y139.403 E2.42093
G1 X113.628 Y139.488 E2.48737
G1 X112.464 Y139.517 E2.55445
G1 X111.302 Y139.489 E2.62142
G1 X110.139 Y139.404 E2.68861
G1 X108.967 Y139.259 E2.75665
G1 X107.783 Y139.054 E2.82588
G1 X106.677 Y138.806 E2.89119
G1 X105.534 Y138.487 E2.95956
G1 X104.446 Y138.128 E3.02557
G1 X103.372 Y137.713 E3.09191
G1 X102.305 Y137.241 E3.15914
G1 X101.25 Y136.709 E3.22721
G1 X100.232 Y136.134 E3.29458
G1 X99.25 Y135.511 E3.36158
G1 X98.294 Y134.838 E3.42894
G1 X97.389 Y134.131 E3.49511
G1 X96.493 Y133.36 E3.56322
G1 X95.66 Y132.566 E3.62952
G1 X94.854 Y131.719 E3.69689
G1 X94.099 Y130.846 E3.76339
G1 X93.374 Y129.92 E3.83115
G1 X92.703 Y128.967 E3.8983
G1 X92.064 Y127.96 E3.96701
G1 X91.503 Y126.966 E4.03278
G1 X90.979 Y125.928 E4.09977
G1 X90.506 Y124.86 E4.16707
G1 X90.095 Y123.799 E4.23263
G1 X89.72 Y122.673 E4.30101
G1 X89.406 Y121.542 E4.36864
G1 X89.158 Y120.435 E4.434
G1 X88.952 Y119.254 E4.50307
G1 X88.806 Y118.084 E4.57101
G1 X88.722 Y116.932 E4.63756
G1 X88.692 Y115.76 E4.7051
G1 X88.721 Y114.606 E4.77161
G1 X88.806 Y113.431 E4.83949
G1 X88.95 Y112.272 E4.90678
G1 X89.148 Y111.122 E4.97402
G1 X89.406 Y109.972 E5.04192
G1 X89.718 Y108.852 E5.10891
G1 X90.075 Y107.766 E5.17477
G1 X90.496 Y106.678 E5.24199
G1 X90.955 Y105.639 E5.30744
G1 X91.48 Y104.592 E5.37492
G1 X92.051 Y103.578 E5.44197
G1 X92.69 Y102.568 E5.51083
G1 X93.359 Y101.615 E5.57792
G1 X94.076 Y100.697 E5.64503
G1 X94.837 Y99.813 E5.71224
G1 X95.642 Y98.966 E5.77956
G1 X96.507 Y98.142 E5.84839
G1 X97.363 Y97.406 E5.91344
G1 X98.286 Y96.683 E5.98099
G1 X99.267 Y95.992 E6.05013
G1 X100.235 Y95.38 E6.11611
G1 X101.24 Y94.809 E6.18271
G1 X102.296 Y94.278 E6.25081
G1 X103.387 Y93.795 E6.31955
G1 X104.437 Y93.39 E6.3844
G1 X105.524 Y93.029 E6.45039
G1 X106.667 Y92.711 E6.51874
G1 X107.761 Y92.466 E6.58334
G1 X108.935 Y92.261 E6.652
G1 X110.126 Y92.111 E6.72117
G1 X111.277 Y92.027 E6.78766
G1 X112.439 Y91.997 E6.85463
G1 X113.603 Y92.026 E6.92172
G1 X114.522 Y92.093 E6.97481
G1 X114.577 Y92.228 E6.98321
G1 F1656.1 X114.832 Y92.477 E7.00553
G1 F1500 X115.86 Y92.605 E7.07715
G1 F1463.1 X116.472 Y92.71 E7.12117
G1 F1530.9 X116.88 Y92.534 E7.15127
G1 F1700.4 X116.941 Y92.419 E7.15921
G1 F1800 X118.239 Y92.711 E7.23586
G1 X119.372 Y93.028 E7.30365
G1 X120.47 Y93.39 E7.37026
G1 X121.531 Y93.801 E7.43582
G1 X122.6 Y94.274 E7.50317
G1 X123.653 Y94.805 E7.57112
G1 X124.672 Y95.382 E7.63859
G1 X125.654 Y96.003 E7.70553
G1 X126.608 Y96.675 E7.77277
G1 X127.513 Y97.381 E7.8389
G1 X128.407 Y98.152 E7.90692
G1 X129.243 Y98.947 E7.97339
G1 X130.047 Y99.791 E8.04055
G1 X130.805 Y100.67 E8.10742
G1 X131.527 Y101.592 E8.17489
G1 X132.201 Y102.548 E8.24229
G1 X132.824 Y103.531 E8.30934
G1 X133.4 Y104.546 E8.37658
G1 X133.936 Y105.609 E8.44518
G1 X134.408 Y106.676 E8.5124
G1 X134.819 Y107.742 E8.57822
G1 X135.18 Y108.829 E8.64422
;;retract;;
G1 F2400 E8.08422
G1 X135.667 Y110.768 E7.85622
G1 F2400 E7.84422
G1 F600 Z0.48
G0 F4800 X135.642 Y108.701 Z0.48
;TYPE:WALL-OUTER
G1 F600 Z0.28
G1 F2400 E8.64422
G1 F1800 X135.966 Y109.865 E8.70789
G1 X136.218 Y110.999 E8.76911
G1 X136.42 Y112.158 E8.83111
G1 X136.574 Y113.38 E8.89602
G1 X136.66 Y114.544 E8.95753
G1 X136.691 Y115.754 E9.02132
G1 X136.662 Y116.92 E9.08278
G1 X136.574 Y118.131 E9.14677
G1 X136.43 Y119.289 E9.20827
G1 X136.228 Y120.475 E9.27167
G1 X135.966 Y121.646 E9.33491
G1 X135.645 Y122.8 E9.39803
G1 X135.276 Y123.919 E9.46013
G1 X134.846 Y125.031 E9.52296
G1 X134.384 Y126.075 E9.58312
G1 X133.84 Y127.16 E9.64709
G1 X133.244 Y128.217 E9.71104
G1 X132.606 Y129.223 E9.77381
G1 X131.937 Y130.175 E9.83513
G1 X131.205 Y131.113 E9.89784
G1 X130.414 Y132.032 E9.96174
G1 X129.592 Y132.896 E10.02458
G1 X128.718 Y133.728 E10.08818
G1 X127.833 Y134.488 E10.14965
G1 X126.913 Y135.209 E10.21125
G1 X125.923 Y135.906 E10.27506
G1 X124.901 Y136.555 E10.33886
G1 X123.878 Y137.133 E10.40078
G1 X122.801 Y137.675 E10.46432
G1 X121.737 Y138.145 E10.52562
G1 X120.639 Y138.571 E10.58769
G1 X119.508 Y138.947 E10.6505
G1 X118.341 Y139.271 E10.71433
G1 X117.16 Y139.532 E10.77807
G1 X116.007 Y139.732 E10.83974
G1 X114.825 Y139.879 E10.90251
G1 X113.639 Y139.967 E10.96518
G1 X112.452 Y139.996 E11.02776
G1 X111.29 Y139.968 E11.08901
G1 X110.103 Y139.881 E11.15173
G1 X108.936 Y139.737 E11.2137
G1 X107.72 Y139.529 E11.27871
G1 X106.548 Y139.267 E11.342
G1 X105.38 Y138.941 E11.40591
G1 X104.272 Y138.575 E11.4674
G1 X103.178 Y138.151 E11.52924
G1 X102.088 Y137.668 E11.59207
G1 X101.034 Y137.136 E11.65429
G1 X99.975 Y136.538 E11.71838
G1 X98.994 Y135.915 E11.77962
G1 X98.018 Y135.229 E11.84249
G1 X97.094 Y134.508 E11.90425
G1 X96.162 Y133.706 E11.96905
G1 X95.313 Y132.896 E12.03089
G1 X94.49 Y132.032 E12.09378
G1 X93.699 Y131.113 E12.15768
G1 X92.967 Y130.175 E12.22038
G1 X92.298 Y129.223 E12.2817
G1 X91.66 Y128.217 E12.34448
G1 X91.075 Y127.181 E12.40718
G1 X90.541 Y126.121 E12.46973
G1 X90.068 Y125.053 E12.53128
G1 X89.637 Y123.942 E12.59408
G1 X89.258 Y122.8 E12.65749
G1 X88.938 Y121.646 E12.72061
G1 X88.691 Y120.539 E12.78038
G1 X88.477 Y119.312 E12.84602
G1 X88.33 Y118.131 E12.90874
G1 X88.243 Y116.944 E12.97146
G1 X88.213 Y115.76 E13.03388
G1 X88.242 Y114.594 E13.09534
G1 X88.328 Y113.408 E13.15801
G1 X88.474 Y112.225 E13.22083
G1 X88.681 Y111.016 E13.28547
G1 X88.938 Y109.868 E13.34746
G1 X89.263 Y108.701 E13.4113
G1 X89.629 Y107.592 E13.47285
G1 X90.05 Y106.505 E13.53428
G1 X90.531 Y105.415 E13.59707
G1 X91.064 Y104.354 E13.65964
G1 X91.66 Y103.298 E13.72354
G1 X92.298 Y102.292 E13.78632
G1 X92.967 Y101.34 E13.84764
G1 X93.699 Y100.402 E13.91035
G1 X94.49 Y99.482 E13.97429
G1 X95.312 Y98.619 E14.03709
G1 X96.186 Y97.787 E14.10069
G1 X97.107 Y96.996 E14.16467
G1 X98.031 Y96.276 E14.2264
G1 X99.001 Y95.594 E14.28889
G1 X99.982 Y94.973 E14.35008
G1 X101.026 Y94.381 E14.41332
G1 X102.103 Y93.84 E14.47684
G1 X103.166 Y93.37 E14.53809
G1 X104.265 Y92.943 E14.60023
G1 X105.396 Y92.567 E14.66304
G1 X106.563 Y92.243 E14.72686
G1 X107.657 Y91.999 E14.78594
G1 X108.897 Y91.782 E14.85228
G1 X110.079 Y91.635 E14.91505
G1 X111.265 Y91.548 E14.97772
G1 X112.452 Y91.518 E15.04029
G1 X113.615 Y91.547 E15.1016
G1 X114.858 Y91.638 E15.16728
G1 X114.935 Y91.95 E15.18422
G1 X115.926 Y92.074 E15.23685
G1 X116.483 Y92.165 E15.26659
G1 X116.615 Y92.123 E15.27389
G1 X116.713 Y91.904 E15.28654
G1 X117.207 Y91.989 E15.31295
G1 X118.357 Y92.247 E15.37507
G1 X119.524 Y92.573 E15.43892
G1 X120.632 Y92.94 E15.50043
G1 X121.748 Y93.373 E15.56352
G1 X122.794 Y93.837 E15.62382
G1 X123.869 Y94.378 E15.68724
G1 X124.929 Y94.977 E15.75141
G1 X125.931 Y95.612 E15.81392
G1 X126.903 Y96.298 E15.87662
G1 X127.845 Y97.034 E15.93962
G1 X128.739 Y97.806 E16.00187
G1 X129.591 Y98.617 E16.06386
G1 X130.411 Y99.479 E16.12656
G1 X131.203 Y100.4 E16.19057
G1 X131.934 Y101.337 E16.2532
G1 X132.606 Y102.292 E16.31474
G1 X133.241 Y103.295 E16.3773
G1 X133.828 Y104.331 E16.44005
G1 X134.363 Y105.393 E16.50272
G1 X134.846 Y106.482 E16.5655
G1 X135.255 Y107.54 E16.62528
G1 X135.642 Y108.701 E16.68977
G0 F4800 X135.695 Y108.893
;;retract;;
G1 F2400 E16.12977
G1 X136.177 Y110.834 E15.90177
G1 F2400 E15.88977
G1 F600 Z0.48
G0 F4800 X134.203 Y122.393 Z0.48
;TYPE:WALL-INNER
G1 F600 Z0.28
G1 F2400 E16.68977
G1 F1800 X133.864 Y123.415 E16.75181
G1 X133.455 Y124.474 E16.81722
G1 X132.999 Y125.5 E16.88191
G1 X132.498 Y126.49 E16.94584
G1 X131.957 Y127.447 E17.00918
G1 X131.35 Y128.404 E17.07447
G1 X130.718 Y129.303 E17.13779
G1 X130.033 Y130.177 E17.20177
G1 X129.292 Y131.04 E17.26731
G1 X128.532 Y131.837 E17.33076
G1 X127.721 Y132.608 E17.39523
G1 X126.847 Y133.363 E17.46177
G1 X125.996 Y134.022 E17.52379
G1 X125.113 Y134.648 E17.58615
G1 X124.14 Y135.262 E17.65244
G1 X123.17 Y135.812 E17.71669
G1 X122.163 Y136.319 E17.78165
G1 X121.15 Y136.767 E17.84547
G1 X120.115 Y137.167 E17.9094
G1 X119.068 Y137.513 E17.97293
G1 X118.01 Y137.807 E18.0362
G1 X116.916 Y138.056 E18.10084
G1 X115.757 Y138.258 E18.16863
G1 X114.677 Y138.387 E18.23129
G1 X113.599 Y138.468 E18.29358
G1 X112.458 Y138.497 E18.35934
G1 X111.32 Y138.469 E18.42493
G1 X110.257 Y138.39 E18.48634
G1 X109.143 Y138.254 E18.55101
G1 X107.982 Y138.054 E18.61888
G1 X106.909 Y137.811 E18.68227
G1 X105.829 Y137.511 E18.74685
G1 X104.771 Y137.16 E18.81108
G1 X103.751 Y136.768 E18.87404
G1 X102.73 Y136.312 E18.93846
G1 X101.731 Y135.81 E19.00288
G1 X100.749 Y135.253 E19.06793
G1 X99.817 Y134.663 E19.13148
G1 X98.894 Y134.012 E19.19656
G1 X98.032 Y133.338 E19.25961
G1 X97.178 Y132.604 E19.32449
G1 X96.36 Y131.825 E19.38957
G1 X95.601 Y131.028 E19.45298
G1 X94.865 Y130.176 E19.51785
G1 X94.177 Y129.289 E19.58253
G1 X93.535 Y128.377 E19.64679
G1 X92.939 Y127.433 E19.71111
G1 X92.39 Y126.46 E19.77548
G1 X91.886 Y125.458 E19.8401
G1 X91.438 Y124.444 E19.90397
G1 X91.034 Y123.398 E19.96858
G1 X90.692 Y122.36 E20.03155
G1 X90.393 Y121.283 E20.09595
G1 X90.145 Y120.174 E20.16142
G1 X89.953 Y119.064 E20.22633
G1 X89.82 Y117.968 E20.28994
G1 X89.739 Y116.873 E20.3532
G1 X89.713 Y115.775 E20.41648
G1 X89.74 Y114.626 E20.4827
G1 X89.824 Y113.513 E20.54701
G1 X89.953 Y112.465 E20.60785
G1 X90.152 Y111.306 E20.6756
G1 X90.398 Y110.215 E20.74004
G1 X90.692 Y109.152 E20.80359
G1 X91.047 Y108.082 E20.86854
G1 X91.449 Y107.044 E20.93267
G1 X91.903 Y106.02 E20.99721
G1 X92.408 Y105.02 E21.06176
G1 X92.947 Y104.068 E21.12479
G1 X93.555 Y103.111 E21.19012
G1 X94.198 Y102.198 E21.25446
G1 X94.871 Y101.338 E21.31737
G1 X95.612 Y100.476 E21.38287
G1 X96.384 Y99.666 E21.44734
G1 X97.183 Y98.906 E21.51087
G1 X98.057 Y98.151 E21.57742
G1 X98.908 Y97.493 E21.6394
G1 X99.822 Y96.847 E21.70388
G1 X100.764 Y96.253 E21.76805
G1 X101.737 Y95.701 E21.8325
G1 X102.745 Y95.193 E21.89754
G1 X103.72 Y94.762 E21.95896
G1 X104.789 Y94.347 E22.02503
G1 X105.836 Y94.002 E22.08854
G1 X106.927 Y93.7 E22.15377
G1 X107.993 Y93.458 E22.21675
G1 X109.121 Y93.26 E22.28273
G1 X110.227 Y93.127 E22.34692
G1 X111.34 Y93.046 E22.41121
G1 X112.446 Y93.017 E22.47496
G1 X113.583 Y93.046 E22.54049
G1 X114.171 Y93.09 E22.57446
G1 F1596.8 X114.688 Y93.065 E22.60808
G1 F1451.1 X115.788 Y93.208 E22.68736
G1 F1455.9 X116.435 Y93.315 E22.73407
G1 F1605.4 X116.867 Y93.45 E22.76331
G1 F1800 X117.996 Y93.704 E22.82999
G1 X119.048 Y93.997 E22.89291
G1 X120.096 Y94.341 E22.95646
G1 X121.169 Y94.754 E23.0227
G1 X122.175 Y95.202 E23.08615
G1 X123.143 Y95.688 E23.14856
G1 X124.158 Y96.263 E23.21577
G1 X125.087 Y96.852 E23.27915
G1 X126.01 Y97.503 E23.34422
G1 X126.872 Y98.176 E23.40723
G1 X127.697 Y98.884 E23.46987
G1 X128.531 Y99.677 E23.53618
G1 X129.312 Y100.498 E23.60147
G1 X130.057 Y101.363 E23.66724
G1 X130.727 Y102.226 E23.73019
G1 X131.369 Y103.138 E23.79445
G1 X131.964 Y104.081 E23.85869
G1 X132.506 Y105.037 E23.92201
