; HEADER_BLOCK_START
; BambuStudio 01.09.01.66
; estimated printing time (normal mode) = 19m 1s
; total layer number: 36
; filament_density: 1.24
; filament_diameter: 1.75
; max_z_height: 10.08
; HEADER_BLOCK_END

; CONFIG_BLOCK_START
; accel_to_decel_enable = 0
; accel_to_decel_factor = 50%
; activate_air_filtration = 0
; additional_cooling_fan_speed = 70
; auxiliary_fan = 0
; bed_custom_model = 
; bed_custom_texture = 
; bed_exclude_area = 0x0
; before_layer_change_gcode = 
; best_object_pos = 0.5,0.5
; bottom_shell_layers = 3
; bottom_shell_thickness = 0
; bottom_surface_pattern = monotonic
; bridge_angle = 0
; bridge_flow = 0.95
; bridge_no_support = 0
; bridge_speed = 25
; brim_object_gap = 0.1
; brim_type = auto_brim
; brim_width = 5
; chamber_temperatures = 0
; change_filament_gcode = 
; close_fan_the_first_x_layers = 1
; complete_print_exhaust_fan_speed = 80
; cool_plate_temp = 60
; cool_plate_temp_initial_layer = 60
; curr_bed_type = High Temp Plate
; default_acceleration = 500
; default_filament_colour = ""
; default_filament_profile = "Generic PLA @Creality"
; default_jerk = 0
; default_print_profile = 0.20mm Standard @Creality Ender3V2
; deretraction_speed = 40
; detect_narrow_internal_solid_infill = 1
; detect_overhang_wall = 1
; detect_thin_wall = 0
; different_settings_to_system = initial_layer_print_height;layer_height;;
; draft_shield = disabled
; during_print_exhaust_fan_speed = 60
; elefant_foot_compensation = 0
; enable_arc_fitting = 0
; enable_long_retraction_when_cut = 0
; enable_overhang_bridge_fan = 1
; enable_overhang_speed = 1
; enable_pressure_advance = 0
; enable_prime_tower = 0
; enable_support = 0
; enforce_support_layers = 0
; eng_plate_temp = 60
; eng_plate_temp_initial_layer = 60
; ensure_vertical_shell_thickness = 1
; exclude_object = 1
; extruder_clearance_height_to_lid = 34
; extruder_clearance_height_to_rod = 34
; extruder_clearance_max_radius = 68
; extruder_clearance_radius = 47
; extruder_colour = #FCE94F
; extruder_offset = 0x0
; extruder_type = Bowden
; fan_cooling_layer_time = 100
; fan_max_speed = 100
; fan_min_speed = 100
; filament_colour = #00AE42
; filament_cost = 20
; filament_density = 1.24
; filament_diameter = 1.75
; filament_end_gcode = "; filament end gcode \n"
; filament_flow_ratio = 0.98
; filament_ids = GFL99
; filament_is_support = 0
; filament_max_volumetric_speed = 12
; filament_minimal_purge_on_wipe_tower = 15
; filament_notes = 
; filament_settings_id = "Generic PLA @Creality"
; filament_soluble = 0
; filament_start_gcode = "; filament start gcode\n"
; filament_type = PLA
; filament_vendor = Generic
; filename_format = {input_filename_base}_{filament_type[0]}_{print_time}.gcode
; filter_out_gap_fill = 0
; first_layer_print_sequence = 0
; flush_into_infill = 0
; flush_into_objects = 0
; flush_into_support = 1
; flush_multiplier = 1
; flush_volumes_matrix = 0
; flush_volumes_vector = 140,140
; full_fan_speed_layer = 0
; fuzzy_skin = none
; fuzzy_skin_point_distance = 0.8
; fuzzy_skin_thickness = 0.3
; gap_infill_speed = 30
; gcode_add_line_number = 0
; gcode_flavor = marlin
; has_scarf_joint_seam = 0
; head_wrap_detect_zone = 
; host_type = octoprint
; hot_plate_temp = 60
; hot_plate_temp_initial_layer = 60
; independent_support_layer_height = 1
; infill_combination = 0
; infill_direction = 45
; infill_jerk = 9
; infill_wall_overlap = 23%
; initial_layer_acceleration = 500
; initial_layer_flow_ratio = 1
; initial_layer_infill_speed = 20
; initial_layer_jerk = 9
; initial_layer_line_width = 0.5
; initial_layer_print_height = 0.28
; initial_layer_speed = 15
; inner_wall_acceleration = 500
; inner_wall_jerk = 9
; inner_wall_line_width = 0.45
; inner_wall_speed = 40
; interface_shells = 0
; internal_bridge_support_thickness = 0
; internal_solid_infill_line_width = 0.4
; internal_solid_infill_pattern = zig-zag
; internal_solid_infill_speed = 40
; ironing_direction = 45
; ironing_flow = 15%
; ironing_pattern = zig-zag
; ironing_spacing = 0.1
; ironing_speed = 15
; ironing_type = no ironing
; is_infill_first = 0
; layer_change_gcode = 
; layer_height = 0.28
; line_width = 0.4
; long_retractions_when_cut = 0
; machine_end_gcode = {if max_layer_z < printable_height}G1 Z{min(max_layer_z+2, printable_height)} F600 ; Move print head up{endif}\nG1 X5 Y{print_bed_max[1]*0.8} F{travel_speed*60} ; present print\n{if max_layer_z < printable_height-10}G1 Z{min(max_layer_z+70, printable_height-10)} F600 ; Move print head further up{endif}\n{if max_layer_z < printable_height*0.6}G1 Z{printable_height*0.6} F600 ; Move print head further up{endif}\nM140 S0 ; turn off heatbed\nM104 S0 ; turn off temperature\nM107 ; turn off fan\nM84 X Y E ; disable motors
; machine_load_filament_time = 0
; machine_max_acceleration_e = 5000,5000
; machine_max_acceleration_extruding = 500,500
; machine_max_acceleration_retracting = 1000,1000
; machine_max_acceleration_travel = 500,500
; machine_max_acceleration_x = 500,500
; machine_max_acceleration_y = 500,500
; machine_max_acceleration_z = 100,100
; machine_max_jerk_e = 5,5
; machine_max_jerk_x = 8,8
; machine_max_jerk_y = 8,8
; machine_max_jerk_z = 0.4,0.4
; machine_max_speed_e = 60,60
; machine_max_speed_x = 500,500
; machine_max_speed_y = 500,500
; machine_max_speed_z = 10,10
; machine_min_extruding_rate = 0,0
; machine_min_travel_rate = 0,0
; machine_pause_gcode = M25 ;pause print
; machine_start_gcode = G90 ; use absolute coordinates\nM83 ; extruder relative mode\nM140 S[bed_temperature_initial_layer] ; set final bed temp\nM104 S150 ; set temporary nozzle temp to prevent oozing during homing\nG4 S10 ; allow partial nozzle warmup\nG28 ; home all axis\nG1 Z50 F240\nG1 X2 Y10 F3000\nM104 S[nozzle_temperature_initial_layer] ; set final nozzle temp\nM190 S[bed_temperature_initial_layer] ; wait for bed temp to stabilize\nM109 S[nozzle_temperature_initial_layer] ; wait for nozzle temp to stabilize\nG1 Z0.28 F240\nG92 E0\nG1 Y140 E10 F1500 ; prime the nozzle\nG1 X2.3 F5000\nG92 E0\nG1 Y10 E10 F1200 ; prime the nozzle\nG92 E0
; machine_unload_filament_time = 0
; max_bridge_length = 10
; max_layer_height = 0.32
; max_travel_detour_distance = 0
; min_bead_width = 85%
; min_feature_size = 25%
; min_layer_height = 0.08
; minimum_sparse_infill_area = 15
; mmu_segmented_region_interlocking_depth = 0
; mmu_segmented_region_max_width = 0
; nozzle_diameter = 0.4
; nozzle_height = 4
; nozzle_temperature = 220
; nozzle_temperature_initial_layer = 220
; nozzle_temperature_range_high = 230
; nozzle_temperature_range_low = 190
; nozzle_type = undefine
; nozzle_volume = 0
; only_one_wall_first_layer = 0
; ooze_prevention = 0
; other_layers_print_sequence = 0
; other_layers_print_sequence_nums = 0
; outer_wall_acceleration = 500
; outer_wall_jerk = 9
; outer_wall_line_width = 0.4
; outer_wall_speed = 25
; overhang_1_4_speed = 0
; overhang_2_4_speed = 20
; overhang_3_4_speed = 15
; overhang_4_4_speed = 10
; overhang_fan_speed = 100
; overhang_fan_threshold = 50%
; post_process = 
; precise_z_height = 0
; pressure_advance = 0.02
; prime_tower_brim_width = 3
; prime_tower_width = 35
; prime_volume = 45
; print_compatible_printers = "Creality Ender-3 V2 0.4 nozzle"
; print_flow_ratio = 1
; print_sequence = by layer
; print_settings_id = 0.20mm Standard @Creality Ender3V2
; printable_area = 0x0,220x0,220x220,0x220
; printable_height = 250
; printer_model = Creality Ender-3 V2
; printer_notes = 
; printer_settings_id = Creality Ender-3 V2 0.4 nozzle
; printer_structure = undefine
; printer_technology = FFF
; printer_variant = 0.4
; printhost_authorization_type = key
; printhost_ssl_ignore_revoke = 0
; printing_by_object_gcode = 
; process_notes = 
; raft_contact_distance = 0.1
; raft_expansion = 1.5
; raft_first_layer_density = 90%
; raft_first_layer_expansion = 2
; raft_layers = 0
; reduce_crossing_wall = 0
; reduce_fan_stop_start_freq = 1
; reduce_infill_retraction = 1
; required_nozzle_HRC = 3
; resolution = 0.012
; retract_before_wipe = 70%
; retract_length_toolchange = 2
; retract_lift_above = 0
; retract_lift_below = 0
; retract_restart_extra = 0
; retract_restart_extra_toolchange = 0
; retract_when_changing_layer = 1
; retraction_distances_when_cut = 18
; retraction_length = 5
; retraction_minimum_travel = 2
; retraction_speed = 60
; scan_first_layer = 0
; scarf_angle_threshold = 155
; seam_gap = 15%
; seam_position = aligned
; seam_slope_conditional = 1
; seam_slope_entire_loop = 0
; seam_slope_inner_walls = 1
; seam_slope_min_length = 10
; seam_slope_start_height = 50%
; seam_slope_steps = 10
; seam_slope_type = none
; silent_mode = 0
; single_extruder_multi_material = 1
; skirt_distance = 2
; skirt_height = 1
; skirt_loops = 1
; slice_closing_radius = 0.049
; slicing_mode = regular
; slow_down_for_layer_cooling = 1
; slow_down_layer_time = 8
; slow_down_min_speed = 10
; small_perimeter_speed = 50%
; small_perimeter_threshold = 0
; solid_infill_filament = 1
; sparse_infill_acceleration = 100%
; sparse_infill_anchor = 400%
; sparse_infill_anchor_max = 20
; sparse_infill_density = 15%
; sparse_infill_filament = 1
; sparse_infill_line_width = 0.45
; sparse_infill_pattern = grid
; sparse_infill_speed = 50
; spiral_mode = 0
; spiral_mode_max_xy_smoothing = 200%
; spiral_mode_smooth = 0
; standby_temperature_delta = -5
; start_end_points = 30x-3,54x245
; support_air_filtration = 0
; support_angle = 0
; support_base_pattern = default
; support_base_pattern_spacing = 2.5
; support_bottom_interface_spacing = 0.5
; support_bottom_z_distance = 0.2
; support_chamber_temp_control = 0
; support_critical_regions_only = 0
; support_expansion = 0
; support_filament = 0
; support_interface_bottom_layers = 0
; support_interface_filament = 0
; support_interface_loop_pattern = 0
; support_interface_not_for_body = 1
; support_interface_pattern = auto
; support_interface_spacing = 0.5
; support_interface_speed = 80
; support_interface_top_layers = 3
; support_line_width = 0.4
; support_object_first_layer_gap = 0.2
; support_object_xy_distance = 0.35
; support_on_build_plate_only = 0
; support_remove_small_overhang = 1
; support_speed = 150
; support_style = default
; support_threshold_angle = 30
; support_top_z_distance = 0.2
; support_type = normal(auto)
; temperature_vitrification = 60
; template_custom_gcode = 
; textured_plate_temp = 60
; textured_plate_temp_initial_layer = 60
; thick_bridges = 0
; thumbnail_size = 50x50
; time_lapse_gcode = 
; timelapse_type = 0
; top_area_threshold = 100%
; top_one_wall_type = all top
; top_shell_layers = 4
; top_shell_thickness = 0.8
; top_solid_infill_flow_ratio = 1
; top_surface_acceleration = 500
; top_surface_jerk = 9
; top_surface_line_width = 0.4
; top_surface_pattern = monotonic
; top_surface_speed = 30
; travel_jerk = 9
; travel_speed = 150
; travel_speed_z = 0
; tree_support_branch_angle = 40
; tree_support_branch_diameter = 5
; tree_support_branch_distance = 5
; tree_support_brim_width = 0
; tree_support_wall_count = 0
; upward_compatible_machine = 
; use_firmware_retraction = 0
; use_relative_e_distances = 1
; wall_distribution_count = 1
; wall_filament = 1
; wall_generator = arachne
; wall_loops = 3
; wall_sequence = inner wall/outer wall
; wall_transition_angle = 10
; wall_transition_filter_deviation = 25%
; wall_transition_length = 100%
; wipe = 1
; wipe_distance = 2
; wipe_speed = 80%
; wipe_tower_no_sparse_layers = 0
; wipe_tower_rotation_angle = 0
; wipe_tower_x = 165
; wipe_tower_y = 250
; xy_contour_compensation = 0
; xy_hole_compensation = 0
; z_hop = 0.4
; z_hop_types = Normal Lift
; CONFIG_BLOCK_END

; THUMBNAIL_BLOCK_START
; THUMBNAIL_BLOCK_END

; EXECUTABLE_BLOCK_START
M73 P0 R19
M201 X500 Y500 Z100 E5000
M203 X500 Y500 Z10 E60
M204 P500 R1000 T500
M205 X8.00 Y8.00 Z0.40 E5.00
M106 S0
M106 P2 S0
; FEATURE: Custom
G90 ; use absolute coordinates
M83 ; extruder relative mode
M140 S60 ; set final bed temp
M104 S150 ; set temporary nozzle temp to prevent oozing during homing
G4 S10 ; allow partial nozzle warmup
G28 ; home all axis
G1 Z50 F240
G1 X2 Y10 F3000
M104 S220 ; set final nozzle temp
M190 S60 ; wait for bed temp to stabilize
M109 S220 ; wait for nozzle temp to stabilize
M73 P1 R18
G1 Z0.28 F240
G92 E0
G1 Y140 E10 F1500 ; prime the nozzle
M73 P2 R18
G1 X2.3 F5000
G92 E0
G1 Y10 E10 F1200 ; prime the nozzle
G92 E0
G90
G21
M83 ; use relative distances for extrusion
; filament start gcode
; CHANGE_LAYER
; Z_HEIGHT: 0.28
; LAYER_HEIGHT: 0.28
G1 E-5 F3600
M106 S0
M106 P2 S0
M204 S500
M73 P3 R18
G1 Z.4 F9000
G1 X87.397 Y104.142
G1 Z.4
G1 Z.28
G1 E5 F2400
; FEATURE: Skirt
; LINE_WIDTH: 0.5
G1 F900
G1 X89.524 Y102.572 E.13268
G1 X91.794 Y101.218 E.13268
G1 X94.187 Y100.093 E.13268
G1 X96.678 Y99.208 E.13268
G1 X99.244 Y98.571 E.13268
G1 X101.86 Y98.189 E.13268
G1 X104.533 Y98.066 E.13433
G1 X107.141 Y98.201 E.13102
G1 X109.755 Y98.594 E.13268
G1 X112.318 Y99.242 E.13268
G1 X114.805 Y100.139 E.13268
G1 X117.192 Y101.274 E.13268
G1 X119.457 Y102.638 E.13268
G1 X121.577 Y104.218 E.13268
G1 X123.532 Y105.998 E.13268
G1 X125.303 Y107.961 E.13268
G1 X126.873 Y110.087 E.13268
G1 X128.227 Y112.358 E.13268
G1 X129.352 Y114.75 E.13268
G1 X130.237 Y117.242 E.13268
G1 X130.874 Y119.807 E.13268
G1 X131.256 Y122.423 E.13268
G1 X131.38 Y125.064 E.13268
G1 X131.244 Y127.704 E.13268
G1 X130.85 Y130.319 E.13268
G1 X130.202 Y132.882 E.13268
G1 X129.306 Y135.369 E.13268
G1 X128.17 Y137.756 E.13268
G1 X126.806 Y140.021 E.13268
G1 X125.227 Y142.141 E.13268
G1 X123.447 Y144.095 E.13268
G1 X121.484 Y145.867 E.13268
G1 X119.357 Y147.437 E.13268
G1 X117.087 Y148.791 E.13268
G1 X114.694 Y149.916 E.13268
G1 X112.203 Y150.801 E.13268
G1 X109.637 Y151.438 E.13268
G1 X107.021 Y151.82 E.13268
G1 X104.381 Y151.943 E.13268
G1 X101.74 Y151.808 E.13268
G1 X99.126 Y151.414 E.13268
M73 P4 R18
G1 X96.563 Y150.766 E.13268
G1 X94.076 Y149.87 E.13268
G1 X91.689 Y148.734 E.13268
G1 X89.424 Y147.37 E.13268
G1 X87.304 Y145.791 E.13268
G1 X85.349 Y144.011 E.13268
G1 X83.578 Y142.048 E.13268
G1 X82.008 Y139.921 E.13268
G1 X80.654 Y137.651 E.13268
G1 X79.529 Y135.258 E.13268
G1 X78.644 Y132.767 E.13268
G1 X78.007 Y130.201 E.13268
G1 X77.625 Y127.585 E.13268
G1 X77.501 Y124.944 E.13268
G1 X77.637 Y122.304 E.13268
G1 X78.031 Y119.69 E.13268
G1 X78.679 Y117.127 E.13268
G1 X79.575 Y114.64 E.13268
G1 X80.71 Y112.252 E.13268
G1 X82.075 Y109.988 E.13268
G1 X83.654 Y107.868 E.13268
G1 X85.434 Y105.913 E.13268
G1 X87.352 Y104.182 E.12967
G1 E-3.5 F3600
; WIPE_START
G1 F7200
G1 X88.959 Y102.991 E-1.425
; WIPE_END
G1 E-.075 F3600
G1 X81.143 Y127.356 F9000
G1 E5 F2400
; FEATURE: Inner wall
; LINE_WIDTH: 0.400048
G1 F900
G1 X81.13 Y127.248 E.00421
G1 X81.048 Y126.101 E.04458
G1 X81.023 Y125.038 E.04124
G1 X81.053 Y123.803 E.04792
G1 X81.14 Y122.657 E.04458
G1 X81.271 Y121.602 E.04124
G1 X81.482 Y120.385 E.04792
G1 X81.736 Y119.264 E.04458
G1 X82.021 Y118.239 E.04124
G1 X82.408 Y117.066 E.04792
G1 X82.824 Y115.994 E.04458
G1 X83.257 Y115.023 E.04124
G1 X83.812 Y113.919 E.04792
G1 X84.38 Y112.92 E.04458
G1 X84.951 Y112.023 E.04124
G1 X85.661 Y111.012 E.04791
G1 X86.371 Y110.108 E.04458
G1 X87.066 Y109.303 E.04124
G1 X87.918 Y108.408 E.04792
G1 X88.752 Y107.617 E.04458
G1 X89.558 Y106.924 E.04124
G1 X90.532 Y106.163 E.04791
G1 X91.473 Y105.504 E.04458
G1 X92.372 Y104.936 E.04124
G1 X93.447 Y104.327 E.04791
G1 X94.475 Y103.812 E.04458
G1 X95.447 Y103.382 E.04124
G1 X96.6 Y102.937 E.04792
G1 X97.692 Y102.579 E.04458
G1 X98.717 Y102.297 E.04124
G1 X99.923 Y102.026 E.04792
G1 X101.056 Y101.832 E.04458
G1 X102.197 Y101.693 E.04458
G1 X103.344 Y101.611 E.04462
G1 X104.392 Y101.587 E.04063
; LINE_WIDTH: 0.40042
G1 X105.555 Y101.614 E.04517
; LINE_WIDTH: 0.399717
G1 X106.296 Y101.67 E.02881
; LINE_WIDTH: 0.434649
G1 X106.504 Y101.835 E.01133
; LINE_WIDTH: 0.472281
G1 X106.711 Y102 E.01247
G1 X106.451 Y102 E.01221
; LINE_WIDTH: 0.434649
G1 X106.192 Y101.999 E.01109
; LINE_WIDTH: 0.39831
G1 X105.546 Y101.952 E.02498
; LINE_WIDTH: 0.40042
G1 X104.401 Y101.926 E.04448
; LINE_WIDTH: 0.400082
G1 X103.282 Y101.955 E.04341
G1 X102.152 Y102.039 E.04394
G1 X101.028 Y102.179 E.04394
