;FLAVOR:Marlin
;TIME:662
;Filament used: 1.66349m
;Layer height: 0.3
;MINX:77.7
;MINY:77.7
;MINZ:0.28
;MAXX:142.3
;MAXY:142.3
;MAXZ:9.88
;TARGET_MACHINE.NAME:Creality Ender-3 V3 SE
;Generated with Cura_SteamEngine 5.7.1
M82 ;absolute extrusion mode
M220 S100 ;Reset Feedrate
M221 S100 ;Reset Flowrate

G28 ;Home

M420 S1; Use saved mesh leveling data

G92 E0 ;Reset Extruder
G1 Z2.0 F3000 ;Move Z Axis up
G1 X-3 Y20 Z0.28 F5000.0 ;Move to start position
M190 S50 ; Set bed temperature and wait
M109 S205 ; Set hotend temperature and wait
G1 X-3 Y100.0 Z0.28 F1500.0 E15 ;Draw the first line
G1 X-2 Y100.0 Z0.28 F5000.0 ;Move to side a little
G1 X-2 Y20 Z0.28 F1500.0 E30 ;Draw the second line
G92 E0 ;Reset Extruder
G1 E-1.0000 F1800 ;Retract a bit
G1 Z2.0 F3000 ;Move Z Axis up
G1 E0.0000 F1800 

G92 E0
G92 E0
G1 F2400 E-0.8
;LAYER_COUNT:33
;LAYER:0
M107
G0 F9000 X87.171 Y87.147 Z0.28
;TYPE:SKIRT
G1 F2400 E0
G1 F1800 X88.48 Y85.915 E0.0837
G1 X89.677 Y84.902 E0.15672
G1 X90.935 Y83.926 E0.23086
G1 X92.213 Y83.034 E0.30343
G1 X93.404 Y82.287 E0.3689
G1 X94.967 Y81.416 E0.45221
G1 X96.409 Y80.698 E0.52722
G1 X97.793 Y80.096 E0.5975
G1 X99.2 Y79.558 E0.66764
G1 X100.825 Y79.028 E0.74723
G1 X102.235 Y78.643 E0.81529
G1 X103.749 Y78.309 E0.88748
G1 X105.416 Y78.03 E0.96618
G1 X107.048 Y77.838 E1.0427
G1 X108.629 Y77.73 E1.11649
G1 X110.223 Y77.7 E1.19073
G1 X111.806 Y77.75 E1.26448
G1 X113.39 Y77.878 E1.33847
G1 X114.084 Y77.97 E1.37107
G1 X114.285 Y78.017 E1.38068
G1 X114.636 Y78.022 E1.39703
G1 X116.541 Y78.369 E1.48719
G1 X117.987 Y78.705 E1.55632
G1 X119.534 Y79.141 E1.63116
G1 X121.042 Y79.643 E1.70517
G1 X122.438 Y80.19 E1.77498
G1 X123.997 Y80.891 E1.85458
G1 X125.424 Y81.619 E1.92917
G1 X126.615 Y82.298 E1.99301
G1 X128.082 Y83.237 E2.07411
G1 X129.35 Y84.136 E2.14649
G1 X130.655 Y85.169 E2.22399
G1 X131.823 Y86.187 E2.29614
G1 X132.864 Y87.183 E2.36322
G1 X134.069 Y88.462 E2.44505
G1 X135.079 Y89.644 E2.51744
G1 X136.055 Y90.911 E2.59191
G1 X136.928 Y92.17 E2.66325
G1 X137.793 Y93.545 E2.7389
G1 X138.573 Y94.941 E2.81336
G1 X139.278 Y96.355 E2.88693
G1 X139.904 Y97.794 E2.96
G1 X140.442 Y99.2 E3.0301
G1 X140.972 Y100.825 E3.10969
G1 X141.357 Y102.234 E3.1777
G1 X141.687 Y103.726 E3.24886
G1 X141.973 Y105.434 E3.32949
G1 X142.162 Y107.041 E3.40484
G1 X142.27 Y108.627 E3.47886
G1 X142.3 Y110.223 E3.55319
G1 X142.25 Y111.801 E3.62671
G1 X142.123 Y113.38 E3.70047
G1 X141.918 Y114.961 E3.7747
G1 X141.654 Y116.414 E3.84347
G1 X141.289 Y118.04 E3.92107
G1 X140.945 Y119.283 E3.98112
G1 X140.336 Y121.085 E4.06969
G1 X139.763 Y122.548 E4.14285
G1 X139.142 Y123.924 E4.21315
G1 X138.393 Y125.408 E4.29055
G1 X137.745 Y126.545 E4.35149
G1 X136.745 Y128.112 E4.43805
G1 X135.926 Y129.268 E4.50402
G1 X134.834 Y130.649 E4.586
G1 X133.82 Y131.82 E4.65813
G1 X132.829 Y132.853 E4.72478
G1 X131.52 Y134.085 E4.80848
G1 X130.323 Y135.098 E4.8815
G1 X129.065 Y136.074 E4.95564
G1 X127.787 Y136.966 E5.02821
G1 X126.596 Y137.713 E5.09368
G1 X125.033 Y138.584 E5.17699
G1 X123.591 Y139.302 E5.252
G1 X122.207 Y139.904 E5.32228
G1 X120.8 Y140.442 E5.39242
G1 X119.179 Y140.972 E5.47183
G1 X117.893 Y141.324 E5.53392
G1 X116.121 Y141.713 E5.6184
G1 X114.632 Y141.963 E5.6887
G1 X114.381 Y141.966 E5.70039
G1 X114.164 Y142.016 E5.71076
G1 X112.952 Y142.162 E5.7676
G1 X111.372 Y142.27 E5.84134
G1 X109.775 Y142.3 E5.91572
G1 X108.232 Y142.25 E5.98761
G1 X106.309 Y142.111 E6.07738
G1 X105.986 Y142.024 E6.09296
G1 X105.658 Y142.025 E6.10823
G1 X103.473 Y141.631 E6.21162
G1 X101.922 Y141.271 E6.28576
G1 X100.517 Y140.873 E6.35375
G1 X98.9 Y140.332 E6.43315
G1 X97.528 Y139.795 E6.50176
G1 X96.032 Y139.123 E6.57812
G1 X94.651 Y138.419 E6.6503
G1 X93.226 Y137.6 E6.72683
G1 X91.866 Y136.726 E6.80211
G1 X90.651 Y135.861 E6.87156
G1 X89.337 Y134.822 E6.94956
G1 X88.142 Y133.78 E7.02339
G1 X87.121 Y132.801 E7.08925
G1 X85.935 Y131.543 E7.16976
G1 X84.92 Y130.36 E7.24234
G1 X83.983 Y129.146 E7.31375
G1 X83.045 Y127.793 E7.39041
G1 X82.186 Y126.417 E7.46594
G1 X81.427 Y125.057 E7.53846
G1 X80.713 Y123.623 E7.61306
G1 X80.09 Y122.19 E7.68582
G1 X79.557 Y120.797 E7.75527
G1 X79.028 Y119.175 E7.83471
G1 X78.643 Y117.765 E7.90277
G1 X78.309 Y116.251 E7.97496
G1 X78.03 Y114.584 E8.05366
G1 X77.838 Y112.953 E8.13013
G1 X77.73 Y111.373 E8.20388
G1 X77.7 Y109.777 E8.27821
G1 X77.75 Y108.199 E8.35172
G1 X77.877 Y106.62 E8.42548
G1 X78.082 Y105.039 E8.49972
G1 X78.346 Y103.586 E8.56848
G1 X78.711 Y101.96 E8.64608
G1 X79.055 Y100.717 E8.70614
G1 X79.664 Y98.915 E8.79471
G1 X80.237 Y97.452 E8.86787
G1 X80.858 Y96.076 E8.93816
G1 X81.607 Y94.592 E9.01557
G1 X82.255 Y93.455 E9.07651
G1 X83.255 Y91.888 E9.16306
G1 X84.074 Y90.732 E9.22903
G1 X85.166 Y89.351 E9.31101
G1 X86.18 Y88.18 E9.38314
G1 X87.171 Y87.147 E9.4498
G0 F9000 X87.46 Y87.424
G1 F1800 X88.738 Y86.22 E9.53156
G1 X89.922 Y85.218 E9.60378
G1 X91.164 Y84.254 E9.67699
G1 X92.426 Y83.373 E9.74866
G1 X93.617 Y82.626 E9.81412
G1 X95.145 Y81.774 E9.89558
G1 X96.569 Y81.065 E9.96965
G1 X97.936 Y80.47 E10.03908
G1 X99.343 Y79.932 E10.10922
G1 X100.93 Y79.414 E10.18695
G1 X102.321 Y79.034 E10.2541
G1 X103.815 Y78.704 E10.32534
G1 X105.482 Y78.425 E10.40404
G1 X107.075 Y78.237 E10.47873
G1 X108.637 Y78.13 E10.55164
G1 X110.21 Y78.1 E10.6249
G1 X111.774 Y78.149 E10.69776
G1 X113.337 Y78.275 E10.77077
G1 X114.031 Y78.367 E10.80337
G1 X114.237 Y78.417 E10.81324
G1 X114.564 Y78.416 E10.82847
G1 X116.45 Y78.759 E10.91773
G1 X117.896 Y79.095 E10.98686
G1 X119.408 Y79.521 E11.06
G1 X120.916 Y80.023 E11.13401
G1 X122.274 Y80.555 E11.20192
G1 X123.815 Y81.247 E11.28058
G1 X125.226 Y81.966 E11.35432
G1 X126.399 Y82.635 E11.4172
G1 X127.866 Y83.574 E11.4983
G1 X129.102 Y84.45 E11.56885
G1 X130.392 Y85.471 E11.64545
G1 X131.546 Y86.476 E11.71671
G1 X132.587 Y87.472 E11.7838
G1 X133.765 Y88.722 E11.86377
G1 X134.762 Y89.888 E11.93521
G1 X135.726 Y91.139 E12.00875
G1 X136.589 Y92.383 E12.07925
G1 X137.454 Y93.758 E12.15489
G1 X138.215 Y95.119 E12.2275
G1 X138.911 Y96.515 E12.30013
G1 X139.53 Y97.937 E12.37235
G1 X140.068 Y99.343 E12.44245
G1 X140.586 Y100.93 E12.52018
G1 X140.966 Y102.32 E12.58728
G1 X141.292 Y103.792 E12.65749
G1 X141.578 Y105.5 E12.73812
G1 X141.763 Y107.068 E12.81164
G1 X141.87 Y108.635 E12.88478
G1 X141.9 Y110.21 E12.95813
G1 X141.851 Y111.769 E13.03076
G1 X141.726 Y113.329 E13.10363
G1 X141.524 Y114.889 E13.17688
G1 X141.26 Y116.342 E13.24565
G1 X140.903 Y117.933 E13.32157
G1 X140.559 Y119.176 E13.38163
G1 X139.963 Y120.939 E13.46828
G1 X139.398 Y122.383 E13.54049
G1 X138.777 Y123.759 E13.61078
G1 X138.045 Y125.21 E13.68646
G1 X137.397 Y126.347 E13.74739
G1 X136.419 Y127.881 E13.83211
G1 X135.612 Y129.02 E13.89711
G1 X134.532 Y130.387 E13.97823
G1 X133.531 Y131.543 E14.04943
G1 X132.54 Y132.576 E14.11609
G1 X131.262 Y133.78 E14.19785
G1 X130.078 Y134.782 E14.27007
G1 X128.836 Y135.746 E14.34328
G1 X127.574 Y136.627 E14.41495
G1 X126.383 Y137.374 E14.48041
G1 X124.855 Y138.226 E14.56187
G1 X123.431 Y138.935 E14.63594
G1 X122.064 Y139.53 E14.70537
G1 X120.657 Y140.068 E14.77551
G1 X119.073 Y140.586 E14.85311
G1 X117.807 Y140.933 E14.91423
G1 X116.035 Y141.322 E14.99871
G1 X114.627 Y141.563 E15.06523
G1 X114.33 Y141.567 E15.07906
G1 X114.116 Y141.619 E15.08931
G1 X112.925 Y141.763 E15.14517
G1 X111.364 Y141.87 E15.21803
G1 X109.788 Y141.9 E15.29143
G1 X108.261 Y141.851 E15.36257
G1 X106.338 Y141.712 E15.45235
G1 X106.038 Y141.622 E15.46693
G1 X105.729 Y141.631 E15.48132
G1 X103.563 Y141.241 E15.5838
G1 X102.031 Y140.886 E15.65703
G1 X100.644 Y140.494 E15.72415
G1 X99.046 Y139.96 E15.8026
G1 X97.692 Y139.43 E15.87031
G1 X96.214 Y138.767 E15.94573
G1 X94.85 Y138.072 E16.01702
G1 X93.425 Y137.253 E16.09355
G1 X92.098 Y136.4 E16.16701
G1 X90.899 Y135.547 E16.23552
G1 X89.6 Y134.521 E16.3126
G1 X88.419 Y133.491 E16.38557
G1 X87.398 Y132.512 E16.45144
G1 X86.239 Y131.283 E16.5301
G1 X85.237 Y130.115 E16.60176
G1 X84.312 Y128.918 E16.6722
G1 X83.384 Y127.581 E16.74798
G1 X82.535 Y126.222 E16.82259
G1 X81.785 Y124.879 E16.89422
G1 X81.08 Y123.464 E16.96783
G1 X80.464 Y122.047 E17.03978
G1 X79.931 Y120.654 E17.10923
G1 X79.414 Y119.07 E17.18682
G1 X79.034 Y117.679 E17.25396
G1 X78.704 Y116.185 E17.3252
G1 X78.425 Y114.518 E17.40391
G1 X78.237 Y112.926 E17.47855
G1 X78.13 Y111.365 E17.55141
G1 X78.1 Y109.79 E17.62476
G1 X78.149 Y108.231 E17.69739
G1 X78.274 Y106.671 E17.77026
G1 X78.476 Y105.111 E17.84351
G1 X78.74 Y103.658 E17.91228
G1 X79.097 Y102.067 E17.9882
G1 X79.441 Y100.824 E18.04826
G1 X80.037 Y99.061 E18.13491
G1 X80.602 Y97.617 E18.20712
G1 X81.223 Y96.241 E18.27741
G1 X81.955 Y94.79 E18.35309
G1 X82.603 Y93.653 E18.41402
G1 X83.581 Y92.119 E18.49874
G1 X84.388 Y90.98 E18.56373
G1 X85.468 Y89.613 E18.64486
G1 X86.469 Y88.457 E18.71606
G1 X87.46 Y87.424 E18.78272
G0 F9000 X87.749 Y87.701
G1 F1800 X88.997 Y86.525 E18.86256
G1 X90.167 Y85.534 E18.93396
G1 X91.393 Y84.582 E19.00624
G1 X92.639 Y83.712 E19.077
G1 X93.83 Y82.965 E19.14246
G1 X95.323 Y82.132 E19.22207
G1 X96.729 Y81.432 E19.29521
G1 X98.079 Y80.844 E19.36377
G1 X99.486 Y80.306 E19.43392
G1 X101.035 Y79.8 E19.50979
G1 X102.407 Y79.425 E19.57602
G1 X103.881 Y79.099 E19.64632
G1 X105.548 Y78.82 E19.72502
G1 X107.102 Y78.636 E19.79789
G1 X108.645 Y78.53 E19.8699
G1 X110.198 Y78.5 E19.94223
G1 X111.742 Y78.548 E20.01416
G1 X113.284 Y78.672 E20.0862
G1 X113.978 Y78.764 E20.11879
G1 X114.194 Y78.818 E20.12916
G1 X114.493 Y78.81 E20.14309
G1 X116.359 Y79.149 E20.2314
G1 X117.805 Y79.485 E20.30053
G1 X119.282 Y79.901 E20.37198
G1 X120.79 Y80.403 E20.44598
G1 X122.11 Y80.92 E20.512
G1 X123.651 Y81.612 E20.59065
G1 X125.028 Y82.313 E20.6626
G1 X126.183 Y82.972 E20.72452
G1 X127.65 Y83.911 E20.80563
G1 X128.854 Y84.764 E20.87433
G1 X130.129 Y85.773 E20.95005
G1 X131.269 Y86.765 E21.02041
G1 X132.31 Y87.761 E21.0875
G1 X133.461 Y88.982 E21.16563
G1 X134.445 Y90.132 E21.23611
G1 X135.397 Y91.367 E21.30872
G1 X136.25 Y92.596 E21.37838
G1 X137.115 Y93.971 E21.45402
G1 X137.857 Y95.297 E21.52477
G1 X138.544 Y96.675 E21.59647
G1 X139.156 Y98.08 E21.66783
G1 X139.694 Y99.486 E21.73793
G1 X140.2 Y101.035 E21.81381
G1 X140.575 Y102.407 E21.88004
G1 X140.897 Y103.858 E21.94925
G1 X141.183 Y105.566 E22.02989
G1 X141.364 Y107.095 E22.10158
G1 X141.47 Y108.643 E22.17383
G1 X141.5 Y110.198 E22.24625
G1 X141.452 Y111.737 E22.31795
G1 X141.329 Y113.278 E22.38993
G1 X141.13 Y114.817 E22.46219
G1 X140.866 Y116.27 E22.53096
G1 X140.517 Y117.826 E22.60521
G1 X140.173 Y119.069 E22.66526
G1 X139.591 Y120.793 E22.74999
G1 X139.033 Y122.218 E22.82125
G1 X138.412 Y123.594 E22.89155
G1 X137.697 Y125.012 E22.96549
G1 X137.049 Y126.149 E23.02643
G1 X136.093 Y127.65 E23.1093
G1 X135.298 Y128.772 E23.17333
G1 X134.23 Y130.125 E23.25359
G1 X133.242 Y131.266 E23.32387
G1 X132.251 Y132.299 E23.39053
G1 X131.003 Y133.475 E23.47038
G1 X129.833 Y134.466 E23.54177
G1 X128.607 Y135.418 E23.61405
G1 X127.361 Y136.288 E23.68481
G1 X126.17 Y137.035 E23.75028
G1 X124.677 Y137.868 E23.82988
G1 X123.271 Y138.568 E23.90302
G1 X121.921 Y139.156 E23.97158
G1 X120.514 Y139.694 E24.04173
G1 X118.967 Y140.2 E24.11752
G1 X117.721 Y140.542 E24.17768
G1 X115.966 Y140.928 E24.26135
G1 X114.621 Y141.163 E24.32493
G1 X114.278 Y141.168 E24.34091
G1 X114.068 Y141.222 E24.351
G1 X112.898 Y141.364 E24.40588
G1 X111.356 Y141.47 E24.47785
G1 X109.801 Y141.5 E24.55027
G1 X108.29 Y141.452 E24.62067
G1 X106.41 Y141.316 E24.70844
G1 X106.09 Y141.22 E24.72399
G1 X105.76 Y141.23 E24.73937
G1 X103.653 Y140.851 E24.83905
G1 X102.14 Y140.501 E24.91136
G1 X100.771 Y140.115 E24.9776
G1 X99.192 Y139.588 E25.05511
G1 X97.856 Y139.065 E25.12192
G1 X96.396 Y138.411 E25.19641
G1 X95.049 Y137.725 E25.2668
G1 X93.624 Y136.906 E25.34333
G1 X92.33 Y136.074 E25.41496
G1 X91.147 Y135.233 E25.48255
G1 X89.863 Y134.22 E25.5587
G1 X88.696 Y133.202 E25.63081
G1 X87.675 Y132.223 E25.69668
G1 X86.543 Y131.023 E25.7735
G1 X85.554 Y129.87 E25.84423
G1 X84.629 Y128.673 E25.91467
G1 X83.723 Y127.369 E25.98861
G1 X82.884 Y126.027 E26.0623
G1 X82.143 Y124.701 E26.13303
G1 X81.447 Y123.305 E26.20567
G1 X80.838 Y121.904 E26.2768
G1 X80.305 Y120.511 E26.34625
G1 X79.8 Y118.965 E26.42198
G1 X79.425 Y117.593 E26.48821
G1 X79.099 Y116.119 E26.55851
G1 X78.82 Y114.452 E26.63721
G1 X78.636 Y112.899 E26.71003
G1 X78.53 Y111.357 E26.782
G1 X78.5 Y109.802 E26.85442
G1 X78.548 Y108.263 E26.92612
G1 X78.671 Y106.722 E26.9981
G1 X78.87 Y105.183 E27.07036
G1 X79.134 Y103.73 E27.13913
G1 X79.483 Y102.174 E27.21338
G1 X79.827 Y100.931 E27.27344
G1 X80.409 Y99.207 E27.35816
G1 X80.967 Y97.782 E27.42942
G1 X81.588 Y96.406 E27.49972
G1 X82.303 Y94.988 E27.57366
G1 X82.951 Y93.851 E27.6346
G1 X83.907 Y92.35 E27.71747
G1 X84.702 Y91.228 E27.7815
G1 X85.77 Y89.875 E27.86176
G1 X86.758 Y88.734 E27.93204
G1 X87.749 Y87.701 E27.9987
G0 F9000 X88.038 Y87.978
G1 F1800 X89.256 Y86.83 E28.07664
G1 X90.412 Y85.85 E28.1472
G1 X91.622 Y84.91 E28.21855
G1 X92.852 Y84.051 E28.28841
G1 X94.043 Y83.304 E28.35387
G1 X95.501 Y82.49 E28.43163
G1 X96.889 Y81.799 E28.50382
G1 X98.222 Y81.218 E28.57153
G1 X99.629 Y80.68 E28.64168
G1 X101.141 Y80.186 E28.71574
G1 X102.494 Y79.816 E28.78106
G1 X103.947 Y79.494 E28.85036
G1 X105.614 Y79.215 E28.92906
G1 X107.129 Y79.035 E29.0001
G1 X108.653 Y78.93 E29.07123
G1 X110.186 Y78.9 E29.14263
G1 X111.71 Y78.947 E29.21363
G1 X113.231 Y79.069 E29.28468
G1 X113.925 Y79.161 E29.31728
G1 X114.151 Y79.219 E29.32814
G1 X114.461 Y79.211 E29.34258
G1 X116.268 Y79.539 E29.4281
G1 X117.714 Y79.875 E29.49722
G1 X119.156 Y80.281 E29.56698
G1 X120.664 Y80.783 E29.64099
G1 X121.946 Y81.285 E29.70509
G1 X123.47 Y81.969 E29.78288
G1 X124.83 Y82.661 E29.85393
G1 X125.967 Y83.309 E29.91487
G1 X127.434 Y84.248 E29.99597
G1 X128.606 Y85.078 E30.06285
G1 X129.866 Y86.075 E30.13766
G1 X131.006 Y87.067 E30.20803
G1 X132.019 Y88.035 E30.27327
G1 X133.157 Y89.242 E30.35052
G1 X134.128 Y90.376 E30.42003
G1 X135.068 Y91.595 E30.49171
G1 X135.921 Y92.824 E30.56137
G1 X136.766 Y94.166 E30.63522
G1 X137.499 Y95.475 E30.70508
G1 X138.177 Y96.835 E30.77584
G1 X138.782 Y98.223 E30.84634
G1 X139.32 Y99.629 E30.91644
G1 X139.814 Y101.141 E30.99051
G1 X140.184 Y102.494 E31.05582
G1 X140.506 Y103.945 E31.12503
G1 X140.786 Y105.613 E31.20379
G1 X140.965 Y107.122 E31.27454
G1 X141.07 Y108.651 E31.34591
G1 X141.1 Y110.186 E31.4174
G1 X141.053 Y111.705 E31.48816
G1 X140.932 Y113.227 E31.55926
G1 X140.736 Y114.745 E31.63053
G1 X140.472 Y116.198 E31.69929
G1 X140.131 Y117.719 E31.77188
G1 X139.787 Y118.962 E31.83193
G1 X139.218 Y120.647 E31.91474
G1 X138.668 Y122.053 E31.98504
G1 X138.047 Y123.429 E32.05534
G1 X137.349 Y124.814 E32.12756
G1 X136.701 Y125.951 E32.1885
G1 X135.767 Y127.419 E32.26951
G1 X134.984 Y128.524 E32.33258
G1 X133.928 Y129.863 E32.41198
G1 X132.953 Y130.989 E32.48134
G1 X131.962 Y132.022 E32.54799
G1 X130.744 Y133.17 E32.62593
G1 X129.588 Y134.15 E32.6965
G1 X128.378 Y135.09 E32.76785
G1 X127.148 Y135.949 E32.8377
G1 X125.957 Y136.696 E32.90317
G1 X124.499 Y137.51 E32.98092
G1 X123.111 Y138.201 E33.05312
G1 X121.778 Y138.782 E33.12083
G1 X120.371 Y139.32 E33.19097
G1 X118.861 Y139.814 E33.26495
G1 X117.635 Y140.151 E33.32415
G1 X115.897 Y140.534 E33.40703
G1 X114.552 Y140.769 E33.4706
G1 X114.227 Y140.768 E33.48574
G1 X113.969 Y140.834 E33.49814
G1 X112.87 Y140.965 E33.54967
G1 X111.348 Y141.07 E33.62071
G1 X109.814 Y141.1 E33.69216
G1 X108.319 Y141.053 E33.7618
G1 X106.481 Y140.92 E33.84761
G1 X106.135 Y140.817 E33.86442
G1 X105.831 Y140.836 E33.8786
G1 X103.743 Y140.461 E33.97739
G1 X102.249 Y140.116 E34.04878
G1 X100.88 Y139.73 E34.11502
G1 X99.338 Y139.216 E34.1907
G1 X98.02 Y138.7 E34.25661
G1 X96.56 Y138.046 E34.3311
G1 X95.248 Y137.378 E34.39966
G1 X93.84 Y136.569 E34.47527
G1 X92.562 Y135.748 E34.546
G1 X91.395 Y134.919 E34.61266
G1 X90.126 Y133.919 E34.68789
G1 X88.973 Y132.913 E34.75914
G1 X87.952 Y131.934 E34.82501
G1 X86.847 Y130.762 E34.90001
G1 X85.871 Y129.625 E34.96979
G1 X84.946 Y128.428 E35.04023
G1 X84.062 Y127.157 E35.11232
G1 X83.233 Y125.832 E35.18509
G1 X82.501 Y124.523 E35.25493
G1 X81.814 Y123.145 E35.32663
G1 X81.212 Y121.761 E35.3969
