;FLAVOR:Marlin
;TIME:1277
;Filament used: 2.74776m
;Layer height: 0.28
;MINX:18.496
;MINY:47.402
;MINZ:0.28
;MAXX:181.833
;MAXY:179.383
;MAXZ:5.04
;TARGET_MACHINE.NAME:Creality Ender-3 V3 SE
;Generated with Cura_SteamEngine 5.7.1
M82 ;absolute extrusion mode
M220 S100 ;Reset Feedrate
M221 S100 ;Reset Flowrate

G28 ;Home

M420 S1; Use saved mesh leveling data

G92 E0 ;Reset Extruder
G1 Z2.0 F3000 ;Move Z Axis up
G1 X-3 Y20 Z0.28 F5000.0 ;Move to start position
M190 S60 ; Set bed temperature and wait
M109 S200 ; Set hotend temperature and wait
G1 X-3 Y100.0 Z0.28 F1500.0 E15 ;Draw the first line
G1 X-2 Y100.0 Z0.28 F5000.0 ;Move to side a little
G1 X-2 Y20 Z0.28 F1500.0 E30 ;Draw the second line
G92 E0 ;Reset Extruder
G1 E-1.0000 F1800 ;Retract a bit
G1 Z2.0 F3000 ;Move Z Axis up
G1 E0.0000 F1800 

G92 E0
G92 E0
G1 F2400 E-0.8
;LAYER_COUNT:18
;LAYER:0
M107
G0 F9000 X35.085 Y53.076 Z0.28
;TYPE:SKIRT
G1 F2400 E0
G1 F1800 X36.07 Y52.471 E0.05383
G1 X36.457 Y52.245 E0.07469
G1 X37.817 Y51.494 E0.14704
G1 X38.367 Y51.212 E0.17582
G1 X39.178 Y50.818 E0.2178
G1 X39.749 Y50.553 E0.24711
G1 X40.785 Y50.11 E0.29958
G1 X41.197 Y49.945 E0.32024
G1 X42.371 Y49.501 E0.37869
G1 X43.014 Y49.277 E0.41039
G1 X44.513 Y48.812 E0.48348
G1 X45.796 Y48.466 E0.54535
G1 X46.237 Y48.36 E0.56647
G1 X47.534 Y48.079 E0.62827
G1 X48.071 Y47.977 E0.65372
G1 X49.245 Y47.786 E0.7091
G1 X49.737 Y47.718 E0.73223
G1 X50.991 Y47.573 E0.79101
G1 X51.502 Y47.526 E0.81491
G1 X52.703 Y47.445 E0.87096
G1 X53.228 Y47.424 E0.89542
G1 X54.527 Y47.402 E0.95592
G1 X55.062 Y47.406 E0.98083
G1 X56.592 Y47.462 E1.05212
G1 X57.204 Y47.504 E1.08069
G1 X58.543 Y47.631 E1.14332
G1 X59.762 Y47.791 E1.20056
G1 X60.432 Y47.894 E1.23213
G1 X61.996 Y48.193 E1.30627
G1 X63.189 Y48.471 E1.36331
G1 X65.709 Y49.033 E1.48354
G1 X68.209 Y49.518 E1.60212
G1 X70.657 Y49.921 E1.71764
G1 X73.177 Y50.265 E1.83607
G1 X75.66 Y50.531 E1.95235
G1 X78.209 Y50.733 E2.07142
G1 X80.672 Y50.856 E2.18625
G1 X83.226 Y50.912 E2.3052
G1 X85.726 Y50.896 E2.42161
G1 X88.248 Y50.809 E2.53912
G1 X90.769 Y50.651 E2.65674
G1 X93.273 Y50.422 E2.77382
G1 X95.737 Y50.126 E2.88938
G1 X98.266 Y49.75 E3.00843
G1 X100.697 Y49.317 E3.12341
G1 X104.399 Y48.527 E3.29968
G1 X105.582 Y48.253 E3.35622
G1 X106.813 Y48.002 E3.41472
G1 X107.268 Y47.921 E3.43624
G1 X108.174 Y47.778 E3.47895
G1 X108.615 Y47.718 E3.49967
G1 X109.868 Y47.573 E3.55841
G1 X110.378 Y47.526 E3.58225
G1 X111.576 Y47.445 E3.63817
G1 X112.103 Y47.424 E3.66272
G1 X113.402 Y47.402 E3.72322
G1 X113.933 Y47.406 E3.74795
G1 X115.166 Y47.448 E3.80539
G1 X115.687 Y47.476 E3.82969
G1 X116.922 Y47.578 E3.88739
G1 X117.419 Y47.631 E3.91066
G1 X118.64 Y47.791 E3.96801
G1 X119.315 Y47.895 E3.99981
G1 X120.841 Y48.186 E4.07214
G1 X121.306 Y48.287 E4.0943
G1 X122.454 Y48.566 E4.14931
G1 X123.121 Y48.749 E4.18152
G1 X124.292 Y49.1 E4.23844
G1 X124.781 Y49.261 E4.26242
G1 X125.985 Y49.687 E4.32188
G1 X127.209 Y50.169 E4.38314
G1 X128.749 Y50.857 E4.46168
G1 X129.687 Y51.316 E4.5103
G1 X130.741 Y51.874 E4.56584
G1 X131.185 Y52.124 E4.58956
G1 X132.298 Y52.785 E4.64984
G1 X133.4 Y53.493 E4.71083
G1 X133.936 Y53.859 E4.74105
G1 X134.894 Y54.549 E4.79603
G1 X135.239 Y54.811 E4.8162
G1 X136.21 Y55.582 E4.87393
G1 X136.612 Y55.916 E4.89827
G1 X137.563 Y56.751 E4.9572
G1 X137.944 Y57.101 E4.98129
G1 X138.801 Y57.931 E5.03684
G1 X139.466 Y58.612 E5.08116
G1 X140.081 Y59.275 E5.12327
G1 X140.383 Y59.617 E5.14452
G1 X141.374 Y60.787 E5.21592
G1 X141.808 Y61.338 E5.24858
G1 X142.513 Y62.279 E5.30333
G1 X142.812 Y62.701 E5.32741
G1 X143.555 Y63.8 E5.38918
G1 X143.806 Y64.19 E5.41078
G1 X144.287 Y64.973 E5.45357
G1 X144.511 Y65.357 E5.47427
G1 X145.249 Y66.695 E5.54542
G1 X145.535 Y67.255 E5.5747
G1 X146.043 Y68.308 E5.62914
G1 X146.328 Y68.947 E5.66172
G1 X146.812 Y70.108 E5.72029
G1 X147.286 Y71.362 E5.78271
G1 X147.44 Y71.808 E5.80468
G1 X147.815 Y72.979 E5.86194
G1 X147.986 Y73.548 E5.8896
G1 X148.312 Y74.785 E5.94917
G1 X149.111 Y78.137 E6.10962
G1 X149.756 Y80.525 E6.2248
G1 X150.488 Y82.959 E6.34316
G1 X151.283 Y85.358 E6.46084
G1 X152.148 Y87.737 E6.57871
G1 X153.062 Y90.045 E6.6943
G1 X154.073 Y92.402 E6.81372
G1 X155.112 Y94.652 E6.92912
G1 X156.239 Y96.916 E7.04688
G1 X157.441 Y99.17 E7.16583
G1 X158.665 Y101.314 E7.28079
G1 X160.001 Y103.511 E7.40052
G1 X161.346 Y105.589 E7.51578
G1 X162.769 Y107.653 E7.63251
G1 X164.27 Y109.706 E7.75094
G1 X165.789 Y111.664 E7.86633
G1 X167.401 Y113.624 E7.9845
G1 X169.045 Y115.512 E8.10107
G1 X172.519 Y119.233 E8.33811
G1 X172.959 Y119.725 E8.36884
G1 X173.731 Y120.641 E8.42462
G1 X174.135 Y121.145 E8.4547
G1 X174.987 Y122.275 E8.5206
G1 X175.293 Y122.705 E8.54517
G1 X176.034 Y123.805 E8.60693
G1 X176.284 Y124.193 E8.62843
G1 X176.989 Y125.36 E8.69191
G1 X177.733 Y126.708 E8.76361
G1 X178.018 Y127.267 E8.79282
G1 X178.6 Y128.486 E8.85572
G1 X179.094 Y129.623 E8.91345
G1 X179.489 Y130.62 E8.96338
G1 X179.891 Y131.733 E9.01849
G1 X180.054 Y132.22 E9.0424
G1 X180.422 Y133.418 E9.10075
G1 X180.767 Y134.7 E9.16257
G1 X180.971 Y135.569 E9.20414
G1 X181.169 Y136.511 E9.24896
G1 X181.255 Y136.969 E9.27066
G1 X181.447 Y138.144 E9.3261
G1 X181.516 Y138.638 E9.34932
G1 X181.657 Y139.85 E9.40614
G1 X181.72 Y140.534 E9.43813
G1 X181.793 Y141.684 E9.49178
G1 X181.818 Y142.329 E9.52184
G1 X181.833 Y143.777 E9.58927
G1 X181.819 Y144.462 E9.62117
G1 X181.756 Y145.754 E9.6814
G1 X181.651 Y146.999 E9.73958
G1 X181.599 Y147.489 E9.76253
G1 X181.444 Y148.663 E9.81767
G1 X181.364 Y149.177 E9.84189
G1 X181.13 Y150.465 E9.90284
G1 X181.025 Y150.971 E9.92691
G1 X180.666 Y152.495 E9.99981
G1 X180.502 Y153.093 E10.02869
G1 X180.229 Y154.019 E10.07364
G1 X180.072 Y154.507 E10.09751
G1 X179.609 Y155.839 E10.16317
G1 X179.449 Y156.267 E10.18445
G1 X178.969 Y157.464 E10.2445
G1 X178.718 Y158.036 E10.27359
G1 X178.314 Y158.915 E10.31864
G1 X178.112 Y159.329 E10.34009
G1 X177.567 Y160.385 E10.39542
G1 X177.095 Y161.243 E10.44102
G1 X176.436 Y162.348 E10.50093
G1 X175.704 Y163.484 E10.56385
G1 X175.442 Y163.868 E10.5855
G1 X174.758 Y164.823 E10.6402
G1 X174.455 Y165.225 E10.66364
G1 X173.656 Y166.235 E10.72361
G1 X173.313 Y166.645 E10.7485
G1 X172.478 Y167.595 E10.80739
G1 X172.131 Y167.973 E10.83128
G1 X171.273 Y168.86 E10.88875
G1 X170.91 Y169.218 E10.91249
G1 X170.026 Y170.048 E10.96895
G1 X169.622 Y170.408 E10.99415
G1 X168.647 Y171.234 E11.05365
G1 X168.152 Y171.636 E11.08334
G1 X167.2 Y172.361 E11.13906
G1 X166.836 Y172.625 E11.16
G1 X165.588 Y173.483 E11.23052
G1 X165.032 Y173.841 E11.26131
G1 X164.254 Y174.318 E11.30381
G1 X163.87 Y174.541 E11.32448
G1 X162.536 Y175.278 E11.39545
G1 X161.955 Y175.576 E11.42586
G1 X161.189 Y175.947 E11.46549
G1 X160.572 Y176.232 E11.49713
G1 X159.148 Y176.832 E11.56909
G1 X158.731 Y176.996 E11.58995
G1 X157.868 Y177.315 E11.63279
G1 X157.427 Y177.467 E11.65451
G1 X155.948 Y177.937 E11.72678
G1 X155.369 Y178.1 E11.75479
G1 X154.452 Y178.339 E11.79891
G1 X154.006 Y178.445 E11.82026
G1 X152.857 Y178.692 E11.87498
G1 X151.943 Y178.863 E11.91828
G1 X151.041 Y179.006 E11.96081
G1 X150.591 Y179.067 E11.98195
G1 X149.337 Y179.212 E12.04073
G1 X148.814 Y179.26 E12.06519
G1 X147.596 Y179.341 E12.12203
G1 X147.076 Y179.362 E12.14626
G1 X145.799 Y179.383 E12.20573
G1 X145.275 Y179.379 E12.23013
G1 X144.033 Y179.337 E12.288
G1 X143.517 Y179.308 E12.31206
G1 X142.311 Y179.209 E12.36841
G1 X141.588 Y179.132 E12.40226
G1 X140.098 Y178.921 E12.47234
G1 X139.575 Y178.834 E12.49702
G1 X138.329 Y178.59 E12.55615
G1 X137.89 Y178.494 E12.57707
G1 X136.219 Y178.093 E12.65709
G1 X134.891 Y177.76 E12.72084
G1 X132.405 Y177.21 E12.8394
G1 X129.969 Y176.742 E12.9549
G1 X127.436 Y176.33 E13.0744
G1 X124.973 Y176.001 E13.19011
G1 X122.439 Y175.734 E13.30875
G1 X119.974 Y175.547 E13.42386
G1 X117.434 Y175.424 E13.54227
G1 X114.926 Y175.374 E13.65908
G1 X112.392 Y175.396 E13.77708
G1 X109.868 Y175.488 E13.89469
G1 X107.363 Y175.651 E14.01158
G1 X104.909 Y175.881 E14.12634
G1 X102.379 Y176.191 E14.24503
G1 X99.862 Y176.571 E14.36356
G1 X97.424 Y177.01 E14.47891
G1 X94.976 Y177.521 E14.59536
G1 X91.114 Y178.459 E14.78042
G1 X90.704 Y178.551 E14.79998
G1 X89.527 Y178.789 E14.8559
G1 X88.212 Y179.006 E14.91796
G1 X87.592 Y179.092 E14.94711
G1 X86.042 Y179.255 E15.01968
G1 X84.71 Y179.344 E15.08184
G1 X84.266 Y179.36 E15.10253
G1 X82.977 Y179.382 E15.16256
G1 X82.444 Y179.379 E15.18738
G1 X81.201 Y179.337 E15.24529
G1 X80.692 Y179.308 E15.26903
G1 X79.454 Y179.207 E15.32687
G1 X78.937 Y179.153 E15.35107
G1 X77.74 Y178.995 E15.40729
G1 X77.04 Y178.886 E15.44028
G1 X75.496 Y178.59 E15.51348
G1 X75.045 Y178.49 E15.53499
G1 X73.719 Y178.162 E15.5986
G1 X72.26 Y177.742 E15.6693
G1 X71.662 Y177.548 E15.69857
G1 X70.788 Y177.245 E15.74164
G1 X70.357 Y177.085 E15.76305
G1 X69.219 Y176.634 E15.82005
G1 X68.76 Y176.441 E15.84324
G1 X67.609 Y175.92 E15.90207
G1 X67.123 Y175.687 E15.92716
G1 X66.012 Y175.115 E15.98535
G1 X65.553 Y174.864 E16.00971
G1 X64.474 Y174.241 E16.06773
G1 X64.046 Y173.979 E16.09109
G1 X62.986 Y173.298 E16.14976
G1 X62.553 Y173.003 E16.17416
G1 X61.557 Y172.29 E16.23119
G1 X61.127 Y171.966 E16.25626
G1 X60.147 Y171.186 E16.31458
G1 X59.763 Y170.865 E16.33789
G1 X58.816 Y170.037 E16.39646
G1 X58.433 Y169.685 E16.42069
G1 X57.336 Y168.615 E16.49204
G1 X56.905 Y168.167 E16.52099
G1 X56.278 Y167.491 E16.56392
G1 X55.971 Y167.145 E16.58546
G1 X55.164 Y166.192 E16.64361
G1 X54.841 Y165.792 E16.66755
G1 X54.094 Y164.819 E16.72467
G1 X53.79 Y164.403 E16.74866
G1 X53.067 Y163.359 E16.80779
G1 X52.775 Y162.916 E16.8325
G1 X52.141 Y161.896 E16.88842
G1 X51.884 Y161.458 E16.91207
G1 X51.268 Y160.353 E16.97098
G1 X50.825 Y159.5 E17.01573
G1 X50.458 Y158.743 E17.05491
G1 X50.171 Y158.121 E17.0868
G1 X49.57 Y156.692 E17.15899
G1 X49.383 Y156.215 E17.18285
G1 X48.965 Y155.062 E17.23995
G1 X48.796 Y154.556 E17.2648
G1 X48.425 Y153.347 E17.32368
G1 X48.069 Y152.019 E17.3877
G1 X47.964 Y151.581 E17.40868
G1 X47.706 Y150.387 E17.46556
G1 X47.159 Y147.508 E17.60201
G1 X46.633 Y145.069 E17.71819
G1 X46.027 Y142.62 E17.83567
G1 X45.352 Y140.174 E17.95382
G1 X44.611 Y137.766 E18.07114
G1 X43.805 Y135.388 E18.18805
G1 X42.935 Y133.039 E18.3047
G1 X41.993 Y130.702 E18.42202
G1 X40.985 Y128.392 E18.53938
G1 X39.915 Y126.115 E18.65653
G1 X38.766 Y123.841 E18.77517
G1 X37.582 Y121.653 E18.89101
G1 X36.334 Y119.5 E19.00689
G1 X34.989 Y117.317 E19.12628
G1 X33.613 Y115.223 E19.24296
G1 X32.186 Y113.18 E19.35899
G1 X30.676 Y111.14 E19.47718
G1 X29.126 Y109.167 E19.59401
G1 X26.587 Y106.131 E19.7783
G1 X26.306 Y105.78 E19.79923
G1 X25.382 Y104.567 E19.87024
G1 X25.002 Y104.032 E19.90079
G1 X24.245 Y102.908 E19.96389
G1 X23.616 Y101.897 E20.01934
G1 X23.137 Y101.075 E20.06364
G1 X22.711 Y100.298 E20.1049
G1 X22.492 Y99.877 E20.127
G1 X21.941 Y98.757 E20.18512
G1 X21.654 Y98.139 E20.21685
G1 X21.04 Y96.681 E20.29051
G1 X20.566 Y95.428 E20.35289
G1 X20.408 Y94.97 E20.37545
G1 X20.032 Y93.796 E20.43285
G1 X19.851 Y93.181 E20.4627
G1 X19.546 Y92.025 E20.51837
G1 X19.44 Y91.579 E20.53972
G1 X19.182 Y90.384 E20.59665
G1 X19.085 Y89.877 E20.62068
G1 X18.883 Y88.652 E20.67849
G1 X18.789 Y87.998 E20.70926
G1 X18.659 Y86.811 E20.76486
G1 X18.62 Y86.375 E20.78525
G1 X18.538 Y85.15 E20.84241
G1 X18.517 Y84.622 E20.86702
G1 X18.496 Y83.005 E20.94232
G1 X18.513 Y82.249 E20.97753
G1 X18.567 Y81.117 E21.0303
G1 X18.676 Y79.783 E21.09263
G1 X18.725 Y79.333 E21.1137
G1 X18.886 Y78.111 E21.1711
G1 X18.989 Y77.442 E21.20262
G1 X19.289 Y75.88 E21.27668
G1 X19.388 Y75.43 E21.29813
G1 X19.721 Y74.077 E21.36301
G1 X20.053 Y72.919 E21.41911
G1 X20.34 Y72.015 E21.46327
G1 X20.88 Y70.517 E21.53742
G1 X21.442 Y69.134 E21.60693
G1 X21.645 Y68.673 E21.63039
G1 X22.164 Y67.562 E21.68749
G1 X22.362 Y67.16 E21.70835
G1 X22.763 Y66.391 E21.74874
G1 X23.073 Y65.823 E21.77887
G1 X23.849 Y64.507 E21.85001
G1 X24.091 Y64.118 E21.87134
G1 X24.638 Y63.282 E21.91786
G1 X24.897 Y62.904 E21.9392
G1 X25.589 Y61.938 E21.99453
G1 X25.985 Y61.413 E22.02515
G1 X26.714 Y60.497 E22.07966
G1 X27.021 Y60.132 E22.10187
G1 X27.863 Y59.174 E22.16126
G1 X28.205 Y58.803 E22.18475
G1 X29.024 Y57.956 E22.23962
G1 X29.398 Y57.588 E22.26405
G1 X30.335 Y56.71 E22.32384
G1 X30.83 Y56.268 E22.35474
G1 X32.042 Y55.258 E22.4282
G1 X32.399 Y54.976 E22.44939
G1 X33.48 Y54.167 E22.51226
G1 X34.483 Y53.472 E22.56908
G1 X35.085 Y53.076 E22.60263
G0 F9000 X35.294 Y53.417
G1 F1800 X36.272 Y52.816 E22.65608
G1 X36.65 Y52.595 E22.67647
G1 X37.999 Y51.85 E22.74823
G1 X38.542 Y51.572 E22.77663
G1 X39.346 Y51.181 E22.81826
G1 X39.907 Y50.921 E22.84706
G1 X40.934 Y50.481 E22.89908
G1 X41.338 Y50.319 E22.91935
G1 X42.503 Y49.879 E22.97734
G1 X43.133 Y49.659 E23.00841
G1 X44.617 Y49.198 E23.08077
G1 X45.889 Y48.855 E23.14211
G1 X46.322 Y48.751 E23.16285
G1 X47.609 Y48.472 E23.22417
G1 X48.135 Y48.372 E23.2491
G1 X49.3 Y48.182 E23.30406
G1 X49.783 Y48.115 E23.32677
G1 X51.028 Y47.971 E23.38513
G1 X51.529 Y47.925 E23.40856
G1 X52.719 Y47.845 E23.46409
G1 X53.235 Y47.824 E23.48814
G1 X54.524 Y47.802 E23.54817
G1 X55.048 Y47.806 E23.57257
G1 X56.565 Y47.861 E23.64325
G1 X57.166 Y47.902 E23.6713
G1 X58.491 Y48.028 E23.73328
G1 X59.701 Y48.186 E23.7901
G1 X60.357 Y48.287 E23.82101
G1 X61.906 Y48.583 E23.89444
G1 X63.099 Y48.86 E23.95147
G1 X65.633 Y49.426 E24.07237
G1 X68.139 Y49.912 E24.19123
G1 X70.592 Y50.316 E24.30699
G1 X73.134 Y50.663 E24.42646
G1 X75.619 Y50.929 E24.54283
G1 X78.178 Y51.131 E24.66236
G1 X80.663 Y51.256 E24.77822
G1 X83.22 Y51.312 E24.89731
G1 X85.74 Y51.296 E25.01466
G1 X88.262 Y51.209 E25.13216
G1 X90.794 Y51.05 E25.25029
G1 X93.321 Y50.819 E25.36845
G1 X95.796 Y50.522 E25.48452
G1 X98.325 Y50.146 E25.60358
G1 X100.767 Y49.711 E25.71908
G1 X104.489 Y48.917 E25.89629
G1 X105.662 Y48.645 E25.95236
G1 X106.883 Y48.396 E26.01039
G1 X107.33 Y48.316 E26.03153
G1 X108.228 Y48.174 E26.07386
G1 X108.661 Y48.115 E26.09421
G1 X109.905 Y47.971 E26.15253
G1 X110.405 Y47.925 E26.17591
G1 X111.592 Y47.845 E26.2313
G1 X112.11 Y47.824 E26.25544
G1 X113.399 Y47.802 E26.31547
G1 X113.92 Y47.806 E26.33973
G1 X115.144 Y47.847 E26.39676
G1 X115.654 Y47.875 E26.42054
G1 X116.88 Y47.976 E26.47783
G1 X117.367 Y48.028 E26.50063
G1 X118.579 Y48.186 E26.55754
G1 X119.24 Y48.288 E26.58869
G1 X120.756 Y48.577 E26.66055
G1 X121.212 Y48.676 E26.68228
G1 X122.348 Y48.952 E26.73671
G1 X123.006 Y49.132 E26.76848
G1 X124.167 Y49.48 E26.82492
G1 X124.648 Y49.638 E26.84849
G1 X125.838 Y50.059 E26.90727
G1 X127.051 Y50.537 E26.96798
G1 X127.459 Y50.712 E26.98865
G1 X128.573 Y51.216 E27.04558
G1 X129.5 Y51.67 E27.09365
G1 X130.545 Y52.223 E27.1487
G1 X130.981 Y52.468 E27.17199
G1 X132.082 Y53.122 E27.23162
G1 X133.175 Y53.824 E27.29211
G1 X133.702 Y54.183 E27.3218
G1 X134.652 Y54.868 E27.37633
G1 X134.99 Y55.124 E27.39608
G1 X135.954 Y55.889 E27.45338
G1 X136.348 Y56.217 E27.47725
G1 X137.292 Y57.045 E27.53572
G1 X137.666 Y57.389 E27.55938
G1 X138.515 Y58.21 E27.61438
G1 X139.173 Y58.884 E27.65824
G1 X139.781 Y59.539 E27.69985
G1 X140.078 Y59.876 E27.72077
G1 X141.06 Y61.035 E27.7915
G1 X141.488 Y61.578 E27.8237
G1 X142.187 Y62.511 E27.87798
G1 X142.481 Y62.925 E27.90163
G1 X143.219 Y64.017 E27.963
G1 X143.465 Y64.399 E27.98416
G1 X143.941 Y65.175 E28.02655
G1 X144.165 Y65.559 E28.04725
G1 X144.893 Y66.877 E28.11736
G1 X145.175 Y67.429 E28.14622
G1 X145.678 Y68.471 E28.2001
G1 X145.959 Y69.101 E28.23222
G1 X146.438 Y70.249 E28.29014
G1 X146.908 Y71.493 E28.35206
G1 X147.059 Y71.93 E28.37359
G1 X147.432 Y73.094 E28.43051
G1 X147.599 Y73.65 E28.45754
G1 X147.923 Y74.878 E28.51668
G1 X148.725 Y78.241 E28.67766
G1 X149.373 Y80.64 E28.79338
G1 X150.108 Y83.085 E28.91226
G1 X150.907 Y85.495 E29.03048
G1 X151.776 Y87.884 E29.14886
G1 X152.694 Y90.203 E29.26499
G1 X153.705 Y92.56 E29.38441
G1 X154.754 Y94.83 E29.50086
G1 X155.886 Y97.104 E29.61914
G1 X157.088 Y99.358 E29.73808
G1 X158.323 Y101.522 E29.8541
G1 X159.659 Y103.719 E29.97384
G1 X161.01 Y105.806 E30.0896
G1 X162.446 Y107.889 E30.20741
G1 X163.954 Y109.951 E30.32636
G1 X165.48 Y111.918 E30.44228
G1 X167.099 Y113.887 E30.56098
G1 X168.743 Y115.775 E30.67755
G1 X172.221 Y119.5 E30.91486
