;FLAVOR:Marlin
;TIME:695
;Filament used: 0.805613m
;Layer height: 0.28
;MINX:99.1
;MINY:99.1
;MINZ:0.28
;MAXX:120.899
;MAXY:120.9
;MAXZ:19.88
;TARGET_MACHINE.NAME:Creality Ender-3 V3 SE
;Generated with Cura_SteamEngine 5.7.1
M82 ;absolute extrusion mode
M220 S100 ;Reset Feedrate
M221 S100 ;Reset Flowrate

G28 ;Home

M420 S1; Use saved mesh leveling data

G92 E0 ;Reset Extruder
G1 Z2.0 F3000 ;Move Z Axis up
G1 X-3 Y20 Z0.28 F5000.0 ;Move to start position
M190 S50 ; Set bed temperature and wait
M109 S205 ; Set hotend temperature and wait
G1 X-3 Y100.0 Z0.28 F1500.0 E15 ;Draw the first line
G1 X-2 Y100.0 Z0.28 F5000.0 ;Move to side a little
G1 X-2 Y20 Z0.28 F1500.0 E30 ;Draw the second line
G92 E0 ;Reset Extruder
G1 E-1.0000 F1800 ;Retract a bit
G1 Z2.0 F3000 ;Move Z Axis up
G1 E0.0000 F1800 

G92 E0
G92 E0
G1 F2400 E-0.8
;LAYER_COUNT:71
;LAYER:0
M107
;MESH:hetest.stl
G0 F9000 X109.994 Y119.8 Z0.28
;TYPE:WALL-OUTER
G1 F2400 E0
G1 F1752.7 X109.512 Y119.788 E0.02245
G1 X109.031 Y119.751 E0.04491
G1 X108.561 Y119.694 E0.06696
G1 X108.091 Y119.612 E0.08918
G1 X107.607 Y119.502 E0.11229
G1 X107.152 Y119.378 E0.13425
G1 X106.698 Y119.225 E0.15656
G1 X106.238 Y119.047 E0.17952
G1 X105.808 Y118.856 E0.20143
G1 X105.376 Y118.642 E0.22388
G1 X104.963 Y118.405 E0.24605
G1 X104.554 Y118.145 E0.26862
G1 X104.153 Y117.866 E0.29137
G1 X103.781 Y117.576 E0.31333
G1 X103.41 Y117.253 E0.33624
G1 X103.067 Y116.926 E0.3583
G1 X102.742 Y116.585 E0.38024
G1 X102.413 Y116.207 E0.40357
G1 X102.128 Y115.836 E0.42536
G1 X101.851 Y115.445 E0.44767
G1 X101.585 Y115.027 E0.47074
G1 X101.349 Y114.607 E0.49317
G1 X101.132 Y114.177 E0.5156
G1 X100.945 Y113.749 E0.53735
G1 X100.766 Y113.287 E0.56042
G1 X100.615 Y112.83 E0.58283
G1 X100.493 Y112.384 E0.60436
G1 X100.382 Y111.898 E0.62757
G1 X100.301 Y111.425 E0.64992
G1 X100.244 Y110.958 E0.67183
G1 X100.212 Y110.478 E0.69423
G1 X100.2 Y110.014 E0.71584
G1 X100.212 Y109.506 E0.7395
G1 X100.245 Y109.023 E0.76204
G1 X100.302 Y108.561 E0.78372
G1 X100.384 Y108.092 E0.80589
G1 X100.494 Y107.607 E0.82905
G1 X100.618 Y107.157 E0.85078
G1 X100.769 Y106.7 E0.87319
G1 X100.949 Y106.235 E0.89641
G1 X101.137 Y105.81 E0.91805
G1 X101.354 Y105.381 E0.94044
G1 X101.59 Y104.965 E0.96271
G1 X101.856 Y104.545 E0.98586
G1 X102.134 Y104.148 E1.00842
G1 X102.42 Y103.785 E1.02994
G1 X102.746 Y103.407 E1.05319
G1 X103.071 Y103.062 E1.07526
G1 X103.413 Y102.74 E1.09713
G1 X103.788 Y102.418 E1.12014
G1 X104.157 Y102.128 E1.142
G1 X104.549 Y101.854 E1.16427
G1 X104.969 Y101.59 E1.18737
G1 X105.383 Y101.354 E1.20956
G1 X105.8 Y101.14 E1.23138
G1 X106.247 Y100.948 E1.25404
G1 X106.704 Y100.77 E1.27687
G1 X107.158 Y100.619 E1.29915
G1 X107.61 Y100.493 E1.321
G1 X108.099 Y100.382 E1.34435
G1 X108.564 Y100.305 E1.3663
G1 X109.034 Y100.244 E1.38837
G1 X109.514 Y100.212 E1.41077
G1 X110.002 Y100.199 E1.4335
G1 X110.486 Y100.212 E1.45604
G1 X110.971 Y100.245 E1.47868
G1 X111.433 Y100.306 E1.50038
G1 X111.909 Y100.386 E1.52285
G1 X112.389 Y100.494 E1.54576
G1 X112.844 Y100.618 E1.56772
G1 X113.297 Y100.769 E1.58996
G1 X113.758 Y100.949 E1.613
G1 X114.189 Y101.14 E1.63495
G1 X114.62 Y101.354 E1.65736
G1 X115.032 Y101.591 E1.67949
G1 X115.438 Y101.851 E1.70194
G1 X115.847 Y102.134 E1.7251
G1 X116.212 Y102.416 E1.74658
G1 X116.58 Y102.736 E1.76929
G1 X116.929 Y103.07 E1.79178
G1 X117.256 Y103.413 E1.81385
G1 X117.582 Y103.792 E1.83712
G1 X117.868 Y104.157 E1.85872
G1 X118.146 Y104.553 E1.88125
G1 X118.41 Y104.972 E1.90431
G1 X118.639 Y105.373 E1.92581
G1 X118.863 Y105.819 E1.94905
G1 X119.051 Y106.245 E1.97073
G1 X119.228 Y106.701 E1.99351
G1 X119.381 Y107.167 E2.01635
G1 X119.503 Y107.615 E2.03797
G1 X119.614 Y108.101 E2.06118
G1 X119.695 Y108.571 E2.08339
G1 X119.752 Y109.032 E2.10502
G1 X119.788 Y109.514 E2.12752
G1 X119.801 Y109.992 E2.14979
G1 X119.788 Y110.488 E2.17289
G1 X119.751 Y110.969 E2.19536
G1 X119.694 Y111.434 E2.21717
G1 X119.611 Y111.909 E2.23962
G1 X119.502 Y112.394 E2.26277
G1 X119.378 Y112.839 E2.28428
G1 X119.227 Y113.297 E2.30674
G1 X119.047 Y113.757 E2.32974
G1 X118.859 Y114.187 E2.35159
G1 X118.643 Y114.615 E2.37391
G1 X118.405 Y115.036 E2.39643
G1 X118.141 Y115.451 E2.41934
G1 X117.866 Y115.843 E2.44163
G1 X117.575 Y116.216 E2.46366
G1 X117.25 Y116.59 E2.48673
G1 X116.93 Y116.93 E2.50847
G1 X116.584 Y117.256 E2.53061
G1 X116.207 Y117.583 E2.55385
G1 X115.839 Y117.868 E2.57552
G1 X115.446 Y118.142 E2.59783
G1 X115.032 Y118.406 E2.62069
G1 X114.61 Y118.647 E2.64332
G1 X114.198 Y118.855 E2.66481
G1 X113.755 Y119.051 E2.68737
G1 X113.291 Y119.23 E2.71053
G1 X112.845 Y119.377 E2.73239
G1 X112.394 Y119.502 E2.75419
G1 X111.902 Y119.614 E2.77768
G1 X111.429 Y119.695 E2.80003
G1 X110.964 Y119.752 E2.82184
G1 X110.481 Y119.788 E2.8444
G1 X109.994 Y119.8 E2.86708
G0 F9000 X109.987 Y120.099
G0 X109.996 Y120.6
G0 X110.012 Y120.9
G1 F1752.7 X110.571 Y120.881 E2.89312
G1 X111.059 Y120.846 E2.9159
G1 X111.586 Y120.782 E2.94062
G1 X112.153 Y120.682 E2.96743
G1 X112.657 Y120.57 E2.99147
G1 X113.199 Y120.417 E3.0177
G1 X113.694 Y120.251 E3.04201
G1 X114.163 Y120.071 E3.0654
G1 X114.671 Y119.843 E3.09133
G1 X115.126 Y119.615 E3.11503
G1 X115.616 Y119.337 E3.14126
G1 X116.056 Y119.058 E3.16552
G1 X116.496 Y118.75 E3.19053
G1 X116.936 Y118.404 E3.21659
G1 X117.342 Y118.048 E3.24174
G1 X117.732 Y117.675 E3.26687
G1 X118.077 Y117.314 E3.29012
G1 X118.445 Y116.884 E3.31647
G1 X118.759 Y116.484 E3.34015
G1 X119.073 Y116.035 E3.36566
G1 X119.354 Y115.591 E3.39013
G1 X119.621 Y115.118 E3.41542
G1 X119.851 Y114.656 E3.43945
G1 X120.071 Y114.163 E3.46459
G1 X120.263 Y113.664 E3.48949
G1 X120.436 Y113.14 E3.51518
G1 X120.575 Y112.625 E3.54002
G1 X120.689 Y112.12 E3.56413
G1 X120.782 Y111.59 E3.58918
G1 X120.849 Y111.039 E3.61503
G1 X120.884 Y110.507 E3.63985
G1 X120.899 Y109.957 E3.66547
G1 X120.881 Y109.425 E3.69026
G1 X120.843 Y108.91 E3.71431
G1 X120.776 Y108.377 E3.73932
G1 X120.685 Y107.85 E3.76422
G1 X120.564 Y107.317 E3.78967
G1 X120.437 Y106.857 E3.81189
G1 X120.253 Y106.304 E3.83903
G1 X120.052 Y105.792 E3.86464
G1 X119.841 Y105.318 E3.8888
G1 X119.608 Y104.855 E3.91294
G1 X119.337 Y104.376 E3.93857
G1 X119.062 Y103.944 E3.96241
G1 X118.725 Y103.471 E3.98945
G1 X118.41 Y103.071 E4.01316
G1 X118.075 Y102.678 E4.03721
G1 X117.692 Y102.276 E4.06306
G1 X117.316 Y101.921 E4.08714
G1 X116.909 Y101.571 E4.11214
G1 X116.465 Y101.224 E4.13838
G1 X116.026 Y100.921 E4.16321
G1 X115.601 Y100.649 E4.18671
G1 X115.123 Y100.38 E4.21225
G1 X114.656 Y100.143 E4.23664
G1 X114.145 Y99.919 E4.26262
G1 X113.668 Y99.737 E4.28639
G1 X113.122 Y99.558 E4.31314
G1 X112.621 Y99.42 E4.33734
G1 X112.12 Y99.31 E4.36123
G1 X111.583 Y99.217 E4.3866
G1 X111.061 Y99.151 E4.4111
G1 X110.503 Y99.112 E4.43715
G1 X109.966 Y99.101 E4.46216
G1 X109.461 Y99.113 E4.48568
G1 X108.941 Y99.15 E4.50996
G1 X108.424 Y99.212 E4.5342
G1 X107.845 Y99.313 E4.56157
G1 X107.344 Y99.429 E4.58552
G1 X106.846 Y99.564 E4.60954
G1 X106.298 Y99.746 E4.63643
G1 X105.82 Y99.932 E4.66031
G1 X105.324 Y100.154 E4.68562
G1 X104.835 Y100.401 E4.71113
G1 X104.373 Y100.664 E4.73588
G1 X103.94 Y100.938 E4.75974
G1 X103.505 Y101.245 E4.78453
G1 X103.066 Y101.59 E4.81053
G1 X102.673 Y101.93 E4.83473
G1 X102.28 Y102.303 E4.85996
G1 X101.91 Y102.696 E4.88509
G1 X101.55 Y103.112 E4.91071
G1 X101.227 Y103.526 E4.93516
G1 X100.93 Y103.952 E4.95934
G1 X100.648 Y104.395 E4.98379
G1 X100.381 Y104.875 E5.00937
G1 X100.143 Y105.344 E5.03386
G1 X99.921 Y105.849 E5.05955
G1 X99.737 Y106.331 E5.08357
G1 X99.559 Y106.875 E5.11022
G1 X99.42 Y107.374 E5.13434
G1 X99.307 Y107.876 E5.1583
G1 X99.214 Y108.405 E5.18331
G1 X99.151 Y108.956 E5.20914
G1 X99.112 Y109.47 E5.23314
G1 X99.1 Y110.008 E5.2582
G1 X99.111 Y110.512 E5.28167
G1 X99.15 Y111.055 E5.30702
G1 X99.214 Y111.59 E5.33211
G1 X99.311 Y112.145 E5.35834
G1 X99.426 Y112.654 E5.38264
G1 X99.577 Y113.182 E5.40821
G1 X99.745 Y113.689 E5.43309
G1 X99.941 Y114.2 E5.45857
G1 X100.157 Y114.682 E5.48316
G1 X100.389 Y115.138 E5.50699
G1 X100.648 Y115.601 E5.53169
G1 X100.938 Y116.059 E5.55693
G1 X101.245 Y116.495 E5.58176
G1 X101.574 Y116.913 E5.60653
G1 X101.93 Y117.327 E5.63196
G1 X102.299 Y117.716 E5.65692
G1 X102.696 Y118.089 E5.68229
G1 X103.075 Y118.417 E5.70563
G1 X103.534 Y118.773 E5.73268
G1 X103.97 Y119.077 E5.75743
G1 X104.384 Y119.341 E5.78029
G1 X104.863 Y119.611 E5.80589
G1 X105.368 Y119.864 E5.83219
G1 X105.853 Y120.078 E5.85688
G1 X106.333 Y120.261 E5.8808
G1 X106.851 Y120.431 E5.90618
G1 X107.37 Y120.574 E5.93125
G1 X107.86 Y120.687 E5.95467
G1 X108.414 Y120.783 E5.98085
G1 X108.932 Y120.845 E6.00514
G1 X109.467 Y120.884 E6.03012
G1 X110.012 Y120.9 E6.05551
G0 F9000 X110.001 Y120.525
;TYPE:WALL-INNER
G1 F2008.9 X110.545 Y120.508 E6.07762
G1 X111.06 Y120.469 E6.0986
G1 X111.56 Y120.406 E6.11908
G1 X112.072 Y120.317 E6.14019
G1 F2003.1 X112.557 Y120.208 E6.16044
G1 X113.044 Y120.073 E6.18103
G1 F2008.9 X113.56 Y119.902 E6.20312
G1 X114.023 Y119.723 E6.22328
G1 X114.505 Y119.508 E6.24473
G1 X114.977 Y119.27 E6.2662
G1 F2003.1 X115.415 Y119.02 E6.28675
G1 F1997.4 X115.841 Y118.751 E6.30734
G1 F2003.1 X116.265 Y118.454 E6.32843
G1 F2008.9 X116.69 Y118.122 E6.35034
G1 X117.085 Y117.776 E6.37167
G1 X117.445 Y117.434 E6.39185
G1 X117.793 Y117.069 E6.41234
G1 F2003.1 X118.151 Y116.653 E6.4347
G1 F2008.9 X118.466 Y116.249 E6.45551
G1 F2003.1 X118.756 Y115.836 E6.47607
G1 X119.028 Y115.405 E6.49684
G1 X119.286 Y114.949 E6.51818
G1 X119.525 Y114.468 E6.54007
G1 X119.726 Y114.014 E6.5603
G1 X119.907 Y113.546 E6.58074
G1 X120.074 Y113.041 E6.60241
G1 X120.199 Y112.585 E6.62168
G1 F2008.9 X120.327 Y112.021 E6.64517
G1 X120.411 Y111.531 E6.66537
G1 F2003.1 X120.475 Y111.013 E6.68664
G1 F2008.9 X120.51 Y110.496 E6.70769
G1 F2014.6 X120.525 Y109.987 E6.72832
G1 F2008.9 X120.508 Y109.451 E6.7501
G1 X120.471 Y108.956 E6.77027
G1 F2003.1 X120.407 Y108.441 E6.79142
G1 X120.319 Y107.932 E6.81246
G1 F1997.4 X120.201 Y107.416 E6.83409
G1 X120.073 Y106.947 E6.85395
G1 F2003.1 X119.904 Y106.442 E6.87565
G1 X119.709 Y105.943 E6.89748
G1 X119.506 Y105.485 E6.91789
G1 X119.282 Y105.04 E6.93819
G1 X119.02 Y104.577 E6.95986
G1 F1997.4 X118.748 Y104.15 E6.98055
G1 F2003.1 X118.43 Y103.702 E7.00294
G1 F2008.9 X118.125 Y103.314 E7.02299
G1 X117.793 Y102.926 E7.04373
G1 F2003.1 X117.434 Y102.548 E7.06497
G1 X117.054 Y102.19 E7.08624
G1 F2008.9 X116.669 Y101.858 E7.1069
G1 X116.262 Y101.54 E7.12788
G1 F2003.1 X115.838 Y101.245 E7.14893
G1 F1997.4 X115.415 Y100.975 E7.16943
G1 F2003.1 X114.953 Y100.713 E7.19107
G1 X114.505 Y100.486 E7.21153
G1 X114.01 Y100.269 E7.23356
G1 F2008.9 X113.551 Y100.092 E7.25354
G1 F2014.6 X113.044 Y99.925 E7.27517
G1 F2008.9 X112.54 Y99.785 E7.29642
G1 F2003.1 X112.056 Y99.678 E7.31661
G1 F2008.9 X111.52 Y99.587 E7.3387
G1 X111.033 Y99.524 E7.35865
G1 X110.494 Y99.487 E7.3806
G1 X110.001 Y99.475 E7.40064
G1 X109.487 Y99.488 E7.42153
G1 X108.93 Y99.528 E7.44421
G1 F2003.1 X108.441 Y99.59 E7.4643
G1 X107.928 Y99.679 E7.48551
G1 F2008.9 X107.441 Y99.79 E7.5058
G1 X106.921 Y99.934 E7.52772
G1 F2003.1 X106.433 Y100.096 E7.54867
G1 F1997.4 X105.972 Y100.275 E7.56888
G1 F2008.9 X105.491 Y100.489 E7.59027
G1 X105.019 Y100.728 E7.61176
G1 F2003.1 X104.574 Y100.981 E7.63262
G1 F1997.4 X104.155 Y101.245 E7.65286
G1 F2003.1 X103.735 Y101.541 E7.67379
G1 X103.31 Y101.875 E7.69581
G1 F2008.9 X102.911 Y102.219 E7.71722
G1 F2014.6 X102.551 Y102.561 E7.73733
G1 X102.192 Y102.942 E7.75854
G1 F2003.1 X101.844 Y103.344 E7.7802
G1 X101.535 Y103.741 E7.8007
G1 X101.239 Y104.166 E7.8218
G1 X100.968 Y104.591 E7.84234
G1 X100.714 Y105.045 E7.86354
G1 F2008.9 X100.472 Y105.526 E7.88541
G1 X100.27 Y105.984 E7.90575
G1 X100.092 Y106.448 E7.92594
G1 F2014.6 X99.919 Y106.976 E7.94845
G1 F2008.9 X99.786 Y107.458 E7.96876
G1 F2003.1 X99.676 Y107.941 E7.98894
G1 X99.585 Y108.464 E8.01057
G1 F2008.9 X99.523 Y108.984 E8.03185
G1 X99.487 Y109.499 E8.05282
G1 F2003.1 X99.475 Y110.008 E8.07357
G1 X99.486 Y110.503 E8.09374
G1 X99.527 Y111.055 E8.11629
G1 X99.586 Y111.54 E8.1362
G1 X99.669 Y112.02 E8.15605
G1 X99.787 Y112.553 E8.17829
G1 X99.932 Y113.065 E8.19997
G1 F2008.9 X100.095 Y113.557 E8.22103
G1 F2003.1 X100.284 Y114.048 E8.24246
G1 X100.491 Y114.513 E8.2632
G1 F2008.9 X100.716 Y114.957 E8.28342
G1 X100.973 Y115.414 E8.30472
G1 F2003.1 X101.245 Y115.844 E8.32546
G1 F1997.4 X101.541 Y116.264 E8.34645
G1 F2003.1 X101.859 Y116.67 E8.36746
G1 X102.202 Y117.069 E8.3889
G1 F1997.4 X102.573 Y117.459 E8.41089
G1 F2003.1 X102.942 Y117.806 E8.43153
G1 X103.313 Y118.128 E8.45155
G1 F2008.9 X103.749 Y118.467 E8.47399
G1 F2003.1 X104.172 Y118.762 E8.495
G1 F1997.4 X104.584 Y119.023 E8.51492
G1 F2003.1 X105.043 Y119.283 E8.53642
G1 F2008.9 X105.521 Y119.521 E8.55811
G1 F2003.1 X105.98 Y119.726 E8.57859
G1 X106.482 Y119.916 E8.60046
G1 F2014.6 X106.952 Y120.071 E8.62051
G1 F2008.9 X107.455 Y120.209 E8.6417
G1 F2003.1 X107.939 Y120.32 E8.66193
G1 X108.484 Y120.415 E8.68447
G1 X108.987 Y120.474 E8.70511
G1 F2008.9 X109.489 Y120.51 E8.72556
G1 X110.001 Y120.525 E8.74637
G0 F9000 X109.996 Y120.175
G1 F2008.9 X109.484 Y120.161 E8.76718
G1 X108.986 Y120.123 E8.78747
G1 F2003.1 X108.497 Y120.063 E8.80754
G1 X108.007 Y119.978 E8.8278
G1 X107.509 Y119.864 E8.84862
G1 F2008.9 X107.032 Y119.733 E8.86871
G1 X106.563 Y119.574 E8.88883
G1 F2003.1 X106.086 Y119.39 E8.90966
G1 X105.643 Y119.193 E8.92942
G1 F2008.9 X105.203 Y118.974 E8.94939
G1 X104.785 Y118.736 E8.96893
G1 F2003.1 X104.34 Y118.453 E8.99041
G1 X103.922 Y118.162 E9.01117
G1 X103.537 Y117.861 E9.03108
G1 X103.151 Y117.525 E9.05193
G1 X102.795 Y117.185 E9.07199
G1 F1997.4 X102.46 Y116.833 E9.09184
G1 F2003.1 X102.116 Y116.435 E9.11327
G1 X101.822 Y116.054 E9.13288
G1 F1997.4 X101.536 Y115.648 E9.15317
G1 F2003.1 X101.259 Y115.211 E9.17425
G1 F2008.9 X101.015 Y114.775 E9.19455
G1 F2014.6 X100.801 Y114.352 E9.21376
G1 F2008.9 X100.597 Y113.89 E9.23428
G1 F2003.1 X100.42 Y113.433 E9.25424
G1 F2008.9 X100.254 Y112.929 E9.2758
G1 X100.133 Y112.493 E9.29418
G1 F2003.1 X100.013 Y111.962 E9.31636
G1 X99.929 Y111.47 E9.3367
G1 X99.87 Y110.984 E9.35665
G1 X99.837 Y110.487 E9.37694
G1 X99.825 Y110.023 E9.39585
G1 X99.838 Y109.48 E9.41798
G1 F2008.9 X99.871 Y109.004 E9.43737
G1 X99.933 Y108.497 E9.45812
G1 F2003.1 X100.018 Y108.009 E9.4783
G1 X100.126 Y107.534 E9.49815
G1 F2008.9 X100.258 Y107.053 E9.51841
G1 F2014.6 X100.42 Y106.565 E9.53924
G1 F2008.9 X100.607 Y106.083 E9.56025
G1 X100.801 Y105.643 E9.57978
G1 X101.022 Y105.207 E9.59964
G1 F2003.1 X101.273 Y104.764 E9.62039
G1 X101.533 Y104.353 E9.6402
G1 X101.821 Y103.941 E9.66068
G1 X102.135 Y103.541 E9.6814
G1 F2008.9 X102.473 Y103.15 E9.7024
G1 F2014.6 X102.8 Y102.803 E9.72172
G1 X103.17 Y102.456 E9.74227
G1 F2008.9 X103.556 Y102.124 E9.76295
G1 F2003.1 X103.942 Y101.821 E9.78294
G1 X104.348 Y101.537 E9.80313
G1 F1997.4 X104.766 Y101.273 E9.82333
G1 X105.209 Y101.022 E9.84414
G1 F2008.9 X105.652 Y100.796 E9.86434
G1 F2003.1 X106.112 Y100.598 E9.88475
G1 F1997.4 X106.586 Y100.414 E9.90552
G1 F2003.1 X107.057 Y100.258 E9.92574
G1 F2008.9 X107.501 Y100.134 E9.94447
G1 F2014.6 X108.038 Y100.013 E9.96677
G1 F2003.1 X108.513 Y99.934 E9.98639
G1 X109.008 Y99.871 E10.00672
G1 F2008.9 X109.503 Y99.837 E10.02687
G1 X110.011 Y99.825 E10.04752
G1 X110.512 Y99.837 E10.06788
G1 X111.02 Y99.874 E10.08857
G1 X111.494 Y99.936 E10.10799
G1 X111.954 Y100.013 E10.12694
G1 X112.487 Y100.132 E10.14913
G1 X112.948 Y100.258 E10.16855
G1 F2014.6 X113.433 Y100.421 E10.18927
G1 F2008.9 X113.91 Y100.606 E10.21006
G1 F2003.1 X114.356 Y100.804 E10.22994
G1 X114.806 Y101.03 E10.25046
G1 F2008.9 X115.211 Y101.26 E10.26938
G1 F2003.1 X115.651 Y101.542 E10.29067
G1 X116.06 Y101.825 E10.31094
G1 F2008.9 X116.457 Y102.134 E10.33138
G1 X116.845 Y102.471 E10.35226
G1 F2003.1 X117.182 Y102.79 E10.37116
G1 X117.535 Y103.162 E10.39206
G1 F2008.9 X117.876 Y103.561 E10.41338
G1 X118.167 Y103.931 E10.4325
G1 F2003.1 X118.463 Y104.353 E10.45351
G1 F1997.4 X118.736 Y104.786 E10.47442
G1 F2003.1 X118.974 Y105.204 E10.49402
G1 X119.206 Y105.667 E10.51512
G1 X119.401 Y106.11 E10.53484
G1 X119.579 Y106.568 E10.55486
