; HEADER_BLOCK_START
; generated by OrcaSlicer 2.0.0 on 2024-05-24 at 15:45:13
; total layer number: 36
; filament_density: 1.24
; filament_diameter: 1.75
; max_z_height: 10.08
; HEADER_BLOCK_END

; THUMBNAIL_BLOCK_START

;
; THUMBNAIL_BLOCK_END

; THUMBNAIL_BLOCK_START

;
; THUMBNAIL_BLOCK_END

; external perimeters extrusion width = 0.40mm
; perimeters extrusion width = 0.40mm
; infill extrusion width = 0.40mm
; solid infill extrusion width = 0.40mm
; top infill extrusion width = 0.40mm
; first layer extrusion width = 0.40mm

; EXECUTABLE_BLOCK_START
M73 P0 R7
M201 X5000 Y5000 Z500 E5000
M203 X500 Y500 Z30 E100
M204 P5000 R2500 T5000 ; sets acceleration (P, T) and retract acceleration (R), mm/sec^2
M205 X10.00 Y10.00 Z0.40 E5.00 ; sets the jerk limits, mm/sec
;TYPE:Custom
M220 S100 ;Reset Feedrate 
M221 S100 ;Reset Flowrate 
 
M140 S55 ;Set final bed temp 
G28 ;Home 
M420 S1; Enable mesh leveling 
G92 E0 ;Reset Extruder 
G1 Z2.0 F3000 ;Move Z Axis up 
M104 S220 ;Set final nozzle temp 
G1 X-2.1 Y20 Z0.28 F5000.0 ;Move to start position 
M190 S55 ;Wait for bed temp to stabilize 
M109 S220 ;Wait for nozzle temp to stabilize 
G1 X-2.1 Y145.0 Z0.28 F1500.0 E15 ;Draw the first line 
G1 X-2.4 Y145.0 Z0.28 F5000.0 ;Move to side a little 
M73 P1 R6
G1 X-2.4 Y20 Z0.28 F1500.0 E30 ;Draw the second line 
G92 E0  ;Reset Extruder 
G1 E-1.0000 F1800 ;Retract a bit 
M73 P2 R6
G1 Z2.0 F3000 ;Move Z Axis up 
G1 E0.0000 F1800
G90
G21
M83 ; use relative distances for extrusion
; filament start gcode
M106 P3 S255


M106 S0
;LAYER_CHANGE
;Z:0.28
;HEIGHT:0.28
;BEFORE_LAYER_CHANGE
;0.28
G92 E0

G1 E-1.2 F1800
;_SET_FAN_SPEED_CHANGING_LAYER
M204 P500
; printing object test_16.stl id:102726634169920 copy 0
M204 T500
G1 Z.4 F30000
G1 X89.485 Y119.693
G1 Z.4
G1 Z.28
G1 E1.2 F1800
;TYPE:Inner wall
;WIDTH:0.4
G1 F3000
G1 X89.033 Y118.685 E.0437
G3 X93.956 Y93.956 I20.96 J-8.682 E1.05788
G3 X109.613 Y87.319 I16.028 J16.027 E.68978
G3 X89.496 Y119.73 I.379 J22.684 E3.84753
M73 P3 R6
G1 X89.968 Y119.897 F30000
;TYPE:Outer wall
G1 F3000
G1 X89.791 Y119.558 E.01513
G3 X94.196 Y94.196 I20.201 J-9.555 E1.08545
G3 X109.622 Y87.659 I15.788 J15.787 E.67955
G3 X90.285 Y120.538 I.371 J22.344 E3.7475
G1 X89.985 Y119.933 E.02671
M73 P4 R6
G1 E-.84 F1800
;WIPE_START
G1 F3000
G1 X89.791 Y119.558 E-.15206
G1 X89.56 Y119.029 E-.20794
;WIPE_END
G1 Z.68 F30000
G1 X87.163 Y104.609 Z.68
G1 Z.28
G1 E1.2 F1800
;TYPE:Inner wall
G1 F3000
G1 X87.23 Y104.296 E.01265
G3 X96.019 Y91.149 I22.762 J5.705 E.63827
G3 X111.152 Y86.558 I13.996 J18.901 E.63816
G1 X111.637 Y86.594 E.01925
G1 X111.637 Y87.035 E.01744
G2 X128.498 Y96.281 I-1.63 J22.969 E4.93994
G2 X115.03 Y87.533 I-18.519 J13.769 E.64905
M73 P5 R6
G1 X115.03 Y87.082 E.01783
G3 X86.977 Y105.42 I-5.038 J22.919 E4.35721
G1 X87.155 Y104.648 E.03136
G1 X86.803 Y104.663 F30000
G1 F3000
G1 X86.9 Y104.214 E.01818
G3 X111.168 Y86.219 I23.093 J5.782 E1.29508
G1 X111.977 Y86.278 E.03208
G1 X111.977 Y86.563 E.01126
G3 X114.69 Y86.96 I-2.683 J27.813 E.10854
G1 X114.69 Y86.658 E.01195
G3 X86.644 Y105.354 I-4.697 J23.338 E4.43679
G1 X86.794 Y104.702 E.02648
M73 P6 R6
G1 X86.384 Y104.979 F30000
;TYPE:Outer wall
G1 F3000
G1 X86.57 Y104.131 E.03434
G3 X95.614 Y90.603 I23.422 J5.87 E.65676
G3 X111.185 Y85.879 I14.401 J19.448 E.65665
G1 X112.317 Y85.963 E.0449
G1 X112.317 Y86.262 E.01186
G3 X114.35 Y86.556 I-1.97 J20.843 E.08132
G1 X114.35 Y86.251 E.01204
G3 X86.31 Y105.288 I-4.358 J23.75 E4.51681
G1 X86.374 Y105.018 E.01099
M73 P7 R6
G1 E-.84 F1800
;WIPE_START
G1 F3000
G1 X86.57 Y104.131 E-.32682
G1 X86.595 Y104.042 E-.03318
;WIPE_END
G1 Z.68 F30000
G1 X111.467 Y86.802
G1 Z.68
G1 Z.28
G1 E1.2 F1800
;TYPE:Gap infill
;WIDTH:0.159769
G1 F3000
G1 X111.139 Y86.778 E.00381
G2 X115.648 Y87.446 I-1.139 J23.219 E1.6419
G1 X115.2 Y87.346 E.00533
M73 P8 R6
G1 X114.86 Y87.414 F30000
;WIDTH:0.540375
G1 F3000
G1 X114.512 Y87.345 E.01981
G2 X111.807 Y86.966 I-4.723 J23.878 E.15283
; stop printing object test_16.stl id:102726634169920 copy 0
M106 S255
;LAYER_CHANGE
;Z:0.56
;HEIGHT:0.28
;BEFORE_LAYER_CHANGE
;0.56
G92 E0

G1 E-.84 F1800
;WIPE_START
G1 F3000
G1 X112.8 Y87.082 E-.36
;WIPE_END
;_SET_FAN_SPEED_CHANGING_LAYER
M204 P5000
; printing object test_16.stl id:102726634169920 copy 0
M204 T5000
G1 Z.68 F30000
G1 X89.252 Y119.636 Z.68
G1 Z.56
G1 E1.2 F1800
;TYPE:Inner wall
;WIDTH:0.4
G1 F7564.994
G1 X88.866 Y118.754 E.0381
G3 X107.757 Y87.23 I21.134 J-8.758 E1.68864
G1 X108.877 Y87.147 E.04444
G3 X89.321 Y119.78 I1.122 J22.849 E3.9101
G1 X89.269 Y119.672 E.00474
G1 X89.58 Y119.537 F30000
G1 F7564.994
G1 X89.18 Y118.624 E.03944
G3 X107.791 Y87.568 I20.82 J-8.627 E1.66354
G1 X108.894 Y87.487 E.04378
G3 X89.628 Y119.635 I1.106 J22.51 E3.852
G1 X89.597 Y119.573 E.00275
G1 X90.058 Y119.744 F30000
;TYPE:Outer wall
G1 F7564.994
G1 X89.935 Y119.49 E.01116
G3 X107.824 Y87.907 I20.064 J-9.493 E1.68156
G1 X108.911 Y87.827 E.04312
G3 X90.425 Y120.463 I1.089 J22.17 E3.75078
G1 X90.076 Y119.779 E.03036
M73 P9 R6
G1 E-.96206 F1800
;WIPE_START
G1 F7564.994
G1 X89.935 Y119.49 E-.07664
G1 X89.658 Y118.871 E-.1613
;WIPE_END
G1 Z.96 F30000
G1 X86.972 Y104.778 Z.96
G1 Z.56
G1 E1.2 F1800
;TYPE:Inner wall
G1 F7564.994
G1 X87.095 Y104.263 E.02096
G3 X110.077 Y86.382 I22.911 J5.738 E1.24151
G3 X111.787 Y86.455 I.113 J17.433 E.06773
G1 X111.787 Y86.731 E.01092
G3 X114.88 Y87.185 I-3.081 J31.709 E.12375
G1 X114.88 Y86.895 E.0115
G3 X114.88 Y133.105 I-4.873 J23.105 E2.54693
G1 X114.88 Y132.815 E.0115
G3 X111.787 Y133.269 I-6.174 J-31.253 E.12375
G1 X111.787 Y133.545 E.01092
G3 X108.435 Y133.561 I-1.768 J-19.685 E.13278
G1 X108.435 Y133.297 E.01046
G1 X106.578 Y133.068 E.07404
G1 X105.342 Y132.853 E.04963
G1 X105.342 Y133.155 E.01194
G3 X86.841 Y105.393 I4.664 J-23.154 E1.46578
G1 X86.964 Y104.817 E.02332
G1 X86.625 Y104.769 F30000
G1 F7564.994
G1 X86.758 Y104.178 E.02397
G3 X110.086 Y86.042 I23.238 J5.819 E1.25991
G3 X112.127 Y86.139 I.034 J20.819 E.08088
G1 X112.127 Y86.43 E.01152
G3 X114.54 Y86.782 I-2.368 J24.738 E.09653
G1 X114.54 Y86.477 E.01204
G1 X114.674 Y86.5 E.0054
G3 X115.822 Y133.242 I-4.684 J23.5 E2.55912
G1 X114.54 Y133.523 E.05193
G1 X114.54 Y133.218 E.01204
G3 X112.127 Y133.57 I-4.781 J-24.386 E.09653
G1 X112.127 Y133.861 E.01152
G3 X108.095 Y133.876 I-2.098 J-21.96 E.15974
G1 X108.095 Y133.597 E.01104
G1 X106.528 Y133.404 E.06248
G1 X105.682 Y133.257 E.03398
G1 X105.682 Y133.561 E.01204
G3 X86.501 Y105.326 I4.314 J-23.564 E1.50338
G1 X86.617 Y104.808 E.02098
G1 X86.206 Y105.085 F30000
;TYPE:Outer wall
G1 F7564.994
G1 X86.429 Y104.096 E.04013
G3 X110.094 Y85.702 I23.567 J5.902 E1.27807
G3 X112.467 Y85.828 I-.461 J31.288 E.09403
G1 X112.467 Y86.13 E.01196
G3 X114.2 Y86.378 I-1.656 J17.767 E.06931
G1 X114.2 Y86.073 E.01204
G3 X114.2 Y133.927 I-4.191 J23.927 E2.68629
G1 X114.2 Y133.622 E.01204
M73 P10 R6
G3 X112.467 Y133.87 I-3.389 J-17.519 E.06931
G1 X112.467 Y134.172 E.01196
G1 X112.382 Y134.183 E.00338
G3 X107.756 Y134.191 I-2.356 J-23.833 E.18334
G1 X107.756 Y133.898 E.01162
G3 X106.022 Y133.661 I1.542 J-17.755 E.06925
G1 X106.022 Y133.965 E.01204
G3 X86.167 Y105.259 I3.974 J-23.968 E1.54081
G1 X86.197 Y105.124 E.00548
G1 E-.96206 F1800
;WIPE_START
G1 F7564.994
G1 X86.417 Y104.149 E-.23794
;WIPE_END
G1 Z.96 F30000
G1 X110.955 Y86.574
G1 Z.96
G1 Z.56
G1 E1.2 F1800
;TYPE:Gap infill
;WIDTH:0.268092
G1 F12362.421
G1 X111.173 Y86.698 E.00608
;WIDTH:0.249117
G1 F13603.394
G1 X111.391 Y86.822 E.00552
;WIDTH:0.211167
G1 F15000
G1 X111.609 Y86.947 E.00441
;WIDTH:0.165025
G1 X113.389 Y87.15 E.02189
G1 X115.039 Y87.45 E.02048
;WIDTH:0.21117
G1 X115.186 Y87.397 E.00275
;WIDTH:0.260466
G1 F12832.906
G1 X115.334 Y87.343 E.00365
;WIDTH:0.309763
G1 F10299.141
G1 X115.481 Y87.29 E.00455
;WIDTH:0.359059
G1 F8600.945
G1 X115.628 Y87.237 E.00545
G1 X115.05 Y87.312 F30000
;WIDTH:0.459781
G1 F6433.517
G1 X115.649 Y87.447 E.02859
G1 X116.749 Y87.751 E.0531
G1 X117.833 Y88.109 E.0531
G1 X118.897 Y88.52 E.0531
G1 X119.945 Y88.984 E.05332
G1 X120.96 Y89.495 E.05287
G1 X121.953 Y90.058 E.0531
G1 X122.917 Y90.668 E.0531
G1 X123.846 Y91.323 E.05287
G1 X124.753 Y92.031 E.05355
G1 X125.614 Y92.773 E.05287
G1 X126.44 Y93.56 E.0531
G1 X127.227 Y94.386 E.0531
G1 X127.972 Y95.25 E.0531
G1 X128.675 Y96.15 E.0531
G1 X129.329 Y97.079 E.05287
G1 X129.945 Y98.051 E.05356
G1 X130.505 Y99.04 E.05287
G1 X131.018 Y100.059 E.05309
G1 X131.48 Y101.103 E.0531
G1 X131.891 Y102.167 E.0531
G1 X132.249 Y103.251 E.0531
G1 X132.553 Y104.351 E.0531
G1 X132.803 Y105.464 E.05309
G1 X132.998 Y106.584 E.05287
G1 X133.138 Y107.726 E.05355
G1 X133.222 Y108.859 E.05287
G1 X133.25 Y110 E.0531
G1 X133.222 Y111.141 E.0531
G1 X133.138 Y112.279 E.0531
G1 X132.998 Y113.411 E.0531
G1 X132.804 Y114.531 E.05287
G1 X132.552 Y115.654 E.05355
G1 X132.249 Y116.749 E.05287
G1 X131.891 Y117.833 E.0531
G1 X131.48 Y118.897 E.05309
G1 X131.018 Y119.941 E.0531
G1 X130.505 Y120.96 E.0531
G1 X129.945 Y121.949 E.05287
G1 X129.329 Y122.921 E.05355
G1 X128.675 Y123.85 E.05287
G1 X127.972 Y124.75 E.0531
G1 X127.227 Y125.614 E.0531
G1 X126.44 Y126.44 E.0531
G1 X125.614 Y127.227 E.0531
G1 X124.753 Y127.969 E.05287
G1 X123.846 Y128.677 E.05355
G1 X122.917 Y129.332 E.05287
G1 X121.953 Y129.942 E.0531
G1 X120.96 Y130.505 E.0531
G1 X119.945 Y131.016 E.05287
G1 X118.897 Y131.48 E.05333
G1 X117.833 Y131.891 E.05309
G1 X116.749 Y132.249 E.0531
G1 X115.649 Y132.553 E.0531
G1 X115.05 Y132.688 E.02859
G1 X115.628 Y132.763 F30000
;WIDTH:0.359055
G1 F8601.069
G1 X115.481 Y132.71 E.00545
;WIDTH:0.309759
G1 F10299.291
G1 X115.334 Y132.657 E.00455
;WIDTH:0.260463
G1 F12833.096
G1 X115.186 Y132.603 E.00365
;WIDTH:0.211168
G1 F15000
G1 X115.039 Y132.55 E.00275
;WIDTH:0.165025
G1 X113.389 Y132.85 E.02048
G1 X111.609 Y133.053 E.02189
;WIDTH:0.211167
G1 X111.391 Y133.178 E.00441
;WIDTH:0.249117
G1 F13603.379
G1 X111.173 Y133.302 E.00552
;WIDTH:0.268092
G1 F12362.414
G1 X110.955 Y133.426 E.00608
G1 X111.617 Y133.187 F30000
;WIDTH:0.459776
G1 F6433.604
G1 X111.141 Y133.222 E.02221
G1 X110 Y133.25 E.0531
G1 X108.605 Y133.203 E.06493
G1 X109.238 Y133.431 F30000
;WIDTH:0.305956
G1 F10458.587
G1 X109.03 Y133.313 E.00685
;WIDTH:0.264848
G1 F12558.308
G1 X108.822 Y133.194 E.00571
;WIDTH:0.223739
G1 F15000
G1 X108.614 Y133.075 E.00456
;WIDTH:0.166093
G1 X107.735 Y132.989 E.01091
G1 X106.611 Y132.85 E.01398
G1 X105.182 Y132.594 E.0179
;WIDTH:0.197912
G1 X105.033 Y132.648 E.00255
;WIDTH:0.242883
G1 F14067.296
G1 X104.883 Y132.702 E.00339
;WIDTH:0.287854
G1 F11289.793
G1 X104.733 Y132.756 E.00422
;WIDTH:0.31034
G1 F10275.384
G1 X104.584 Y132.81 E.00464
G1 X105.172 Y132.738 F30000
;WIDTH:0.459784
G1 F6433.475
G3 X109.958 Y86.751 I4.824 J-22.74 E3.17012
G1 X111.141 Y86.778 E.05504
G1 X111.617 Y86.813 E.02221
; stop printing object test_16.stl id:102726634169920 copy 0
;LAYER_CHANGE
;Z:0.84
;HEIGHT:0.28
;BEFORE_LAYER_CHANGE
;0.84
G92 E0

G1 E-.92021 F1800
;WIPE_START
G1 F6433.475
G1 X111.141 Y86.778 E-.13356
G1 X110.618 Y86.766 E-.14623
;WIPE_END
;_SET_FAN_SPEED_CHANGING_LAYER
; printing object test_16.stl id:102726634169920 copy 0
G1 Z.96 F30000
G1 X89.173 Y119.458 Z.96
G1 Z.84
G1 E1.2 F1800
;TYPE:Inner wall
;WIDTH:0.4
G1 F7564.994
G1 X88.867 Y118.754 E.0304
G3 X109.903 Y87.122 I21.138 J-8.753 E1.77336
G1 X110 Y87.12 E.00385
G3 X111.123 Y132.853 I-.007 J22.88 E2.79926
G3 X89.322 Y119.78 I-1.117 J-22.852 E1.06644
M73 P11 R6
G1 X89.19 Y119.495 E.01244
G1 X89.503 Y119.365 F30000
G1 F7564.994
G1 X89.181 Y118.623 E.03199
G3 X109.911 Y87.462 I20.824 J-8.623 E1.74729
G1 X110 Y87.46 E.00352
G3 X111.106 Y132.513 I-.007 J22.54 E2.75766
G3 X89.629 Y119.635 I-1.1 J-22.512 E1.05059
G1 X89.52 Y119.401 E.01019
G1 X89.974 Y119.576 F30000
;TYPE:Outer wall
G1 F7564.994
G1 X89.937 Y119.489 E.00372
G3 X109.92 Y87.802 I20.069 J-9.488 E1.76432
G1 X110 Y87.8 E.00319
G3 X111.089 Y132.173 I-.007 J22.2 E2.71606
G3 X90.426 Y120.462 I-1.084 J-22.173 E.99163
G1 X89.992 Y119.611 E.03781
G1 E-.96206 F1800
;WIPE_START
G1 F7564.994
G1 X89.937 Y119.489 E-.03188
G1 X89.581 Y118.699 E-.20606
;WIPE_END
G1 Z1.24 F30000
G1 X86.957 Y104.844 Z1.24
G1 Z.84
G1 E1.2 F1800
;TYPE:Inner wall
G1 F7564.994
G1 X87.095 Y104.263 E.02365
G3 X110.144 Y86.384 I22.91 J5.739 E1.24409
G3 X111.787 Y86.455 I.097 J16.76 E.06511
G1 X111.787 Y86.731 E.01092
G3 X114.88 Y87.185 I-3.081 J31.709 E.12375
G1 X114.88 Y86.895 E.0115
G3 X114.88 Y133.105 I-4.873 J23.105 E2.54693
G1 X114.88 Y132.815 E.0115
G3 X111.787 Y133.269 I-6.174 J-31.255 E.12375
G1 X111.787 Y133.545 E.01092
G3 X108.435 Y133.561 I-1.768 J-19.685 E.13278
G1 X108.435 Y133.297 E.01046
G1 X106.578 Y133.068 E.07404
G1 X105.342 Y132.853 E.04963
G1 X105.342 Y133.155 E.01194
G3 X86.841 Y105.393 I4.663 J-23.153 E1.46579
G1 X86.949 Y104.883 E.02063
M73 P12 R6
G1 X86.611 Y104.835 F30000
G1 F7564.994
G1 X86.758 Y104.178 E.02664
G3 X110.152 Y86.044 I23.237 J5.82 E1.2625
G3 X112.127 Y86.139 I.018 J20.146 E.07827
G1 X112.127 Y86.43 E.01152
G3 X114.54 Y86.782 I-2.368 J24.738 E.09653
G1 X114.54 Y86.477 E.01204
G1 X114.674 Y86.5 E.0054
G3 X115.822 Y133.242 I-4.684 J23.5 E2.55912
G1 X114.54 Y133.523 E.05193
G1 X114.54 Y133.218 E.01204
G3 X112.127 Y133.57 I-4.782 J-24.387 E.09653
G1 X112.127 Y133.861 E.01152
G3 X108.095 Y133.876 I-2.098 J-21.96 E.15974
G1 X108.095 Y133.597 E.01104
G1 X106.528 Y133.404 E.06248
G1 X105.682 Y133.257 E.03398
G1 X105.682 Y133.561 E.01204
G3 X86.501 Y105.326 I4.313 J-23.563 E1.5034
G1 X86.602 Y104.874 E.01831
G1 X86.191 Y105.151 F30000
;TYPE:Outer wall
G1 F7564.994
G1 X86.428 Y104.096 E.0428
G3 X110.16 Y85.704 I23.567 J5.902 E1.28066
G3 X112.467 Y85.828 I-.503 J30.989 E.09142
G1 X112.467 Y86.13 E.01196
G3 X114.2 Y86.378 I-1.656 J17.767 E.06931
G1 X114.2 Y86.073 E.01204
G3 X114.741 Y133.833 I-4.204 J23.931 E2.66421
G1 X114.2 Y133.927 E.02171
G1 X114.2 Y133.622 E.01204
G3 X112.467 Y133.87 I-3.389 J-17.519 E.06931
G1 X112.467 Y134.172 E.01196
G1 X112.382 Y134.183 E.00338
G3 X107.756 Y134.191 I-2.356 J-23.832 E.18334
G1 X107.756 Y133.898 E.01162
G3 X106.022 Y133.661 I1.542 J-17.756 E.06925
G1 X106.022 Y133.965 E.01204
G3 X86.167 Y105.259 I3.973 J-23.967 E1.54084
G1 X86.183 Y105.19 E.00281
G1 E-.96206 F1800
;WIPE_START
G1 F7564.994
G1 X86.402 Y104.214 E-.23794
;WIPE_END
G1 Z1.24 F30000
G1 X110.955 Y86.574
G1 Z1.24
G1 Z.84
G1 E1.2 F1800
;TYPE:Gap infill
;WIDTH:0.268092
G1 F12362.419
G1 X111.173 Y86.698 E.00608
;WIDTH:0.249117
G1 F13603.389
G1 X111.391 Y86.822 E.00552
;WIDTH:0.211167
G1 F15000
G1 X111.609 Y86.947 E.00441
;WIDTH:0.165025
G1 X113.389 Y87.15 E.02189
G1 X115.039 Y87.45 E.02048
;WIDTH:0.21117
G1 X115.186 Y87.397 E.00275
;WIDTH:0.260466
G1 F12832.906
G1 X115.334 Y87.343 E.00365
;WIDTH:0.309763
G1 F10299.141
G1 X115.481 Y87.29 E.00455
;WIDTH:0.359059
G1 F8600.945
G1 X115.628 Y87.237 E.00545
G1 X115.05 Y87.312 F30000
;WIDTH:0.459781
G1 F6433.517
G1 X115.649 Y87.447 E.02859
G1 X116.749 Y87.751 E.0531
G1 X117.833 Y88.109 E.0531
G1 X118.897 Y88.52 E.0531
G1 X119.945 Y88.984 E.05332
G1 X120.96 Y89.495 E.05287
G1 X121.953 Y90.058 E.0531
G1 X122.917 Y90.668 E.0531
G1 X123.846 Y91.323 E.05287
G1 X124.753 Y92.031 E.05355
G1 X125.614 Y92.773 E.05287
G1 X126.44 Y93.56 E.0531
G1 X127.227 Y94.386 E.05309
G1 X127.972 Y95.25 E.0531
G1 X128.675 Y96.15 E.05309
G1 X129.329 Y97.079 E.05287
G1 X129.945 Y98.051 E.05355
G1 X130.505 Y99.04 E.05287
G1 X131.018 Y100.059 E.0531
G1 X131.48 Y101.103 E.0531
G1 X131.891 Y102.167 E.0531
G1 X132.249 Y103.251 E.0531
G1 X132.553 Y104.351 E.0531
G1 X132.803 Y105.464 E.05309
G1 X132.998 Y106.584 E.05287
G1 X133.138 Y107.726 E.05355
G1 X133.222 Y108.859 E.05287
G1 X133.25 Y110 E.0531
G1 X133.222 Y111.141 E.0531
G1 X133.138 Y112.279 E.0531
G1 X132.998 Y113.411 E.0531
G1 X132.804 Y114.531 E.05287
G1 X132.552 Y115.654 E.05355
G1 X132.249 Y116.749 E.05287
G1 X131.891 Y117.833 E.0531
G1 X131.48 Y118.897 E.05309
G1 X131.018 Y119.941 E.0531
G1 X130.505 Y120.96 E.05309
G1 X129.945 Y121.949 E.05287
G1 X129.329 Y122.921 E.05355
G1 X128.675 Y123.85 E.05287
G1 X127.972 Y124.75 E.05309
G1 X127.227 Y125.614 E.0531
G1 X126.44 Y126.44 E.0531
G1 X125.614 Y127.227 E.0531
G1 X124.753 Y127.969 E.05287
G1 X123.846 Y128.677 E.05355
