;FLAVOR:Marlin
;TIME:236
;Filament used: 0.781233m
;Layer height: 0.28
;MINX:85.2
;MINY:85.201
;MINZ:0.28
;MAXX:134.799
;MAXY:134.8
;MAXZ:5.04
;TARGET_MACHINE.NAME:Creality Ender-3 V3 SE
;Generated with Cura_SteamEngine 5.7.1
M82 ;absolute extrusion mode
M220 S100 ;Reset Feedrate
M221 S100 ;Reset Flowrate

G28 ;Home

M420 S1; Use saved mesh leveling data

G92 E0 ;Reset Extruder
G1 Z2.0 F3000 ;Move Z Axis up
G1 X-3 Y20 Z0.28 F5000.0 ;Move to start position
M190 S50 ; Set bed temperature and wait
M109 S205 ; Set hotend temperature and wait
G1 X-3 Y100.0 Z0.28 F1500.0 E15 ;Draw the first line
G1 X-2 Y100.0 Z0.28 F5000.0 ;Move to side a little
G1 X-2 Y20 Z0.28 F1500.0 E30 ;Draw the second line
G92 E0 ;Reset Extruder
G1 E-1.0000 F1800 ;Retract a bit
G1 Z2.0 F3000 ;Move Z Axis up
G1 E0.0000 F1800 

G92 E0
G92 E0
G1 F2400 E-0.8
;LAYER_COUNT:18
;LAYER:0
M107
;MESH:testhe_body.stl
G0 F9000 X93.037 Y93.056 Z0.28
;TYPE:WALL-INNER
G1 F2400 E0
G1 F1603.6 X92.216 Y93.92 E0.0623
G1 F1600 X91.459 Y94.798 E0.12303
G1 F1603.6 X90.741 Y95.722 E0.18419
G1 X90.06 Y96.687 E0.24592
G1 F1596.5 X89.437 Y97.668 E0.30693
G1 X88.851 Y98.707 E0.36956
G1 F1603.6 X88.328 Y99.747 E0.43041
G1 X87.841 Y100.848 E0.49333
G1 X87.414 Y101.959 E0.55554
G1 X87.047 Y103.07 E0.6167
G1 F1600 X86.738 Y104.187 E0.67741
G1 X86.485 Y105.317 E0.73807
G1 F1603.6 X86.277 Y106.524 E0.80209
G1 F1600 X86.136 Y107.673 E0.86273
G1 F1603.6 X86.052 Y108.869 E0.9254
G1 X86.025 Y110.008 E0.98495
G1 X86.054 Y111.184 E1.04643
G1 F1600 X86.138 Y112.345 E1.10741
G1 F1592.9 X86.285 Y113.524 E1.16993
G1 F1600 X86.49 Y114.702 E1.23256
G1 X86.741 Y115.82 E1.29259
G1 X87.055 Y116.954 E1.35423
G1 F1603.6 X87.438 Y118.104 E1.41758
G1 F1600 X87.851 Y119.168 E1.47737
G1 X88.339 Y120.274 E1.5407
G1 X88.855 Y121.297 E1.60072
G1 X89.451 Y122.351 E1.66415
G1 F1596.5 X90.063 Y123.314 E1.72405
G1 F1600 X90.747 Y124.286 E1.78631
G1 F1603.6 X91.464 Y125.206 E1.84728
G1 X92.239 Y126.103 E1.90924
G1 X93.046 Y126.951 E1.97043
G1 F1596.5 X93.901 Y127.767 E2.03248
G1 X94.822 Y128.556 E2.09615
G1 F1603.6 X95.718 Y129.256 E2.15558
G1 F1600 X96.69 Y129.939 E2.21781
G1 X97.669 Y130.558 E2.27849
G1 F1607.1 X98.731 Y131.158 E2.3421
G1 X99.749 Y131.672 E2.40157
G1 F1600 X100.847 Y132.157 E2.46445
G1 F1596.5 X101.919 Y132.571 E2.52479
G1 F1600 X102.996 Y132.927 E2.58421
G1 X104.179 Y133.255 E2.64852
G1 X105.318 Y133.512 E2.70968
G1 F1603.6 X106.496 Y133.715 E2.77216
G1 X107.647 Y133.856 E2.83277
G1 X108.855 Y133.945 E2.89608
G1 X110.005 Y133.975 E2.95621
G1 X111.169 Y133.944 E3.01707
G1 X112.36 Y133.855 E3.0795
G1 X113.515 Y133.713 E3.14032
G1 X114.689 Y133.51 E3.2026
G1 X115.827 Y133.253 E3.26358
G1 X116.964 Y132.938 E3.32524
G1 F1600 X118.105 Y132.561 E3.38819
G1 F1596.5 X119.149 Y132.158 E3.44695
G1 F1600 X120.261 Y131.667 E3.51062
G1 F1607.1 X121.296 Y131.143 E3.57112
G1 X122.351 Y130.545 E3.63437
G1 F1600 X123.314 Y129.933 E3.69414
G1 F1603.6 X124.286 Y129.249 E3.75626
G1 X125.211 Y128.527 E3.8176
G1 F1600 X126.103 Y127.76 E3.87922
G1 X126.958 Y126.943 E3.94117
G1 X127.78 Y126.079 E4.00364
G1 F1603.6 X128.536 Y125.202 E4.06416
G1 F1600 X129.258 Y124.276 E4.12567
G1 F1603.6 X129.947 Y123.294 E4.18837
G1 F1607.1 X130.559 Y122.328 E4.24801
G1 F1610.7 X131.147 Y121.288 E4.31018
G1 F1607.1 X131.67 Y120.251 E4.37075
G1 F1600 X132.152 Y119.164 E4.43304
G1 F1596.5 X132.586 Y118.036 E4.49649
G1 F1600 X132.948 Y116.93 E4.55746
G1 F1607.1 X133.258 Y115.81 E4.61806
G1 X133.511 Y114.679 E4.6785
G1 F1603.6 X133.715 Y113.504 E4.74084
G1 X133.86 Y112.319 E4.80324
G1 X133.948 Y111.129 E4.86561
G1 X133.975 Y109.989 E4.92521
G1 X133.943 Y108.815 E4.98659
G1 X133.854 Y107.617 E5.04938
G1 F1600 X133.712 Y106.471 E5.10988
G1 X133.507 Y105.296 E5.17236
G1 F1603.6 X133.252 Y104.162 E5.23311
G1 X132.941 Y103.04 E5.29397
G1 F1600 X132.568 Y101.908 E5.3564
G1 F1596.5 X132.15 Y100.829 E5.41715
G1 X131.667 Y99.739 E5.47975
G1 F1600 X131.142 Y98.699 E5.54077
G1 F1603.6 X130.548 Y97.649 E5.60383
G1 F1600 X129.933 Y96.683 E5.66382
G1 F1603.6 X129.245 Y95.706 E5.72628
G1 X128.527 Y94.785 E5.78731
G1 F1596.5 X127.759 Y93.893 E5.84911
G1 F1600 X126.944 Y93.039 E5.91095
G1 F1603.6 X126.133 Y92.266 E5.96951
G1 X125.231 Y91.485 E6.03187
G1 X124.277 Y90.742 E6.09508
G1 F1600 X123.31 Y90.06 E6.15706
G1 F1603.6 X122.285 Y89.413 E6.22042
G1 X121.267 Y88.84 E6.28148
G1 X120.253 Y88.329 E6.34083
G1 X119.148 Y87.842 E6.40395
G1 X118.077 Y87.427 E6.46398
G1 X116.944 Y87.052 E6.52636
G1 X115.817 Y86.741 E6.58747
G1 F1607.1 X114.678 Y86.485 E6.64835
G1 X113.473 Y86.277 E6.71212
G1 F1603.6 X112.349 Y86.14 E6.77131
G1 X111.14 Y86.051 E6.83467
G1 X109.995 Y86.025 E6.89453
G1 X108.825 Y86.052 E6.9557
G1 X107.636 Y86.141 E7.01802
G1 X106.485 Y86.283 E7.07864
G1 X105.307 Y86.486 E7.14112
G1 X104.139 Y86.751 E7.20372
G1 X102.972 Y87.077 E7.26705
G1 X101.893 Y87.437 E7.32651
G1 X100.782 Y87.869 E7.38881
G1 X99.719 Y88.342 E7.44963
G1 F1600 X98.698 Y88.855 E7.50948
G1 X97.65 Y89.449 E7.57259
G1 X96.687 Y90.06 E7.63233
G1 F1603.6 X95.715 Y90.747 E7.69455
G1 X94.786 Y91.469 E7.75604
G1 F1600 X93.894 Y92.24 E7.81781
G1 F1603.6 X93.037 Y93.056 E7.87966
G0 F9000 X92.73 Y92.763
G1 F1800 X91.921 Y93.612 E7.93426
G1 X91.123 Y94.538 E7.99118
G1 X90.403 Y95.465 E8.04584
G1 X89.692 Y96.475 E8.10335
G1 X89.067 Y97.459 E8.15763
G1 X88.471 Y98.516 E8.21414
G1 X87.941 Y99.575 E8.26928
G1 X87.449 Y100.684 E8.32577
G1 X87.012 Y101.825 E8.38267
G1 X86.643 Y102.938 E8.43727
G1 X86.327 Y104.078 E8.49235
G1 X86.066 Y105.244 E8.54799
G1 X85.862 Y106.429 E8.60398
G1 X85.712 Y107.643 E8.66094
G1 X85.628 Y108.844 E8.717
G1 X85.6 Y110.008 E8.77121
G1 X85.631 Y111.214 E8.82739
G1 X85.715 Y112.397 E8.88261
G1 X85.865 Y113.596 E8.93888
G1 X86.076 Y114.794 E8.99552
G1 X86.331 Y115.933 E9.04987
G1 X86.652 Y117.088 E9.10569
G1 X87.041 Y118.257 E9.16306
G1 X87.455 Y119.326 E9.21644
G1 X87.96 Y120.465 E9.27446
G1 X88.485 Y121.506 E9.32874
G1 X89.092 Y122.579 E9.38615
G1 X89.715 Y123.558 E9.44018
G1 X90.402 Y124.534 E9.49576
G1 X91.143 Y125.483 E9.55182
G1 X91.931 Y126.395 E9.60795
G1 X92.741 Y127.248 E9.66272
G1 X93.611 Y128.079 E9.71874
G1 X94.532 Y128.868 E9.77521
G1 X95.474 Y129.603 E9.83085
G1 X96.462 Y130.297 E9.88707
G1 X97.459 Y130.928 E9.94201
G1 X98.516 Y131.524 E9.99851
G1 X99.562 Y132.054 E10.05311
G1 X100.671 Y132.546 E10.10961
G1 X101.77 Y132.97 E10.16446
G1 X102.863 Y133.33 E10.21804
G1 X104.07 Y133.666 E10.27638
G1 X105.23 Y133.928 E10.33176
G1 X106.428 Y134.134 E10.38836
G1 X107.615 Y134.279 E10.44404
G1 X108.811 Y134.368 E10.49989
G1 X110.016 Y134.4 E10.55602
G1 X111.2 Y134.367 E10.61117
G1 X112.411 Y134.277 E10.66772
G1 X113.572 Y134.134 E10.72219
G1 X114.782 Y133.924 E10.77937
G1 X115.939 Y133.662 E10.83461
G1 X117.074 Y133.349 E10.88943
G1 X118.241 Y132.965 E10.94664
G1 X119.339 Y132.539 E11.00148
G1 X120.438 Y132.054 E11.05742
G1 X121.539 Y131.493 E11.11495
G1 X122.578 Y130.904 E11.17057
G1 X123.546 Y130.289 E11.22397
G1 X124.574 Y129.563 E11.28257
G1 X125.487 Y128.85 E11.33651
G1 X126.385 Y128.079 E11.39162
G1 X127.265 Y127.237 E11.44834
G1 X128.079 Y126.384 E11.50324
G1 X128.872 Y125.46 E11.55994
G1 X129.597 Y124.534 E11.6147
G1 X130.296 Y123.535 E11.67147
G1 X130.921 Y122.551 E11.72575
G1 X131.524 Y121.48 E11.78298
G1 X132.053 Y120.438 E11.8374
G1 X132.545 Y119.326 E11.89402
G1 X132.991 Y118.169 E11.95176
G1 X133.353 Y117.061 E12.00604
G1 X133.657 Y115.964 E12.05904
G1 X133.927 Y114.767 E12.11618
G1 X134.134 Y113.571 E12.1727
G1 X134.284 Y112.351 E12.22993
G1 X134.372 Y111.155 E12.28578
G1 X134.399 Y109.942 E12.34227
G1 X134.366 Y108.784 E12.39622
G1 X134.275 Y107.567 E12.45304
G1 X134.132 Y106.397 E12.50793
G1 X133.921 Y105.203 E12.56439
G1 X133.662 Y104.048 E12.6195
G1 X133.349 Y102.922 E12.67392
G1 X132.958 Y101.738 E12.73198
G1 X132.546 Y100.671 E12.78524
G1 X132.047 Y99.548 E12.84246
G1 X131.512 Y98.491 E12.89763
G1 X130.921 Y97.445 E12.95357
G1 X130.281 Y96.438 E13.00913
G1 X129.58 Y95.446 E13.06569
G1 X128.85 Y94.509 E13.121
G1 X128.067 Y93.599 E13.1769
G1 X127.248 Y92.741 E13.23213
G1 X126.385 Y91.921 E13.28756
G1 X125.458 Y91.123 E13.34452
G1 X124.522 Y90.394 E13.39976
G1 X123.523 Y89.694 E13.45656
G1 X122.537 Y89.068 E13.51095
G1 X121.48 Y88.471 E13.56747
G1 X120.425 Y87.941 E13.62245
G1 X119.326 Y87.455 E13.6784
G1 X118.225 Y87.029 E13.73338
G1 X117.058 Y86.643 E13.79061
G1 X115.911 Y86.328 E13.846
G1 X114.766 Y86.069 E13.90066
G1 X113.556 Y85.861 E13.95783
G1 X112.381 Y85.717 E14.01295
G1 X111.186 Y85.628 E14.06875
G1 X109.986 Y85.601 E14.12464
G1 X108.794 Y85.629 E14.18016
G1 X107.584 Y85.719 E14.23666
G1 X106.414 Y85.864 E14.29156
G1 X105.23 Y86.068 E14.3475
G1 X104.07 Y86.33 E14.40288
G1 X102.838 Y86.674 E14.46244
G1 X101.757 Y87.034 E14.51549
G1 X100.671 Y87.455 E14.56973
G1 X99.561 Y87.947 E14.62626
G1 X98.489 Y88.485 E14.68211
G1 X97.423 Y89.089 E14.73916
G1 X96.438 Y89.716 E14.79353
G1 X95.455 Y90.412 E14.84962
G1 X94.509 Y91.147 E14.9054
G1 X93.612 Y91.921 E14.96057
G1 X92.73 Y92.763 E15.01735
G0 F9000 X93.382 Y93.345
G1 F1603.6 X94.214 Y92.556 E15.07728
G1 F1600 X95.076 Y91.811 E15.13696
G1 F1603.6 X95.998 Y91.094 E15.19801
G1 X96.934 Y90.435 E15.25784
G1 F1596.5 X97.898 Y89.824 E15.31777
G1 X98.913 Y89.249 E15.37901
G1 F1600 X99.935 Y88.736 E15.43891
G1 F1603.6 X101.01 Y88.26 E15.50036
G1 X102.068 Y87.85 E15.55967
G1 F1600 X103.17 Y87.485 E15.62048
G1 X104.282 Y87.178 E15.68091
G1 X105.402 Y86.925 E15.74106
G1 F1603.6 X106.555 Y86.726 E15.80222
G1 X107.685 Y86.587 E15.86173
G1 X108.85 Y86.5 E15.92279
G1 X110 Y86.475 E15.98291
G1 F1607.1 X111.147 Y86.5 E16.04275
G1 X112.332 Y86.59 E16.10472
G1 X113.445 Y86.725 E16.16319
G1 X114.595 Y86.924 E16.22406
G1 X115.737 Y87.184 E16.28514
G1 F1603.6 X116.823 Y87.484 E16.34403
G1 X117.942 Y87.856 E16.40567
G1 X118.995 Y88.263 E16.46467
G1 F1600 X120.065 Y88.736 E16.52596
G1 F1603.6 X121.109 Y89.263 E16.58708
G1 X122.111 Y89.83 E16.64726
G1 F1600 X123.063 Y90.435 E16.70635
G1 X124.037 Y91.122 E16.76879
G1 F1603.6 X124.918 Y91.807 E16.82712
G1 X125.8 Y92.569 E16.88804
G1 F1600 X126.631 Y93.36 E16.94814
G1 F1596.5 X127.441 Y94.213 E17.0099
G1 X128.203 Y95.098 E17.07121
G1 F1603.6 X128.89 Y95.976 E17.12948
G1 X129.565 Y96.94 E17.19099
G1 X130.196 Y97.933 E17.25249
G1 F1610.7 X130.731 Y98.878 E17.30899
G1 F1603.6 X131.263 Y99.938 E17.37098
G1 F1596.5 X131.737 Y101.009 E17.43247
G1 X132.146 Y102.067 E17.49203
G1 F1600 X132.516 Y103.186 E17.55377
G1 X132.82 Y104.282 E17.61335
G1 X133.071 Y105.402 E17.67347
G1 F1596.5 X133.268 Y106.547 E17.73447
G1 F1600 X133.414 Y107.726 E17.7967
G1 F1603.6 X133.495 Y108.856 E17.85592
G1 X133.525 Y109.994 E17.91542
G1 F1607.1 X133.495 Y111.186 E17.9776
G1 F1603.6 X133.407 Y112.332 E18.03768
G1 X133.267 Y113.467 E18.09745
G1 F1607.1 X133.07 Y114.604 E18.15763
G1 X132.823 Y115.707 E18.21658
G1 X132.502 Y116.86 E18.279
G1 F1603.6 X132.155 Y117.903 E18.33645
G1 F1600 X131.736 Y118.995 E18.39772
G1 X131.257 Y120.071 E18.45942
G1 F1603.6 X130.751 Y121.081 E18.51847
G1 F1610.7 X130.169 Y122.11 E18.57998
G1 F1607.1 X129.569 Y123.054 E18.63832
G1 F1603.6 X128.877 Y124.034 E18.70102
G1 F1600 X128.188 Y124.918 E18.75974
G1 F1603.6 X127.43 Y125.799 E18.82048
G1 F1600 X126.637 Y126.63 E18.88066
G1 X125.786 Y127.44 E18.9422
G1 F1603.6 X124.899 Y128.204 E19.00339
G1 F1607.1 X124.016 Y128.893 E19.0618
G1 F1603.6 X123.055 Y129.566 E19.12312
G1 F1600 X122.111 Y130.166 E19.18172
G1 F1607.1 X121.083 Y130.75 E19.24338
G1 X120.063 Y131.265 E19.30297
G1 F1600 X118.987 Y131.737 E19.36452
G1 F1596.5 X117.929 Y132.146 E19.42407
G1 X116.827 Y132.511 E19.48502
G1 F1603.6 X115.714 Y132.818 E19.54536
G1 F1607.1 X114.559 Y133.078 E19.60711
G1 X113.445 Y133.27 E19.66606
G1 F1603.6 X112.311 Y133.409 E19.72578
G1 X111.135 Y133.496 E19.78741
G1 X110 Y133.525 E19.84676
G1 X108.851 Y133.496 E19.90683
G1 X107.685 Y133.409 E19.96795
G1 X106.53 Y133.266 E20.02878
G1 X105.402 Y133.071 E20.08861
G1 X104.259 Y132.812 E20.14987
G1 X103.136 Y132.501 E20.21077
G1 F1600 X102.053 Y132.141 E20.27056
G1 F1596.5 X100.967 Y131.719 E20.33173
G1 F1600 X99.919 Y131.256 E20.39175
G1 F1603.6 X98.913 Y130.75 E20.4506
G1 X97.885 Y130.166 E20.5124
G1 F1600 X96.941 Y129.566 E20.571
G1 F1603.6 X95.955 Y128.874 E20.63396
G1 X95.098 Y128.203 E20.69085
G1 F1596.5 X94.198 Y127.428 E20.7532
G1 X93.36 Y126.631 E20.81392
G1 F1603.6 X92.591 Y125.824 E20.87219
G1 F1607.1 X91.791 Y124.897 E20.93604
G1 F1603.6 X91.104 Y124.015 E20.99448
G1 F1600 X90.43 Y123.055 E21.05593
G1 F1603.6 X89.803 Y122.064 E21.11722
G1 X89.236 Y121.057 E21.17762
G1 F1600 X88.735 Y120.063 E21.23593
G1 X88.26 Y118.984 E21.29769
G1 X87.85 Y117.928 E21.35703
G1 X87.479 Y116.808 E21.41884
G1 X87.175 Y115.701 E21.47898
G1 X86.925 Y114.595 E21.53838
G1 X86.722 Y113.401 E21.60182
G1 F1596.5 X86.586 Y112.296 E21.66027
G1 X86.501 Y111.143 E21.72097
G1 F1600 X86.475 Y110.008 E21.78044
G1 F1603.6 X86.503 Y108.81 E21.84308
G1 X86.59 Y107.659 E21.90341
G1 X86.73 Y106.529 E21.96292
G1 X86.928 Y105.389 E22.0234
G1 F1596.5 X87.182 Y104.268 E22.08375
G1 F1600 X87.484 Y103.174 E22.1432
G1 F1607.1 X87.856 Y102.053 E22.2048
G1 F1603.6 X88.278 Y100.965 E22.26579
G1 X88.718 Y99.97 E22.32266
G1 F1607.1 X89.26 Y98.894 E22.38549
G1 F1600 X89.829 Y97.891 E22.4459
G1 X90.435 Y96.934 E22.50524
G1 F1603.6 X91.124 Y95.957 E22.56772
G1 X91.809 Y95.079 E22.62593
G1 F1600 X92.589 Y94.177 E22.6884
G1 F1603.6 X93.382 Y93.345 E22.74847
G0 F9000 X93.674 Y93.652
G1 F1800 X94.491 Y92.877 E22.80091
G1 X95.362 Y92.127 E22.85443
G1 X96.218 Y91.458 E22.90502
G1 X97.17 Y90.789 E22.9592
G1 X98.123 Y90.186 E23.01171
G1 X99.122 Y89.619 E23.0652
G1 X100.136 Y89.111 E23.11801
G1 X101.163 Y88.656 E23.17031
G1 X102.234 Y88.242 E23.22378
G1 X103.284 Y87.895 E23.27527
G1 X104.399 Y87.586 E23.32915
G1 X105.51 Y87.336 E23.38218
G1 X106.631 Y87.144 E23.43513
G1 X107.742 Y87.009 E23.48725
G1 X108.879 Y86.924 E23.54034
G1 X110 Y86.899 E23.59255
G1 X111.154 Y86.925 E23.6463
G1 X112.281 Y87.011 E23.69893
G1 X113.384 Y87.145 E23.75067
G1 X114.517 Y87.342 E23.80422
G1 X115.611 Y87.589 E23.85644
G1 X116.726 Y87.898 E23.91032
G1 X117.781 Y88.248 E23.96207
G1 X118.859 Y88.667 E24.01593
G1 X119.89 Y89.123 E24.06842
G1 X120.9 Y89.633 E24.12111
G1 X121.883 Y90.189 E24.1737
G1 X122.85 Y90.805 E24.22708
G1 X123.777 Y91.458 E24.27988
G1 X124.66 Y92.146 E24.33201
G1 X125.509 Y92.877 E24.38417
G1 X126.344 Y93.674 E24.43792
G1 X127.112 Y94.483 E24.48986
G1 X127.851 Y95.339 E24.54252
G1 X128.561 Y96.243 E24.59605
G1 X129.206 Y97.169 E24.64859
G1 X129.827 Y98.143 E24.70238
G1 X130.363 Y99.087 E24.75293
G1 X130.889 Y100.141 E24.80778
G1 X131.34 Y101.163 E24.8598
G1 X131.754 Y102.235 E24.91331
G1 X132.106 Y103.299 E24.96549
G1 X132.418 Y104.425 E25.0199
G1 X132.655 Y105.485 E25.07048
G1 X132.852 Y106.645 E25.12526
G1 X132.991 Y107.757 E25.17745
G1 X133.071 Y108.883 E25.23001
G1 X133.101 Y109.993 E25.28171
G1 X133.072 Y111.154 E25.33579
G1 X132.985 Y112.281 E25.38843
G1 X132.848 Y113.395 E25.44069
G1 X132.655 Y114.511 E25.49343
G1 X132.407 Y115.617 E25.54621
G1 X132.099 Y116.726 E25.5998
G1 X131.745 Y117.788 E25.65193
G1 X131.333 Y118.856 E25.70523
G1 X130.877 Y119.881 E25.75747
G1 X130.371 Y120.891 E25.81007
G1 X129.811 Y121.883 E25.86311
G1 X129.207 Y122.833 E25.91553
G1 X128.542 Y123.773 E25.96915
G1 X127.85 Y124.66 E26.02153
G1 X127.098 Y125.531 E26.07511
G1 X126.335 Y126.331 E26.12659
G1 X125.509 Y127.119 E26.17975
G1 X124.638 Y127.87 E26.2333
G1 X123.765 Y128.552 E26.28489
G1 X122.827 Y129.207 E26.33816
G1 X121.857 Y129.822 E26.39164
G1 X120.874 Y130.38 E26.44427
G1 X119.861 Y130.89 E26.49708
G1 X118.833 Y131.34 E26.54933
G1 X117.761 Y131.754 E26.60284
G1 X116.713 Y132.101 E26.65425
G1 X115.597 Y132.41 E26.70817
G1 X114.487 Y132.66 E26.76115
G1 X113.369 Y132.852 E26.81397
G1 X112.254 Y132.987 E26.86627
G1 X111.124 Y133.072 E26.91904
G1 X109.984 Y133.1 E26.97214
G1 X108.846 Y133.071 E27.02514
G1 X107.715 Y132.984 E27.07796
G1 X106.602 Y132.848 E27.13017
G1 X105.479 Y132.654 E27.18324
G1 X104.399 Y132.41 E27.2348
G1 X103.27 Y132.098 E27.28934
G1 X102.207 Y131.744 E27.34151
G1 X101.138 Y131.33 E27.39489
