;FLAVOR:Marlin
;TIME:480.566
;Filament used:1.44919m
;Layer Height:0.3
;MINX:85.742
;MINY:85.599
;MINZ:0.3
;MAXX:134.258
;MAXY:134.258
;MAXZ:10.1
;OuterWall Time:184.699
;InnerWall Time:169.998
;Skin Time:0
;Support Time:0
;SkirtBrim Time:0
;Infill Time:0
;Support Infills Time:0
;Combing Time:36.3281
;Retraction Time:89.5404
;PrimeTower Time:0

;
;
;
;
;

;;;;;;;;;;;;;;;;;;;;;;;;;;;;;;;;;;;;;;;;;;;;;;;;;;;;;;;;;;;;;;;;;;;;;;;;;;;;
;Creality Print GCode Generated by CXEngine
;CRSLICE_GIT_HASH:6b8d75d
;Creality Print Version : V4.3.7.6627
;CXEngine Release Time:2023-09-22 09:18:32
;Gcode Generated Time:2024-05-22 21:43:05
;----------Machine Config--------------
;Machine Name:Ender-3 V3 SE
;Machine Height:250
;Machine Width:220
;Machine Depth:220
;Material Type:PLA
;Material Name:CR-PLA_1.75
;Number of Extruders:1
;ExtruderParams[0] Nozzle Diameter:1000
;----------Profile Config---------------
;Wall Thickness:0.8
;Top/Bottom Thickness:0.8
;Out Wall Line Width:0.42
;Inner Wall Line Width:0.45
;Inital Height:300
;Wall Line Count:3
;Infill Line Distance:8
;Infill Pattern:grid
;Infill Sparse Density:10
;Infill Wipe Distance:0.11
;Print Temperature:205
;Bed Temperature:50
;Support Enable:true
;Support Density:0
;Support Angle:60
;Adhesion Type:autobrim
;machine is belt:false
;machine belt offset:10
;machine belt offset Y:0
;Raft Base Line Spacing:1.6
;Wait Heatup Sync:true
;Enable Ironing:false
;Material Type:PLA
;Max volumetric speed:20
;Material Diameter:1.75
;Material Density:1.24
;Filament Cost:0.3
;Filament Weight:0
;Preview Img Type:png
;Screen Size:Sermoon D3
;----------Shell Config----------------
;Outer Wall Wipe Distance:200
;Outer Inset First:false
;Infill Before Walls:false
;Infill Overlap:0.05
;Fill Gaps Between Walls:everywhere
;Minimum Infill Area:3
;Top Surface Skin Layer:0
;Top Layers:3
;Z Seam Alignment:random
;Seam Corner Preference:z_seam_corner_inner
;Z Seam X:0
;Z Seam Y:0
;Horizontal Expansion:0
;Top/Bottom Pattern:zigzag
;Ironing Pattern:zigzag
;Vase Model:false
;----------Support Config----------------
;Support Type:everywhere
;Support Pattern:zigzag
;Support Infill Layer Thickness:0.3
;Minimum Support Area:1
;Enable Support Roof:true
;Support Roof Thickness:0.8
;Support Roof Pattern:lines
;Connect Support Lines:0
;Connect Support ZigZags:1
;Minimum Support X/Y Distance:0.2
;Support Line Distance:0
; ---------PrintSpeed & Travel----------
;Enable Print Cool:true
;Avoid Printed Parts Traveling:true
;Enable Retraction:true
;Retraction Distance:0.8
;Retraction Speed:40
;Retraction Prime Speed:40
;Maximum Retraction Count:100
;Minimum Extrusion Distance Window:0.8
;Z Hop When Retracted:true
;Z Hop Height:0.2
;Retract Before Outer Wall:true

;Outer Wall Speed:60
;Inner Wall Speed:180
;Infill Speed:180
;Top/Bottom Speed:50
;Travel Speed:150
;Initial Layer Speed:30
;Skirt/Brim Speed:25
;Prime Tower Speed:60
;Outer Wall Acceleration:1000
;Inner Wall Acceleration:2000
;Infill Acceleration:2500
;Top/Bottom Acceleration:2500
;Travel Acceleration:2500
;Initial Layer Print Acceleration:500
;Initial Layer Travel Acceleration:500
;Skirt/Brim Acceleration:500
;Combing Mode:noskin
; --------SpecialModel&Mesh Fixes--------
;Union Overlapping Volum:true
;Remove All Holes:false
;Maximum Travel Resolution:0.25
;Maximum Deviation:0.05
;Maximum Model Angle:0.872767
;IS Mold Print:false
;Make Overhang Printable:false
;Enable Coasting:false
;Coasting Volumes:0.064
;Coasting Speed:0.9
;Raft AirGap:0.25
;Layer0 ZOverLap:0.13
;Adaptive Layers:0
;---------------------End of Head--------------------------
M140 S50
M105
M190 S50
M104 S205
M82 ;absolute extrusion mode
M220 S100 ;Reset Feedrate
M221 S100 ;Reset Flowrate

G28 ;Home

G92 E0 ;Reset Extruder
G1 Z2.0 F3000 ;Move Z Axis up
G1 X10.1 Y20 Z0.28 F5000.0 ;Move to start position
M109 S205.000000
G1 X10.1 Y145.0 Z0.28 F1500.0 E15 ;Draw the first line
G1 X10.4 Y145.0 Z0.28 F5000.0 ;Move to side a little
G1 X10.4 Y20 Z0.28 F1500.0 E30 ;Draw the second line
G92 E0  ;Reset Extruder
G1 E-1.0000 F1800 ;Retract a bit
G1 Z2.0 F3000 ;Move Z Axis up
G1 E0.0000 F1800 

G92 E0
G92 E0
G1 F2400 E-0.8
;LAYER_COUNT:33

;LAYER:0
M106 S0
M204 S500
;;retract;;
G1 F2400 E-0.56
G1 F2400 E-0.8
G1 F600 Z0.5
;MESH:0_0
G0 F4800 X87.286 Y111.115 Z0.5
;TYPE:WALL-INNER
G1 F600 Z0.3
G1 F2400 E0
G1 F1800 X87.259 Y110.019 E0.06768
G1 X87.287 Y108.869 E0.13869
G1 X87.37 Y107.756 E0.20759
G1 X87.504 Y106.675 E0.27483
G1 X87.691 Y105.584 E0.34316
G1 X87.944 Y104.456 E0.41453
G1 X88.248 Y103.361 E0.48468
G1 X88.593 Y102.323 E0.55221
G1 X88.995 Y101.286 E0.62086
G1 X89.449 Y100.262 E0.69001
G1 X89.952 Y99.266 E0.75889
G1 X90.504 Y98.293 E0.82795
G1 X91.103 Y97.35 E0.89691
G1 X91.744 Y96.441 E0.96558
G1 X92.42 Y95.574 E1.03345
G1 X93.147 Y94.73 E1.10221
G1 X93.919 Y93.92 E1.17129
G1 X94.74 Y93.139 E1.24124
G1 X95.576 Y92.418 E1.30939
G1 X96.455 Y91.733 E1.37818
G1 X97.365 Y91.093 E1.44686
G1 X98.311 Y90.494 E1.51598
G1 X99.25 Y89.961 E1.58263
G1 X100.243 Y89.458 E1.65135
G1 X101.297 Y88.99 E1.72254
G1 X102.302 Y88.601 E1.78907
G1 X103.385 Y88.243 E1.85948
G1 X104.48 Y87.938 E1.92965
G1 X105.54 Y87.699 E1.99673
G1 X106.71 Y87.496 E2.07003
G1 X107.775 Y87.368 E2.13625
G1 X108.852 Y87.288 E2.20292
G1 X109.993 Y87.258 E2.27338
G1 X111.131 Y87.287 E2.34365
G1 X111.718 Y87.331 E2.37999
G1 F1611.2 X112.197 Y87.309 E2.41306
G1 F1465.5 X113.318 Y87.447 E2.4987
G1 F1463.1 X113.985 Y87.557 E2.55004
G1 F1608.3 X114.398 Y87.688 E2.57998
G1 F1800 X115.539 Y87.944 E2.65217
G1 X116.625 Y88.244 E2.72172
G1 X117.667 Y88.59 E2.7895
G1 X118.705 Y88.99 E2.85817
G1 X119.707 Y89.434 E2.92582
G1 X120.72 Y89.945 E2.99586
G1 X121.697 Y90.498 E3.06517
G1 X122.609 Y91.075 E3.13179
G1 X123.549 Y91.737 E3.20276
G1 X124.425 Y92.419 E3.27129
G1 X125.282 Y93.159 E3.34119
G1 X126.081 Y93.92 E3.40931
G1 X126.861 Y94.74 E3.47917
G1 X127.59 Y95.586 E3.54811
G1 X128.266 Y96.453 E3.61598
G1 X128.916 Y97.378 E3.68577
G1 X129.515 Y98.324 E3.75489
G1 X130.062 Y99.293 E3.82358
G1 X130.549 Y100.256 E3.8902
G1 X131.018 Y101.317 E3.96181
G1 X131.418 Y102.354 E4.03042
G1 X131.761 Y103.394 E4.09803
G1 X132.064 Y104.489 E4.16816
G1 X132.313 Y105.601 E4.23851
G1 X132.498 Y106.677 E4.30591
G1 X132.634 Y107.788 E4.375
G1 X132.715 Y108.883 E4.44278
G1 X132.742 Y109.998 E4.51164
G1 X132.714 Y111.132 E4.58166
G1 X132.634 Y112.21 E4.64839
G1 X132.496 Y113.325 E4.71775
G1 X132.301 Y114.455 E4.78853
G1 X132.056 Y115.544 E4.85744
G1 X131.753 Y116.636 E4.9274
G1 X131.407 Y117.676 E4.99506
G1 X131.005 Y118.718 E5.06401
G1 X130.549 Y119.744 E5.13332
G1 X130.048 Y120.734 E5.20181
G1 X129.496 Y121.707 E5.27087
G1 X128.897 Y122.65 E5.33983
G1 X128.259 Y123.556 E5.40824
G1 X127.581 Y124.426 E5.47633
G1 X126.841 Y125.283 E5.54623
G1 X126.069 Y126.092 E5.61526
G1 X125.286 Y126.838 E5.68202
G1 X124.424 Y127.582 E5.75231
G1 X123.545 Y128.267 E5.82111
G1 X122.635 Y128.907 E5.88978
G1 X121.718 Y129.49 E5.95686
G1 X120.75 Y130.039 E6.02556
G1 X119.72 Y130.559 E6.09679
G1 X118.703 Y131.01 E6.16547
G1 X117.698 Y131.399 E6.23199
G1 X116.615 Y131.758 E6.30243
G1 X115.526 Y132.06 E6.37219
G1 X114.433 Y132.306 E6.44135
G1 F1623 X113.797 Y132.472 E6.48635
G1 F1477.6 X113.296 Y132.558 E6.52458
G1 F1463.1 X112.265 Y132.688 E6.6035
G1 F1605.4 X111.717 Y132.67 E6.64145
G1 F1800 X111.113 Y132.714 E6.67884
G1 X110.007 Y132.742 E6.74713
G1 X108.868 Y132.714 E6.81747
G1 X108.493 Y132.686 E6.84068
G1 F1608.3 X107.874 Y132.699 E6.88346
G1 F1460.7 X106.682 Y132.554 E6.97481
G1 F1451.1 X106.237 Y132.485 E7.00929
G1 F1596.8 X105.665 Y132.323 E7.05066
G1 F1800 X104.461 Y132.056 E7.12679
G1 X103.375 Y131.756 E7.19634
G1 X102.333 Y131.41 E7.26412
G1 X101.295 Y131.01 E7.33279
G1 X100.262 Y130.551 E7.40257
G1 X99.28 Y130.055 E7.47049
G1 X98.303 Y129.502 E7.53979
G1 X97.362 Y128.905 E7.60858
G1 X96.449 Y128.262 E7.67752
G1 X95.575 Y127.581 E7.74592
G1 X94.718 Y126.841 E7.81582
G1 X93.918 Y126.079 E7.88402
G1 X93.139 Y125.26 E7.95379
G1 X92.408 Y124.412 E8.02291
G1 X91.732 Y123.544 E8.09083
G1 X91.084 Y122.622 E8.16039
G1 X90.485 Y121.677 E8.22946
G1 X89.936 Y120.704 E8.29843
G1 X89.432 Y119.702 E8.36767
G1 X88.984 Y118.688 E8.4361
G1 X88.58 Y117.641 E8.50538
G1 X88.238 Y116.603 E8.57285
G1 X87.939 Y115.526 E8.64185
G1 X87.687 Y114.399 E8.71314
G1 X87.502 Y113.323 E8.78053
G1 X87.366 Y112.209 E8.84981
G1 X87.286 Y111.115 E8.91753
;;retract;;
G1 F2400 E8.35753
G1 X87.259 Y110.019 E8.23258
G1 X87.281 Y109.115 E8.12953
G1 F2400 E8.11753
G1 F600 Z0.5
G0 F4800 X87.086 Y111.114 Z0.5
G0 X87.102 Y110.484
G0 X87.297 Y106.712
G1 F2400 E8.91753
G0 F4800 X87.975 Y106.756
;TYPE:WALL-OUTER
G1 F600 Z0.3
G1 F1800 X88.162 Y105.666 E8.97997
G1 X88.405 Y104.583 E9.04264
G1 X88.699 Y103.522 E9.10481
G1 X89.037 Y102.501 E9.16554
G1 X89.433 Y101.48 E9.22737
G1 X89.877 Y100.477 E9.28931
G1 X90.369 Y99.501 E9.35102
G1 X90.908 Y98.549 E9.41279
G1 X91.494 Y97.625 E9.47457
G1 X92.121 Y96.735 E9.53604
G1 X92.795 Y95.871 E9.59792
G1 X93.506 Y95.048 E9.65933
G1 X94.262 Y94.255 E9.72119
G1 X95.053 Y93.501 E9.78289
G1 X95.871 Y92.796 E9.84387
G1 X96.731 Y92.124 E9.90549
G1 X97.621 Y91.497 E9.96697
G1 X98.547 Y90.91 E10.02887
G1 X99.501 Y90.37 E10.09077
G1 X100.475 Y89.878 E10.15238
G1 X101.47 Y89.437 E10.21384
G1 X102.485 Y89.044 E10.27529
G1 X103.506 Y88.705 E10.33604
G1 X104.568 Y88.409 E10.39829
G1 X105.649 Y88.165 E10.46086
G1 X106.767 Y87.971 E10.52493
G1 X107.81 Y87.846 E10.58425
G1 X108.899 Y87.765 E10.6459
G1 X109.99 Y87.737 E10.70753
G1 X111.096 Y87.765 E10.77
G1 X112.169 Y87.844 E10.83075
G1 X113.228 Y87.973 E10.89098
G1 X114.33 Y88.162 E10.95412
G1 X115.411 Y88.405 E11.01668
G1 X116.475 Y88.699 E11.07901
G1 X117.495 Y89.036 E11.13966
G1 X118.511 Y89.428 E11.20115
G1 X119.523 Y89.877 E11.26366
G1 X120.485 Y90.362 E11.3245
G1 X121.441 Y90.903 E11.38652
G1 X122.363 Y91.487 E11.44814
G1 X123.255 Y92.115 E11.50974
G1 X124.113 Y92.782 E11.5711
G1 X124.952 Y93.506 E11.63368
G1 X125.734 Y94.251 E11.69466
G1 X126.499 Y95.053 E11.75724
G1 X127.212 Y95.88 E11.8189
G1 X127.886 Y96.744 E11.88077
G1 X128.512 Y97.634 E11.94221
G1 X129.098 Y98.559 E12.00404
G1 X129.635 Y99.509 E12.06566
G1 X130.126 Y100.483 E12.12724
G1 X130.572 Y101.49 E12.18943
G1 X130.963 Y102.504 E12.25079
G1 X131.3 Y103.522 E12.31134
G1 X131.598 Y104.594 E12.37417
G1 X131.842 Y105.683 E12.43718
G1 X132.023 Y106.735 E12.49745
G1 X132.156 Y107.824 E12.5594
G1 X132.237 Y108.911 E12.62095
G1 X132.263 Y110.005 E12.68274
G1 X132.237 Y111.096 E12.74436
G1 X132.155 Y112.185 E12.80602
G1 X132.025 Y113.244 E12.86626
G1 X131.834 Y114.351 E12.92969
G1 X131.595 Y115.417 E12.99138
G1 X131.298 Y116.486 E13.05403
G1 X130.961 Y117.504 E13.11457
G1 X130.572 Y118.514 E13.17569
G1 X130.121 Y119.528 E13.23835
G1 X129.631 Y120.499 E13.29976
G1 X129.092 Y121.451 E13.36153
G1 X128.506 Y122.375 E13.42331
G1 X127.881 Y123.262 E13.48458
G1 X127.206 Y124.128 E13.54658
G1 X126.494 Y124.952 E13.60807
G1 X125.738 Y125.745 E13.66993
G1 X124.947 Y126.499 E13.73163
G1 X124.129 Y127.204 E13.79261
G1 X123.269 Y127.876 E13.85423
G1 X122.379 Y128.503 E13.91571
G1 X121.452 Y129.091 E13.97769
G1 X120.499 Y129.63 E14.03951
G1 X119.526 Y130.122 E14.10107
G1 X118.53 Y130.564 E14.1626
G1 X117.515 Y130.956 E14.22404
G1 X116.487 Y131.297 E14.28519
G1 X115.421 Y131.593 E14.34766
G1 X114.351 Y131.835 E14.4096
G1 X113.233 Y132.029 E14.47367
G1 X112.19 Y132.154 E14.53299
G1 X111.101 Y132.236 E14.59465
G1 X110.011 Y132.263 E14.65622
G1 X108.904 Y132.236 E14.71874
G1 X107.818 Y132.155 E14.78023
G1 X106.772 Y132.027 E14.83973
G1 X105.65 Y131.834 E14.90402
G1 X104.589 Y131.595 E14.96543
G1 X103.525 Y131.301 E15.02775
G1 X102.505 Y130.964 E15.08841
G1 X101.489 Y130.572 E15.1499
G1 X100.477 Y130.123 E15.21241
G1 X99.515 Y129.638 E15.27324
G1 X98.559 Y129.097 E15.33527
G1 X97.637 Y128.513 E15.39689
G1 X96.743 Y127.884 E15.45861
G1 X95.887 Y127.218 E15.51985
G1 X95.048 Y126.494 E15.58243
G1 X94.265 Y125.749 E15.64345
G1 X93.501 Y124.947 E15.70599
G1 X92.786 Y124.118 E15.76781
G1 X92.112 Y123.253 E15.82973
G1 X91.488 Y122.366 E15.89096
G1 X90.902 Y121.441 E15.95279
G1 X90.364 Y120.489 E16.01453
G1 X89.87 Y119.509 E16.0765
G1 X89.432 Y118.52 E16.13758
G1 X89.035 Y117.492 E16.1998
G1 X88.699 Y116.475 E16.26028
G1 X88.403 Y115.406 E16.32291
G1 X88.158 Y114.317 E16.38593
G1 X87.977 Y113.265 E16.44621
G1 X87.844 Y112.174 E16.50826
G1 X87.764 Y111.089 E16.56969
G1 X87.737 Y110.007 E16.63081
G1 X87.765 Y108.904 E16.69311
G1 X87.845 Y107.815 E16.75476
G1 X87.975 Y106.756 E16.81501
G0 F4800 X88.008 Y106.559
;;retract;;
G1 F2400 E16.25501
G1 X88.402 Y104.598 E16.02701
G1 F2400 E16.01501
G1 F600 Z0.5
G0 F4800 X87.34 Y106.442 Z0.5
G0 X88.158 Y103.163
G0 X89.235 Y100.379
G0 X90.438 Y98.136
G0 X91.583 Y96.419
G0 X93.075 Y94.604
G0 X94.626 Y93.052
G0 X96.425 Y91.583
G0 X98.142 Y90.429
G0 X100.388 Y89.241
G0 X102.426 Y88.413
G0 X104.539 Y87.783
G0 X106.716 Y87.357
G0 X108.883 Y87.147
G0 X111.112 Y87.146
G0 X113.29 Y87.355
G0 X113.565 Y87.407
G0 X114.538 Y86.905
G1 F2400 E16.81501
G0 F4800 X114.431 Y86.781
;TYPE:WALL-INNER
G1 F600 Z0.3
G1 F1703.6 X114.49 Y86.666 E16.82344
G1 F1800 X115.771 Y86.952 E16.90446
G1 X116.921 Y87.273 E16.97817
G1 X118.003 Y87.63 E17.0485
G1 X119.092 Y88.052 E17.1206
G1 X120.163 Y88.527 E17.19293
G1 X121.186 Y89.041 E17.2636
G1 X122.215 Y89.624 E17.33661
G1 X123.202 Y90.249 E17.40873
G1 X124.148 Y90.914 E17.48011
G1 X125.06 Y91.625 E17.5515
G1 X125.956 Y92.398 E17.62455
G1 X126.79 Y93.191 E17.69559
G1 X127.573 Y94.014 E17.76572
G1 X128.356 Y94.918 E17.83955
G1 X129.075 Y95.837 E17.91158
G1 X129.747 Y96.791 E17.98361
G1 X130.37 Y97.773 E18.05541
G1 X130.946 Y98.79 E18.12756
G1 X131.477 Y99.842 E18.2003
G1 X131.944 Y100.896 E18.27147
G1 X132.354 Y101.955 E18.34157
G1 X132.726 Y103.073 E18.41431
G1 X133.048 Y104.227 E18.48827
G1 X133.295 Y105.334 E18.55829
G1 X133.498 Y106.501 E18.63141
G1 X133.644 Y107.67 E18.70413
G1 X133.728 Y108.822 E18.77544
G1 X133.758 Y109.984 E18.84719
G1 X133.729 Y111.151 E18.91926
G1 X133.645 Y112.314 E18.99124
G1 X133.5 Y113.485 E19.06408
G1 X133.299 Y114.648 E19.13694
G1 X133.048 Y115.771 E19.20797
G1 X132.741 Y116.874 E19.27865
G1 X132.376 Y117.987 E19.35096
G1 X131.954 Y119.079 E19.42323
G1 X131.492 Y120.123 E19.49371
G1 X130.953 Y121.198 E19.56794
G1 X130.4 Y122.177 E19.63735
G1 X129.761 Y123.188 E19.71118
G1 X129.092 Y124.141 E19.78306
G1 X128.375 Y125.06 E19.85502
G1 X127.614 Y125.943 E19.92698
G1 X126.809 Y126.79 E19.99911
G1 X125.952 Y127.606 E20.07216
G1 X125.071 Y128.365 E20.14395
G1 X124.163 Y129.075 E20.2151
G1 X123.209 Y129.747 E20.28714
G1 X122.202 Y130.385 E20.36073
G1 X121.201 Y130.95 E20.43169
G1 X120.16 Y131.475 E20.50366
G1 X119.101 Y131.945 E20.57518
G1 X118.014 Y132.365 E20.64712
G1 X116.919 Y132.729 E20.71835
G1 X115.772 Y133.048 E20.79185
G1 X114.494 Y133.334 E20.87269
G1 F1706.9 X114.426 Y133.199 E20.88253
G1 F1546.9 X113.901 Y133.067 E20.92142
G1 F1475.2 X113.44 Y133.147 E20.95666
G1 F1507.6 X112.396 Y133.277 E21.03421
G1 F1659.2 X112.122 Y133.528 E21.05909
G1 F1800 X112.068 Y133.663 E21.06807
G1 X111.175 Y133.728 E21.12334
G1 X110.013 Y133.758 E21.19509
G1 X108.879 Y133.73 E21.26512
G1 X108.147 Y133.678 E21.31042
G1 X108.094 Y133.548 E21.31909
G1 F1608.3 X107.777 Y133.301 E21.34685
G1 F1444.1 X106.187 Y133.103 E21.47014
G1 F1596.8 X105.834 Y133.262 E21.49709
G1 F1800 X105.771 Y133.371 E21.50486
G1 X105.367 Y133.302 E21.53016
G1 X104.229 Y133.048 E21.60214
G1 X103.079 Y132.727 E21.67584
G1 X101.997 Y132.37 E21.74618
G1 X100.908 Y131.948 E21.81828
G1 X99.837 Y131.474 E21.89058
G1 X98.812 Y130.958 E21.96142
G1 X97.78 Y130.374 E22.03462
G1 X96.798 Y129.751 E22.10641
G1 X95.849 Y129.083 E22.17805
G1 X94.937 Y128.372 E22.24944
G1 X94.041 Y127.599 E22.32249
G1 X93.209 Y126.808 E22.39336
G1 X92.403 Y125.961 E22.46553
G1 X91.641 Y125.079 E22.53749
G1 X90.923 Y124.162 E22.60938
G1 X90.252 Y123.208 E22.68138
G1 X89.628 Y122.224 E22.75331
G1 X89.053 Y121.208 E22.82538
G1 X88.529 Y120.17 E22.89716
G1 X88.046 Y119.079 E22.97081
G1 X87.629 Y118 E23.04222
G1 X87.27 Y116.914 E23.11283
G1 X86.956 Y115.784 E23.18523
G1 X86.708 Y114.678 E23.2552
