;FLAVOR:Marlin
;TIME:473.338
;Filament used:1.44919m
;Layer Height:0.3
;MINX:85.742
;MINY:85.599
;MINZ:0.3
;MAXX:134.258
;MAXY:134.258
;MAXZ:10.1
;OuterWall Time:181.792
;InnerWall Time:168.633
;Skin Time:0
;Support Time:0
;SkirtBrim Time:0
;Infill Time:0
;Support Infills Time:0
;Combing Time:21.118
;Retraction Time:101.794
;PrimeTower Time:0

;
;
;
;
;
;
;;;;;;;;;;;;;;;;;;;;;;;;;;;;;;;;;;;;;;;;;;;;;;;;;;;;;;;;;;;;;;;;;;;;;;;;;;;;
;Creality Print GCode Generated by CXEngine
;CRSLICE_GIT_HASH:6b8d75d
;Creality Print Version : V4.3.7.6627
;CXEngine Release Time:2023-09-22 09:18:32
;Gcode Generated Time:2024-05-22 21:23:01
;----------Machine Config--------------
;Machine Name:Ender-3 V3 SE
;Machine Height:250
;Machine Width:220
;Machine Depth:220
;Material Type:PLA
;Material Name:CR-PLA_1.75
;Number of Extruders:1
;ExtruderParams[0] Nozzle Diameter:1000
;----------Profile Config---------------
;Wall Thickness:0.8
;Top/Bottom Thickness:0.8
;Out Wall Line Width:0.42
;Inner Wall Line Width:0.45
;Inital Height:300
;Wall Line Count:3
;Infill Line Distance:8
;Infill Pattern:grid
;Infill Sparse Density:10
;Infill Wipe Distance:0.11
;Print Temperature:205
;Bed Temperature:50
;Support Enable:true
;Support Density:0
;Support Angle:60
;Adhesion Type:autobrim
;machine is belt:false
;machine belt offset:10
;machine belt offset Y:0
;Raft Base Line Spacing:1.6
;Wait Heatup Sync:true
;Enable Ironing:false
;Material Type:PLA
;Max volumetric speed:20
;Material Diameter:1.75
;Material Density:1.24
;Filament Cost:0.3
;Filament Weight:0
;Preview Img Type:png
;Screen Size:Sermoon D3
;----------Shell Config----------------
;Outer Wall Wipe Distance:200
;Outer Inset First:false
;Infill Before Walls:false
;Infill Overlap:0.05
;Fill Gaps Between Walls:everywhere
;Minimum Infill Area:3
;Top Surface Skin Layer:0
;Top Layers:3
;Z Seam Alignment:user_specified
;Seam Corner Preference:z_seam_corner_inner
;Z Seam X:0
;Z Seam Y:0
;Horizontal Expansion:0
;Top/Bottom Pattern:zigzag
;Ironing Pattern:zigzag
;Vase Model:false
;----------Support Config----------------
;Support Type:everywhere
;Support Pattern:zigzag
;Support Infill Layer Thickness:0.3
;Minimum Support Area:1
;Enable Support Roof:true
;Support Roof Thickness:0.8
;Support Roof Pattern:lines
;Connect Support Lines:0
;Connect Support ZigZags:1
;Minimum Support X/Y Distance:0.2
;Support Line Distance:0
; ---------PrintSpeed & Travel----------
;Enable Print Cool:true
;Avoid Printed Parts Traveling:true
;Enable Retraction:true
;Retraction Distance:0.8
;Retraction Speed:40
;Retraction Prime Speed:40
;Maximum Retraction Count:100
;Minimum Extrusion Distance Window:0.8
;Z Hop When Retracted:true
;Z Hop Height:0.2
;Retract Before Outer Wall:true

;Outer Wall Speed:60
;Inner Wall Speed:180
;Infill Speed:180
;Top/Bottom Speed:50
;Travel Speed:150
;Initial Layer Speed:30
;Skirt/Brim Speed:25
;Prime Tower Speed:60
;Outer Wall Acceleration:1000
;Inner Wall Acceleration:2000
;Infill Acceleration:2500
;Top/Bottom Acceleration:2500
;Travel Acceleration:2500
;Initial Layer Print Acceleration:500
;Initial Layer Travel Acceleration:500
;Skirt/Brim Acceleration:500
;Combing Mode:noskin
; --------SpecialModel&Mesh Fixes--------
;Union Overlapping Volum:true
;Remove All Holes:false
;Maximum Travel Resolution:0.25
;Maximum Deviation:0.05
;Maximum Model Angle:0.872767
;IS Mold Print:false
;Make Overhang Printable:false
;Enable Coasting:false
;Coasting Volumes:0.064
;Coasting Speed:0.9
;Raft AirGap:0.25
;Layer0 ZOverLap:0.13
;Adaptive Layers:0
;---------------------End of Head--------------------------
M140 S50
M105
M190 S50
M104 S205
M82 ;absolute extrusion mode
M220 S100 ;Reset Feedrate
M221 S100 ;Reset Flowrate

G28 ;Home

G92 E0 ;Reset Extruder
G1 Z2.0 F3000 ;Move Z Axis up
G1 X10.1 Y20 Z0.28 F5000.0 ;Move to start position
M109 S205.000000
G1 X10.1 Y145.0 Z0.28 F1500.0 E15 ;Draw the first line
G1 X10.4 Y145.0 Z0.28 F5000.0 ;Move to side a little
G1 X10.4 Y20 Z0.28 F1500.0 E30 ;Draw the second line
G92 E0  ;Reset Extruder
G1 E-1.0000 F1800 ;Retract a bit
G1 Z2.0 F3000 ;Move Z Axis up
G1 E0.0000 F1800 

G92 E0
G92 E0
G1 F2400 E-0.8
;LAYER_COUNT:33

;LAYER:0
M106 S0
M204 S500
;;retract;;
G1 F2400 E-0.56
G1 F2400 E-0.8
G1 F600 Z0.5
;MESH:0_0
G0 F4800 X86.242 Y110.003 Z0.5
;TYPE:WALL-INNER
G1 F600 Z0.3
G1 F2400 E0
G1 F1800 X86.271 Y108.849 E0.07126
G1 X86.356 Y107.674 E0.14399
G1 X86.5 Y106.515 E0.21608
G1 X86.701 Y105.352 E0.28894
G1 X86.952 Y104.229 E0.35998
G1 X87.268 Y103.096 E0.43259
G1 X87.625 Y102.01 E0.50316
G1 X88.046 Y100.921 E0.57523
G1 X88.505 Y99.883 E0.6453
G1 X89.047 Y98.802 E0.71995
G1 X89.6 Y97.823 E0.78936
G1 X90.239 Y96.812 E0.86319
G1 X90.908 Y95.859 E0.93507
G1 X91.633 Y94.93 E1.00781
G1 X92.386 Y94.057 E1.07898
G1 X93.191 Y93.21 E1.15112
G1 X94.048 Y92.394 E1.22417
G1 X94.929 Y91.635 E1.29595
G1 X95.837 Y90.925 E1.36711
G1 X96.791 Y90.253 E1.43915
G1 X97.785 Y89.624 E1.51176
G1 X98.805 Y89.046 E1.58413
G1 X99.846 Y88.522 E1.65608
G1 X100.921 Y88.046 E1.72866
G1 X101.986 Y87.635 E1.79913
G1 X103.088 Y87.269 E1.87081
G1 X104.227 Y86.954 E1.94376
G1 X105.311 Y86.711 E2.01234
G1 X106.499 Y86.503 E2.08679
G1 X107.674 Y86.356 E2.15989
G1 X108.825 Y86.272 E2.23113
G1 X109.987 Y86.242 E2.30289
G1 X111.151 Y86.271 E2.37477
G1 X112.068 Y86.338 E2.43153
G1 X112.122 Y86.473 E2.4405
G1 F1656.1 X112.378 Y86.721 E2.46442
G1 F1502.5 X113.406 Y86.849 E2.54103
G1 F1467.9 X114.024 Y86.954 E2.58848
G1 F1536.2 X114.431 Y86.781 E2.62047
G1 F1703.6 X114.49 Y86.666 E2.6289
G1 F1800 X115.771 Y86.952 E2.70993
G1 X116.921 Y87.273 E2.78363
G1 X118.003 Y87.63 E2.85397
G1 X119.092 Y88.052 E2.92606
G1 X120.163 Y88.527 E2.99839
G1 X121.186 Y89.041 E3.06906
G1 X122.215 Y89.624 E3.14207
G1 X123.202 Y90.249 E3.21419
G1 X124.148 Y90.914 E3.28558
G1 X125.06 Y91.625 E3.35696
G1 X125.956 Y92.398 E3.43001
G1 X126.79 Y93.191 E3.50106
G1 X127.573 Y94.014 E3.57118
G1 X128.356 Y94.918 E3.64501
G1 X129.075 Y95.837 E3.71704
G1 X129.747 Y96.791 E3.78908
G1 X130.37 Y97.773 E3.86087
G1 X130.946 Y98.79 E3.93302
G1 X131.477 Y99.842 E4.00577
G1 X131.944 Y100.896 E4.07693
G1 X132.354 Y101.955 E4.14703
G1 X132.726 Y103.073 E4.21977
G1 X133.048 Y104.227 E4.29373
G1 X133.295 Y105.334 E4.36375
G1 X133.498 Y106.501 E4.43687
G1 X133.644 Y107.67 E4.5096
G1 X133.728 Y108.822 E4.5809
G1 X133.758 Y109.984 E4.65266
G1 X133.729 Y111.151 E4.72472
G1 X133.645 Y112.314 E4.7967
G1 X133.5 Y113.485 E4.86954
G1 X133.299 Y114.648 E4.9424
G1 X133.048 Y115.771 E5.01344
G1 X132.741 Y116.874 E5.08411
G1 X132.376 Y117.987 E5.15642
G1 X131.954 Y119.079 E5.22869
G1 X131.492 Y120.123 E5.29917
G1 X130.953 Y121.198 E5.37341
G1 X130.4 Y122.177 E5.44282
G1 X129.761 Y123.188 E5.51665
G1 X129.092 Y124.141 E5.58853
G1 X128.375 Y125.06 E5.66048
G1 X127.614 Y125.943 E5.73244
G1 X126.809 Y126.79 E5.80458
G1 X125.952 Y127.606 E5.87763
G1 X125.071 Y128.365 E5.94941
G1 X124.163 Y129.075 E6.02057
G1 X123.209 Y129.747 E6.0926
G1 X122.202 Y130.385 E6.16619
G1 X121.201 Y130.95 E6.23715
G1 X120.16 Y131.475 E6.30912
G1 X119.101 Y131.945 E6.38065
G1 X118.014 Y132.365 E6.45258
G1 X116.919 Y132.729 E6.52382
G1 X115.772 Y133.048 E6.59731
G1 X114.494 Y133.334 E6.67816
G1 F1706.9 X114.426 Y133.199 E6.688
G1 F1546.9 X113.901 Y133.067 E6.72688
G1 F1475.2 X113.44 Y133.147 E6.76213
G1 F1507.6 X112.396 Y133.277 E6.83967
G1 F1659.2 X112.122 Y133.528 E6.86455
G1 F1800 X112.068 Y133.663 E6.87353
G1 X111.175 Y133.728 E6.9288
G1 X110.013 Y133.758 E7.00056
G1 X108.879 Y133.73 E7.07058
G1 X108.147 Y133.678 E7.11589
G1 X108.094 Y133.548 E7.12455
G1 F1608.3 X107.777 Y133.301 E7.15232
G1 F1444.1 X106.187 Y133.103 E7.27561
G1 F1596.8 X105.834 Y133.262 E7.30255
G1 F1800 X105.771 Y133.371 E7.31032
G1 X105.367 Y133.302 E7.33562
G1 X104.229 Y133.048 E7.4076
G1 X103.079 Y132.727 E7.48131
G1 X101.997 Y132.37 E7.55164
G1 X100.908 Y131.948 E7.62374
G1 X99.837 Y131.474 E7.69604
G1 X98.812 Y130.958 E7.76688
G1 X97.78 Y130.374 E7.84008
G1 X96.798 Y129.751 E7.91187
G1 X95.849 Y129.083 E7.98351
G1 X94.937 Y128.372 E8.0549
G1 X94.041 Y127.599 E8.12795
G1 X93.209 Y126.808 E8.19882
G1 X92.403 Y125.961 E8.271
G1 X91.641 Y125.079 E8.34295
G1 X90.923 Y124.162 E8.41485
G1 X90.252 Y123.208 E8.48685
G1 X89.628 Y122.224 E8.55878
G1 X89.053 Y121.208 E8.63084
G1 X88.529 Y120.17 E8.70262
G1 X88.046 Y119.079 E8.77628
G1 X87.629 Y118 E8.84769
G1 X87.27 Y116.914 E8.9183
G1 X86.956 Y115.784 E8.9907
G1 X86.708 Y114.678 E9.06067
G1 X86.502 Y113.497 E9.13467
G1 X86.356 Y112.326 E9.20752
G1 X86.272 Y111.175 E9.27876
G1 X86.242 Y110.003 E9.35114
;;retract;;
G1 F2400 E8.79114
G1 X86.339 Y108.005 E8.56314
G1 F2400 E8.55114
G0 F4800 X85.763 Y110.003
;TYPE:WALL-OUTER
G1 F2400 E9.35114
G1 F1800 X85.792 Y108.837 E9.41699
G1 X85.878 Y107.651 E9.48414
G1 X86.024 Y106.468 E9.55144
G1 X86.235 Y105.241 E9.62174
G1 X86.488 Y104.112 E9.68707
G1 X86.813 Y102.945 E9.75547
G1 X87.179 Y101.836 E9.82141
G1 X87.6 Y100.748 E9.88728
G1 X88.081 Y99.659 E9.9545
G1 X88.614 Y98.598 E10.02154
G1 X89.21 Y97.541 E10.09006
G1 X89.847 Y96.536 E10.15725
G1 X90.516 Y95.584 E10.22295
G1 X91.263 Y94.627 E10.29149
G1 X92.039 Y93.726 E10.35864
G1 X92.861 Y92.863 E10.42593
G1 X93.736 Y92.03 E10.49415
G1 X94.656 Y91.24 E10.56262
G1 X95.582 Y90.518 E10.62892
G1 X96.535 Y89.848 E10.6947
G1 X97.553 Y89.204 E10.76271
G1 X98.591 Y88.618 E10.83002
G1 X99.653 Y88.084 E10.89714
G1 X100.705 Y87.618 E10.9621
G1 X101.814 Y87.188 E11.02926
G1 X102.961 Y86.807 E11.09751
G1 X104.129 Y86.484 E11.16593
G1 X105.206 Y86.244 E11.22824
G1 X106.445 Y86.027 E11.29926
G1 X107.627 Y85.88 E11.36652
G1 X108.813 Y85.793 E11.43366
G1 X110 Y85.763 E11.50071
G1 X111.163 Y85.792 E11.56639
G1 X112.404 Y85.883 E11.63665
G1 X112.481 Y86.195 E11.6548
G1 X113.508 Y86.324 E11.71324
G1 X114.033 Y86.411 E11.74329
G1 X114.166 Y86.369 E11.75117
G1 X114.263 Y86.15 E11.76469
G1 X114.775 Y86.239 E11.79403
G1 X115.888 Y86.488 E11.85843
G1 X117.072 Y86.818 E11.92783
G1 X118.177 Y87.184 E11.99356
G1 X119.289 Y87.615 E12.0609
G1 X120.357 Y88.089 E12.12688
G1 X121.402 Y88.614 E12.19291
G1 X122.477 Y89.222 E12.26264
G1 X123.48 Y89.858 E12.3297
G1 X124.45 Y90.542 E12.39672
G1 X125.392 Y91.278 E12.46422
G1 X126.287 Y92.051 E12.53099
G1 X127.138 Y92.861 E12.59733
G1 X127.958 Y93.723 E12.66451
G1 X128.734 Y94.624 E12.73165
G1 X129.482 Y95.582 E12.80028
G1 X130.152 Y96.535 E12.86606
G1 X130.774 Y97.517 E12.93169
G1 X131.374 Y98.575 E13.00037
G1 X131.909 Y99.637 E13.06751
G1 X132.392 Y100.725 E13.13473
G1 X132.812 Y101.814 E13.20063
G1 X133.188 Y102.945 E13.26793
G1 X133.512 Y104.11 E13.33621
G1 X133.759 Y105.218 E13.4003
G1 X133.973 Y106.442 E13.47046
G1 X134.12 Y107.623 E13.53766
G1 X134.206 Y108.787 E13.60357
G1 X134.237 Y109.997 E13.67191
G1 X134.208 Y111.163 E13.73777
G1 X134.122 Y112.349 E13.80491
G1 X133.976 Y113.532 E13.87221
G1 X133.765 Y114.759 E13.94251
G1 X133.512 Y115.888 E14.00784
G1 X133.191 Y117.042 E14.07547
G1 X132.822 Y118.161 E14.142
G1 X132.392 Y119.273 E14.20932
G1 X131.919 Y120.341 E14.27528
G1 X131.364 Y121.444 E14.345
G1 X130.79 Y122.459 E14.41084
G1 X130.153 Y123.464 E14.47802
G1 X129.484 Y124.416 E14.54372
G1 X128.752 Y125.355 E14.61095
G1 X127.961 Y126.274 E14.67941
G1 X127.139 Y127.138 E14.74675
G1 X126.264 Y127.97 E14.81492
G1 X125.344 Y128.76 E14.8834
G1 X124.418 Y129.482 E14.9497
G1 X123.465 Y130.152 E15.01547
G1 X122.447 Y130.796 E15.08349
G1 X121.409 Y131.382 E15.15079
G1 X120.347 Y131.916 E15.21791
G1 X119.274 Y132.392 E15.28419
G1 X118.187 Y132.812 E15.34999
G1 X117.039 Y133.193 E15.41829
G1 X115.888 Y133.512 E15.48573
G1 X114.776 Y133.761 E15.55007
G1 X114.262 Y133.851 E15.57954
G1 X114.167 Y133.634 E15.59291
G1 X113.992 Y133.592 E15.60307
G1 X113.531 Y133.672 E15.62949
G1 X112.481 Y133.805 E15.68925
G1 X112.404 Y134.118 E15.70745
G1 X111.21 Y134.206 E15.77506
G1 X110 Y134.237 E15.8434
G1 X108.838 Y134.208 E15.90903
G1 X107.819 Y134.133 E15.96672
G1 X107.74 Y133.833 E15.98424
G1 X106.097 Y133.634 E16.07769
G1 X105.959 Y133.89 E16.09411
G1 X105.241 Y133.765 E16.13526
G1 X104.112 Y133.512 E16.20059
G1 X102.928 Y133.182 E16.26999
G1 X101.823 Y132.817 E16.3357
G1 X100.711 Y132.385 E16.40306
G1 X99.643 Y131.911 E16.46904
G1 X98.575 Y131.374 E16.53653
G1 X97.523 Y130.778 E16.6048
G1 X96.542 Y130.155 E16.67042
G1 X95.548 Y129.456 E16.73904
G1 X94.624 Y128.734 E16.80525
G1 X93.71 Y127.946 E16.87339
G1 X92.861 Y127.138 E16.93956
G1 X92.039 Y126.274 E17.0069
G1 X91.278 Y125.391 E17.07272
G1 X90.516 Y124.416 E17.14259
G1 X89.847 Y123.464 E17.20829
G1 X89.21 Y122.459 E17.27548
G1 X88.636 Y121.443 E17.34137
G1 X88.091 Y120.363 E17.40967
G1 X87.618 Y119.295 E17.47562
G1 X87.187 Y118.184 E17.54291
G1 X86.808 Y117.042 E17.61085
G1 X86.488 Y115.888 E17.67847
G1 X86.241 Y114.782 E17.74246
G1 X86.027 Y113.555 E17.81279
G1 X85.88 Y112.373 E17.88004
G1 X85.793 Y111.187 E17.94719
G1 X85.763 Y110.003 E18.01406
G0 F4800 X85.767 Y109.803
G0 X86.447 Y109.82
G0 X87.058 Y110.023
G0 X87.259 Y110.019
;TYPE:WALL-INNER
G1 F1800 X87.287 Y108.869 E18.08507
G1 X87.37 Y107.756 E18.15397
G1 X87.504 Y106.675 E18.22122
G1 X87.691 Y105.584 E18.28955
G1 X87.944 Y104.456 E18.36091
G1 X88.248 Y103.361 E18.43106
G1 X88.593 Y102.323 E18.49859
G1 X88.995 Y101.286 E18.56725
G1 X89.449 Y100.262 E18.63639
G1 X89.952 Y99.266 E18.70527
G1 X90.504 Y98.293 E18.77433
G1 X91.103 Y97.35 E18.8433
G1 X91.744 Y96.441 E18.91196
G1 X92.42 Y95.574 E18.97983
G1 X93.147 Y94.73 E19.04859
G1 X93.919 Y93.92 E19.11767
G1 X94.74 Y93.139 E19.18762
G1 X95.576 Y92.418 E19.25577
G1 X96.455 Y91.733 E19.32456
G1 X97.365 Y91.093 E19.39324
G1 X98.311 Y90.494 E19.46236
G1 X99.25 Y89.961 E19.52902
G1 X100.243 Y89.458 E19.59773
G1 X101.297 Y88.99 E19.66892
G1 X102.302 Y88.601 E19.73545
G1 X103.385 Y88.243 E19.80586
G1 X104.48 Y87.938 E19.87603
G1 X105.54 Y87.699 E19.94311
G1 X106.71 Y87.496 E20.01642
G1 X107.775 Y87.368 E20.08263
G1 X108.852 Y87.288 E20.1493
G1 X109.993 Y87.258 E20.21976
G1 X111.131 Y87.287 E20.29004
G1 X111.718 Y87.331 E20.32637
G1 F1611.2 X112.197 Y87.309 E20.35944
G1 F1465.5 X113.318 Y87.447 E20.44508
G1 F1463.1 X113.985 Y87.557 E20.49643
G1 F1608.3 X114.398 Y87.688 E20.52636
G1 F1800 X115.539 Y87.944 E20.59855
G1 X116.625 Y88.244 E20.6681
G1 X117.667 Y88.59 E20.73588
G1 X118.705 Y88.99 E20.80455
G1 X119.707 Y89.434 E20.87221
G1 X120.72 Y89.945 E20.94225
G1 X121.697 Y90.498 E21.01155
G1 X122.609 Y91.075 E21.07817
G1 X123.549 Y91.737 E21.14914
G1 X124.425 Y92.419 E21.21768
G1 X125.282 Y93.159 E21.28757
G1 X126.081 Y93.92 E21.35569
G1 X126.861 Y94.74 E21.42555
G1 X127.59 Y95.586 E21.49449
G1 X128.266 Y96.453 E21.56236
G1 X128.916 Y97.378 E21.63215
G1 X129.515 Y98.324 E21.70127
G1 X130.062 Y99.293 E21.76996
G1 X130.549 Y100.256 E21.83658
G1 X131.018 Y101.317 E21.90819
G1 X131.418 Y102.354 E21.97681
G1 X131.761 Y103.394 E22.04441
G1 X132.064 Y104.489 E22.11455
G1 X132.313 Y105.601 E22.18489
G1 X132.498 Y106.677 E22.25229
G1 X132.634 Y107.788 E22.32139
G1 X132.715 Y108.883 E22.38917
G1 X132.742 Y109.998 E22.45802
G1 X132.714 Y111.132 E22.52804
G1 X132.634 Y112.21 E22.59477
G1 X132.496 Y113.325 E22.66413
G1 X132.301 Y114.455 E22.73492
G1 X132.056 Y115.544 E22.80382
G1 X131.753 Y116.636 E22.87378
G1 X131.407 Y117.676 E22.94144
G1 X131.005 Y118.718 E23.01039
G1 X130.549 Y119.744 E23.0797
G1 X130.048 Y120.734 E23.14819
G1 X129.496 Y121.707 E23.21725
G1 X128.897 Y122.65 E23.28622
G1 X128.259 Y123.556 E23.35462
G1 X127.581 Y124.426 E23.42271
G1 X126.841 Y125.283 E23.49261
G1 X126.069 Y126.092 E23.56164
G1 X125.286 Y126.838 E23.6284
G1 X124.424 Y127.582 E23.69869
G1 X123.545 Y128.267 E23.76749
G1 X122.635 Y128.907 E23.83617
G1 X121.718 Y129.49 E23.90325
G1 X120.75 Y130.039 E23.97194
G1 X119.72 Y130.559 E24.04317
G1 X118.703 Y131.01 E24.11185
G1 X117.698 Y131.399 E24.17837
G1 X116.615 Y131.758 E24.24881
G1 X115.526 Y132.06 E24.31857
G1 X114.433 Y132.306 E24.38773
G1 F1623 X113.797 Y132.472 E24.43274
G1 F1477.6 X113.296 Y132.558 E24.47096
G1 F1463.1 X112.265 Y132.688 E24.54989
G1 F1605.4 X111.717 Y132.67 E24.58784
G1 F1800 X111.113 Y132.714 E24.62522
G1 X110.007 Y132.742 E24.69352
G1 X108.868 Y132.714 E24.76385
G1 X108.493 Y132.686 E24.78707
